(back_engraving_bis)
(Machine)
(  vendor: Ooznest)
(  model: Workbee 1000x1500)
(  description: This machine has YXZ axis on the Head)
G21
G90
(When using Fusion 360 for Personal Use, the feedrate of)
(rapid moves is reduced to match the feedrate of cutting)
(moves, which can increase machining time. Unrestricted rapid)
(moves are available with a Fusion 360 Subscription.)

(Trace2 2)
G0 X20.000 Y-117.159 Z15.000
G1 X20.000 Y-117.159 Z15.000 F1000
G1 X20.000 Y-117.159 Z5.000 F1000
G1 X20.000 Y-117.159 Z-0.400 F333.3
G1 X20.000 Y-88.000 Z-0.400 F1000
G1 X20.019 Y-87.664 Z-0.400 F1000
G1 X20.075 Y-87.332 Z-0.400 F1000
G1 X20.168 Y-87.009 Z-0.400 F1000
G1 X20.297 Y-86.698 Z-0.400 F1000
G1 X20.460 Y-86.404 Z-0.400 F1000
G1 X20.654 Y-86.130 Z-0.400 F1000
G1 X20.879 Y-85.879 Z-0.400 F1000
G1 X21.129 Y-85.655 Z-0.400 F1000
G1 X21.404 Y-85.460 Z-0.400 F1000
G1 X21.698 Y-85.297 Z-0.400 F1000
G1 X22.009 Y-85.168 Z-0.400 F1000
G1 X22.332 Y-85.075 Z-0.400 F1000
G1 X22.664 Y-85.019 Z-0.400 F1000
G1 X23.000 Y-85.000 Z-0.400 F1000
G1 X107.500 Y-85.000 Z-0.400 F1000
G1 X107.836 Y-85.019 Z-0.400 F1000
G1 X108.168 Y-85.075 Z-0.400 F1000
G1 X108.491 Y-85.168 Z-0.400 F1000
G1 X108.802 Y-85.297 Z-0.400 F1000
G1 X109.096 Y-85.460 Z-0.400 F1000
G1 X109.370 Y-85.655 Z-0.400 F1000
G1 X109.621 Y-85.879 Z-0.400 F1000
G1 X109.845 Y-86.130 Z-0.400 F1000
G1 X110.040 Y-86.404 Z-0.400 F1000
G1 X110.203 Y-86.698 Z-0.400 F1000
G1 X110.332 Y-87.009 Z-0.400 F1000
G1 X110.425 Y-87.332 Z-0.400 F1000
G1 X110.481 Y-87.664 Z-0.400 F1000
G1 X110.500 Y-88.000 Z-0.400 F1000
G1 X110.500 Y-117.159 Z-0.400 F1000
G1 X110.481 Y-117.495 Z-0.400 F1000
G1 X110.425 Y-117.827 Z-0.400 F1000
G1 X110.332 Y-118.150 Z-0.400 F1000
G1 X110.203 Y-118.461 Z-0.400 F1000
G1 X110.040 Y-118.755 Z-0.400 F1000
G1 X109.845 Y-119.030 Z-0.400 F1000
G1 X109.621 Y-119.281 Z-0.400 F1000
G1 X109.370 Y-119.505 Z-0.400 F1000
G1 X109.096 Y-119.699 Z-0.400 F1000
G1 X108.802 Y-119.862 Z-0.400 F1000
G1 X108.491 Y-119.991 Z-0.400 F1000
G1 X108.168 Y-120.084 Z-0.400 F1000
G1 X107.836 Y-120.140 Z-0.400 F1000
G1 X107.500 Y-120.159 Z-0.400 F1000
G1 X23.000 Y-120.159 Z-0.400 F1000
G1 X22.664 Y-120.140 Z-0.400 F1000
G1 X22.332 Y-120.084 Z-0.400 F1000
G1 X22.009 Y-119.991 Z-0.400 F1000
G1 X21.698 Y-119.862 Z-0.400 F1000
G1 X21.404 Y-119.699 Z-0.400 F1000
G1 X21.129 Y-119.505 Z-0.400 F1000
G1 X20.879 Y-119.281 Z-0.400 F1000
G1 X20.654 Y-119.030 Z-0.400 F1000
G1 X20.460 Y-118.755 Z-0.400 F1000
G1 X20.297 Y-118.461 Z-0.400 F1000
G1 X20.168 Y-118.150 Z-0.400 F1000
G1 X20.075 Y-117.827 Z-0.400 F1000
G1 X20.019 Y-117.495 Z-0.400 F1000
G1 X20.000 Y-117.159 Z-0.400 F1000
G1 X20.000 Y-117.159 Z5.000 F1000
G1 X35.210 Y-114.964 Z5.000 F1000
G1 X35.210 Y-114.964 Z-0.400 F333.3
G1 X35.210 Y-111.454 Z-0.400 F1000
G1 X36.185 Y-111.454 Z-0.400 F1000
G1 X36.375 Y-111.473 Z-0.400 F1000
G1 X36.558 Y-111.528 Z-0.400 F1000
G1 X36.727 Y-111.618 Z-0.400 F1000
G1 X36.875 Y-111.740 Z-0.400 F1000
G1 X36.996 Y-111.888 Z-0.400 F1000
G1 X37.086 Y-112.056 Z-0.400 F1000
G1 X37.141 Y-112.239 Z-0.400 F1000
G1 X37.160 Y-112.429 Z-0.400 F1000
G1 X37.141 Y-112.619 Z-0.400 F1000
G1 X37.086 Y-112.802 Z-0.400 F1000
G1 X36.996 Y-112.971 Z-0.400 F1000
G1 X36.875 Y-113.119 Z-0.400 F1000
G1 X36.727 Y-113.240 Z-0.400 F1000
G1 X36.558 Y-113.330 Z-0.400 F1000
G1 X36.375 Y-113.385 Z-0.400 F1000
G1 X36.185 Y-113.404 Z-0.400 F1000
G1 X35.210 Y-113.404 Z-0.400 F1000
G1 X35.210 Y-113.404 Z5.000 F1000
G1 X38.330 Y-113.989 Z5.000 F1000
G1 X38.330 Y-113.989 Z-0.400 F333.3
G1 X38.330 Y-112.429 Z-0.400 F1000
G1 X38.349 Y-112.239 Z-0.400 F1000
G1 X38.404 Y-112.056 Z-0.400 F1000
G1 X38.495 Y-111.888 Z-0.400 F1000
G1 X38.616 Y-111.740 Z-0.400 F1000
G1 X38.764 Y-111.618 Z-0.400 F1000
G1 X38.932 Y-111.528 Z-0.400 F1000
G1 X39.115 Y-111.473 Z-0.400 F1000
G1 X39.305 Y-111.454 Z-0.400 F1000
G1 X39.495 Y-111.473 Z-0.400 F1000
G1 X39.678 Y-111.528 Z-0.400 F1000
G1 X39.847 Y-111.618 Z-0.400 F1000
G1 X39.995 Y-111.740 Z-0.400 F1000
G1 X40.116 Y-111.888 Z-0.400 F1000
G1 X40.206 Y-112.056 Z-0.400 F1000
G1 X40.262 Y-112.239 Z-0.400 F1000
G1 X40.280 Y-112.429 Z-0.400 F1000
G1 X40.280 Y-113.989 Z-0.400 F1000
G1 X40.262 Y-114.179 Z-0.400 F1000
G1 X40.206 Y-114.362 Z-0.400 F1000
G1 X40.116 Y-114.531 Z-0.400 F1000
G1 X39.995 Y-114.679 Z-0.400 F1000
G1 X39.847 Y-114.800 Z-0.400 F1000
G1 X39.678 Y-114.890 Z-0.400 F1000
G1 X39.495 Y-114.945 Z-0.400 F1000
G1 X39.305 Y-114.964 Z-0.400 F1000
G1 X39.115 Y-114.945 Z-0.400 F1000
G1 X38.932 Y-114.890 Z-0.400 F1000
G1 X38.764 Y-114.800 Z-0.400 F1000
G1 X38.616 Y-114.679 Z-0.400 F1000
G1 X38.495 Y-114.531 Z-0.400 F1000
G1 X38.404 Y-114.362 Z-0.400 F1000
G1 X38.349 Y-114.179 Z-0.400 F1000
G1 X38.330 Y-113.989 Z-0.400 F1000
G1 X38.330 Y-113.989 Z5.000 F1000
G1 X42.620 Y-111.454 Z5.000 F1000
G1 X42.620 Y-111.454 Z-0.400 F333.3
G1 X42.620 Y-114.184 Z-0.400 F1000
G1 X42.601 Y-114.358 Z-0.400 F1000
G1 X42.543 Y-114.523 Z-0.400 F1000
G1 X42.450 Y-114.671 Z-0.400 F1000
G1 X42.327 Y-114.794 Z-0.400 F1000
G1 X42.179 Y-114.887 Z-0.400 F1000
G1 X42.014 Y-114.945 Z-0.400 F1000
G1 X41.840 Y-114.964 Z-0.400 F1000
G1 X41.450 Y-114.964 Z-0.400 F1000
G1 X41.450 Y-114.964 Z5.000 F1000
G1 X43.790 Y-111.454 Z5.000 F1000
G1 X43.790 Y-111.454 Z-0.400 F333.3
G1 X43.790 Y-114.964 Z-0.400 F1000
G1 X43.790 Y-114.964 Z5.000 F1000
G1 X46.715 Y-111.649 Z5.000 F1000
G1 X46.715 Y-111.649 Z-0.400 F333.3
G1 X46.479 Y-111.566 Z-0.400 F1000
G1 X46.237 Y-111.506 Z-0.400 F1000
G1 X45.990 Y-111.468 Z-0.400 F1000
G1 X45.740 Y-111.454 Z-0.400 F1000
G1 X45.568 Y-111.474 Z-0.400 F1000
G1 X45.404 Y-111.532 Z-0.400 F1000
G1 X45.256 Y-111.624 Z-0.400 F1000
G1 X45.133 Y-111.747 Z-0.400 F1000
G1 X45.040 Y-111.893 Z-0.400 F1000
G1 X44.981 Y-112.057 Z-0.400 F1000
G1 X44.960 Y-112.230 Z-0.400 F1000
G1 X44.978 Y-112.402 Z-0.400 F1000
G1 X45.033 Y-112.567 Z-0.400 F1000
G1 X45.123 Y-112.716 Z-0.400 F1000
G1 X45.244 Y-112.841 Z-0.400 F1000
G1 X45.389 Y-112.936 Z-0.400 F1000
G1 X46.481 Y-113.482 Z-0.400 F1000
G1 X46.627 Y-113.578 Z-0.400 F1000
G1 X46.747 Y-113.703 Z-0.400 F1000
G1 X46.838 Y-113.851 Z-0.400 F1000
G1 X46.893 Y-114.016 Z-0.400 F1000
G1 X46.910 Y-114.189 Z-0.400 F1000
G1 X46.889 Y-114.361 Z-0.400 F1000
G1 X46.831 Y-114.525 Z-0.400 F1000
G1 X46.737 Y-114.672 Z-0.400 F1000
G1 X46.614 Y-114.794 Z-0.400 F1000
G1 X46.467 Y-114.887 Z-0.400 F1000
G1 X46.303 Y-114.944 Z-0.400 F1000
G1 X46.130 Y-114.964 Z-0.400 F1000
G1 X45.882 Y-114.940 Z-0.400 F1000
G1 X45.637 Y-114.888 Z-0.400 F1000
G1 X45.400 Y-114.809 Z-0.400 F1000
G1 X45.174 Y-114.704 Z-0.400 F1000
G1 X44.960 Y-114.574 Z-0.400 F1000
G1 X44.960 Y-114.574 Z5.000 F1000
G1 X49.055 Y-111.454 Z5.000 F1000
G1 X49.055 Y-111.454 Z-0.400 F333.3
G1 X49.055 Y-114.964 Z-0.400 F1000
G1 X49.055 Y-114.964 Z5.000 F1000
G1 X51.200 Y-113.599 Z5.000 F1000
G1 X51.200 Y-113.599 Z-0.400 F333.3
G1 X53.150 Y-111.454 Z-0.400 F1000
G1 X53.150 Y-111.454 Z5.000 F1000
G1 X51.200 Y-111.454 Z5.000 F1000
G1 X51.200 Y-111.454 Z-0.400 F333.3
G1 X51.200 Y-114.964 Z-0.400 F1000
G1 X51.200 Y-114.964 Z5.000 F1000
G1 X53.170 Y-114.964 Z5.000 F1000
G1 X53.170 Y-114.964 Z-0.400 F333.3
G1 X51.951 Y-112.770 Z-0.400 F1000
G1 X51.951 Y-112.770 Z5.000 F1000
G1 X50.030 Y-111.454 Z5.000 F1000
G1 X50.030 Y-111.454 Z-0.400 F333.3
G1 X48.080 Y-111.454 Z-0.400 F1000
G1 X48.080 Y-111.454 Z5.000 F1000
G1 X54.681 Y-113.989 Z5.000 F1000
G1 X54.681 Y-113.989 Z-0.400 F333.3
G1 X56.339 Y-113.989 Z-0.400 F1000
G1 X56.339 Y-113.989 Z5.000 F1000
G1 X54.340 Y-114.964 Z5.000 F1000
G1 X54.340 Y-114.964 Z-0.400 F333.3
G1 X55.510 Y-111.454 Z-0.400 F1000
G1 X56.680 Y-114.964 Z-0.400 F1000
G1 X56.680 Y-114.964 Z5.000 F1000
G1 X60.775 Y-111.454 Z5.000 F1000
G1 X60.775 Y-111.454 Z-0.400 F333.3
G1 X59.410 Y-111.454 Z-0.400 F1000
G1 X59.410 Y-113.014 Z-0.400 F1000
G1 X60.190 Y-113.014 Z-0.400 F1000
G1 X60.363 Y-113.034 Z-0.400 F1000
G1 X60.528 Y-113.091 Z-0.400 F1000
G1 X60.676 Y-113.184 Z-0.400 F1000
G1 X60.800 Y-113.308 Z-0.400 F1000
G1 X60.893 Y-113.456 Z-0.400 F1000
G1 X60.950 Y-113.621 Z-0.400 F1000
G1 X60.970 Y-113.794 Z-0.400 F1000
G1 X60.970 Y-114.184 Z-0.400 F1000
G1 X60.950 Y-114.358 Z-0.400 F1000
G1 X60.893 Y-114.523 Z-0.400 F1000
G1 X60.800 Y-114.671 Z-0.400 F1000
G1 X60.676 Y-114.794 Z-0.400 F1000
G1 X60.528 Y-114.887 Z-0.400 F1000
G1 X60.363 Y-114.945 Z-0.400 F1000
G1 X60.190 Y-114.964 Z-0.400 F1000
G1 X59.410 Y-114.964 Z-0.400 F1000
G1 X59.410 Y-114.964 Z5.000 F1000
G1 X62.260 Y-114.101 Z5.000 F1000
G1 X62.260 Y-114.101 Z-0.400 F333.3
G1 X62.181 Y-113.748 Z-0.400 F1000
G1 X62.142 Y-113.390 Z-0.400 F1000
G1 X62.142 Y-113.029 Z-0.400 F1000
G1 X62.181 Y-112.670 Z-0.400 F1000
G1 X62.260 Y-112.318 Z-0.400 F1000
G1 X62.376 Y-111.976 Z-0.400 F1000
G1 X62.530 Y-111.649 Z-0.400 F1000
G1 X62.620 Y-111.557 Z-0.400 F1000
G1 X62.731 Y-111.491 Z-0.400 F1000
G1 X62.855 Y-111.457 Z-0.400 F1000
G1 X62.984 Y-111.457 Z-0.400 F1000
G1 X63.109 Y-111.491 Z-0.400 F1000
G1 X63.220 Y-111.557 Z-0.400 F1000
G1 X63.310 Y-111.649 Z-0.400 F1000
G1 X63.463 Y-111.976 Z-0.400 F1000
G1 X63.580 Y-112.318 Z-0.400 F1000
G1 X63.658 Y-112.670 Z-0.400 F1000
G1 X63.698 Y-113.029 Z-0.400 F1000
G1 X63.698 Y-113.390 Z-0.400 F1000
G1 X63.658 Y-113.748 Z-0.400 F1000
G1 X63.580 Y-114.101 Z-0.400 F1000
G1 X63.463 Y-114.442 Z-0.400 F1000
G1 X63.310 Y-114.769 Z-0.400 F1000
G1 X63.220 Y-114.862 Z-0.400 F1000
G1 X63.109 Y-114.927 Z-0.400 F1000
G1 X62.984 Y-114.961 Z-0.400 F1000
G1 X62.855 Y-114.961 Z-0.400 F1000
G1 X62.731 Y-114.927 Z-0.400 F1000
G1 X62.620 Y-114.862 Z-0.400 F1000
G1 X62.530 Y-114.769 Z-0.400 F1000
G1 X62.376 Y-114.442 Z-0.400 F1000
G1 X62.260 Y-114.101 Z-0.400 F1000
G1 X62.260 Y-114.101 Z5.000 F1000
G1 X64.990 Y-114.101 Z5.000 F1000
G1 X64.990 Y-114.101 Z-0.400 F333.3
G1 X64.911 Y-113.748 Z-0.400 F1000
G1 X64.872 Y-113.390 Z-0.400 F1000
G1 X64.872 Y-113.029 Z-0.400 F1000
G1 X64.911 Y-112.670 Z-0.400 F1000
G1 X64.990 Y-112.318 Z-0.400 F1000
G1 X65.106 Y-111.976 Z-0.400 F1000
G1 X65.260 Y-111.649 Z-0.400 F1000
G1 X65.350 Y-111.557 Z-0.400 F1000
G1 X65.461 Y-111.491 Z-0.400 F1000
G1 X65.585 Y-111.457 Z-0.400 F1000
G1 X65.714 Y-111.457 Z-0.400 F1000
G1 X65.839 Y-111.491 Z-0.400 F1000
G1 X65.950 Y-111.557 Z-0.400 F1000
G1 X66.040 Y-111.649 Z-0.400 F1000
G1 X66.193 Y-111.976 Z-0.400 F1000
G1 X66.310 Y-112.318 Z-0.400 F1000
G1 X66.388 Y-112.670 Z-0.400 F1000
G1 X66.428 Y-113.029 Z-0.400 F1000
G1 X66.428 Y-113.390 Z-0.400 F1000
G1 X66.388 Y-113.748 Z-0.400 F1000
G1 X66.310 Y-114.101 Z-0.400 F1000
G1 X66.193 Y-114.442 Z-0.400 F1000
G1 X66.040 Y-114.769 Z-0.400 F1000
G1 X65.950 Y-114.862 Z-0.400 F1000
G1 X65.839 Y-114.927 Z-0.400 F1000
G1 X65.714 Y-114.961 Z-0.400 F1000
G1 X65.585 Y-114.961 Z-0.400 F1000
G1 X65.461 Y-114.927 Z-0.400 F1000
G1 X65.350 Y-114.862 Z-0.400 F1000
G1 X65.260 Y-114.769 Z-0.400 F1000
G1 X65.106 Y-114.442 Z-0.400 F1000
G1 X64.990 Y-114.101 Z-0.400 F1000
G1 X64.990 Y-114.101 Z5.000 F1000
G1 X69.160 Y-114.964 Z5.000 F1000
G1 X69.160 Y-114.964 Z-0.400 F333.3
G1 X69.160 Y-112.624 Z-0.400 F1000
G1 X70.817 Y-112.624 Z-0.400 F1000
G1 X70.969 Y-112.641 Z-0.400 F1000
G1 X71.113 Y-112.692 Z-0.400 F1000
G1 X71.243 Y-112.773 Z-0.400 F1000
G1 X71.351 Y-112.881 Z-0.400 F1000
G1 X71.432 Y-113.011 Z-0.400 F1000
G1 X71.483 Y-113.155 Z-0.400 F1000
G1 X71.500 Y-113.307 Z-0.400 F1000
G1 X71.500 Y-114.964 Z-0.400 F1000
G1 X71.500 Y-114.964 Z5.000 F1000
G1 X72.670 Y-114.964 Z5.000 F1000
G1 X72.670 Y-114.964 Z-0.400 F333.3
G1 X73.840 Y-111.454 Z-0.400 F1000
G1 X75.010 Y-114.964 Z-0.400 F1000
G1 X75.010 Y-114.964 Z5.000 F1000
G1 X73.011 Y-113.989 Z5.000 F1000
G1 X73.011 Y-113.989 Z-0.400 F333.3
G1 X74.669 Y-113.989 Z-0.400 F1000
G1 X74.669 Y-113.989 Z5.000 F1000
G1 X77.740 Y-114.964 Z5.000 F1000
G1 X77.740 Y-114.964 Z-0.400 F333.3
G1 X77.740 Y-111.454 Z-0.400 F1000
G1 X78.715 Y-111.454 Z-0.400 F1000
G1 X78.905 Y-111.473 Z-0.400 F1000
G1 X79.088 Y-111.528 Z-0.400 F1000
G1 X79.256 Y-111.618 Z-0.400 F1000
G1 X79.404 Y-111.740 Z-0.400 F1000
G1 X79.525 Y-111.888 Z-0.400 F1000
G1 X79.616 Y-112.056 Z-0.400 F1000
G1 X79.671 Y-112.239 Z-0.400 F1000
G1 X79.690 Y-112.429 Z-0.400 F1000
G1 X79.671 Y-112.619 Z-0.400 F1000
G1 X79.616 Y-112.802 Z-0.400 F1000
G1 X79.525 Y-112.971 Z-0.400 F1000
G1 X79.404 Y-113.119 Z-0.400 F1000
G1 X79.256 Y-113.240 Z-0.400 F1000
G1 X79.088 Y-113.330 Z-0.400 F1000
G1 X78.905 Y-113.385 Z-0.400 F1000
G1 X78.715 Y-113.404 Z-0.400 F1000
G1 X77.740 Y-113.404 Z-0.400 F1000
G1 X77.740 Y-113.404 Z5.000 F1000
G1 X79.690 Y-114.964 Z5.000 F1000
G1 X79.690 Y-114.964 Z-0.400 F333.3
G1 X78.910 Y-113.404 Z-0.400 F1000
G1 X78.910 Y-113.404 Z5.000 F1000
G1 X82.030 Y-114.964 Z5.000 F1000
G1 X82.030 Y-114.964 Z-0.400 F333.3
G1 X82.030 Y-113.209 Z-0.400 F1000
G1 X82.030 Y-113.209 Z5.000 F1000
G1 X83.200 Y-111.454 Z5.000 F1000
G1 X83.200 Y-111.454 Z-0.400 F333.3
G1 X82.030 Y-113.209 Z-0.400 F1000
G1 X80.860 Y-111.454 Z-0.400 F1000
G1 X80.860 Y-111.454 Z5.000 F1000
G1 X85.930 Y-114.964 Z5.000 F1000
G1 X85.930 Y-114.964 Z-0.400 F333.3
G1 X85.247 Y-114.964 Z-0.400 F1000
G1 X85.076 Y-114.947 Z-0.400 F1000
G1 X84.911 Y-114.897 Z-0.400 F1000
G1 X84.760 Y-114.816 Z-0.400 F1000
G1 X84.627 Y-114.707 Z-0.400 F1000
G1 X84.518 Y-114.574 Z-0.400 F1000
G1 X84.437 Y-114.422 Z-0.400 F1000
G1 X84.387 Y-114.258 Z-0.400 F1000
G1 X84.370 Y-114.087 Z-0.400 F1000
G1 X84.370 Y-112.332 Z-0.400 F1000
G1 X84.370 Y-112.332 Z-0.400 F1000
G1 X84.387 Y-112.160 Z-0.400 F1000
G1 X84.437 Y-111.996 Z-0.400 F1000
G1 X84.518 Y-111.844 Z-0.400 F1000
G1 X84.627 Y-111.711 Z-0.400 F1000
G1 X84.760 Y-111.602 Z-0.400 F1000
G1 X84.911 Y-111.521 Z-0.400 F1000
G1 X85.076 Y-111.471 Z-0.400 F1000
G1 X85.247 Y-111.454 Z-0.400 F1000
G1 X85.930 Y-111.454 Z-0.400 F1000
G1 X85.930 Y-111.454 Z5.000 F1000
G1 X87.100 Y-111.454 Z5.000 F1000
G1 X87.100 Y-111.454 Z-0.400 F333.3
G1 X87.100 Y-114.964 Z-0.400 F1000
G1 X87.100 Y-114.964 Z5.000 F1000
G1 X89.050 Y-114.964 Z5.000 F1000
G1 X89.050 Y-114.964 Z-0.400 F333.3
G1 X89.050 Y-111.454 Z-0.400 F1000
G1 X89.050 Y-111.454 Z5.000 F1000
G1 X89.050 Y-113.014 Z5.000 F1000
G1 X89.050 Y-113.014 Z-0.400 F333.3
G1 X87.100 Y-113.014 Z-0.400 F1000
G1 X87.100 Y-113.014 Z5.000 F1000
G1 X91.780 Y-114.964 Z5.000 F1000
G1 X91.780 Y-114.964 Z-0.400 F333.3
G1 X90.220 Y-114.964 Z-0.400 F1000
G1 X90.220 Y-111.454 Z-0.400 F1000
G1 X90.220 Y-111.454 Z5.000 F1000
G1 X93.291 Y-113.989 Z5.000 F1000
G1 X93.291 Y-113.989 Z-0.400 F333.3
G1 X94.949 Y-113.989 Z-0.400 F1000
G1 X94.949 Y-113.989 Z5.000 F1000
G1 X92.950 Y-114.964 Z5.000 F1000
G1 X92.950 Y-114.964 Z-0.400 F333.3
G1 X94.120 Y-111.454 Z-0.400 F1000
G1 X95.290 Y-114.964 Z-0.400 F1000
G1 X95.290 Y-114.964 Z5.000 F1000
G1 X94.510 Y-109.894 Z5.000 F1000
G1 X94.510 Y-109.894 Z-0.400 F333.3
G1 X93.730 Y-110.479 Z-0.400 F1000
G1 X93.730 Y-110.479 Z5.000 F1000
G1 X70.330 Y-112.624 Z5.000 F1000
G1 X70.330 Y-112.624 Z-0.400 F333.3
G1 X70.330 Y-114.964 Z-0.400 F1000
G1 X70.330 Y-114.964 Z5.000 F1000
G1 X70.330 Y-114.964 Z15.000 F1000
