(back_pockets_bis)
(Machine)
(  vendor: Ooznest)
(  model: Workbee 1000x1500)
(  description: This machine has YXZ axis on the Head)
G21
G90
(When using Fusion 360 for Personal Use, the feedrate of)
(rapid moves is reduced to match the feedrate of cutting)
(moves, which can increase machining time. Unrestricted rapid)
(moves are available with a Fusion 360 Subscription.)

(2D Contour2 2)
G0 X43.266 Y-101.639 Z15.000
G1 X43.266 Y-101.639 Z15.000 F2540
G1 X43.266 Y-101.639 Z5.000 F2540
G1 X43.266 Y-101.639 Z2.500 F762
G3 X39.234 Y-92.679 Z1.961 I-2.016 J4.480 F762
G3 X43.266 Y-101.639 Z1.422 I2.016 J-4.480 F762
G3 X39.234 Y-92.679 Z0.883 I-2.016 J4.480 F762
G3 X43.266 Y-101.639 Z0.344 I2.016 J-4.480 F762
G3 X39.234 Y-92.679 Z-0.195 I-2.016 J4.480 F762
G3 X43.266 Y-101.639 Z-0.734 I2.016 J-4.480 F762
G3 X41.250 Y-92.247 Z-1.200 I-2.016 J4.480 F762
G3 X41.250 Y-102.072 Z-1.200 I0.000 J-4.913 F2540
G3 X41.250 Y-92.247 Z-1.200 I0.000 J4.913 F2540
G3 X41.250 Y-102.072 Z-1.739 I0.000 J-4.913 F762
G3 X41.250 Y-92.247 Z-2.278 I0.000 J4.913 F762
G3 X38.041 Y-93.440 Z-2.400 I0.000 J-4.913 F762
G3 X44.459 Y-100.878 Z-2.400 I3.209 J-3.719 F2540
G3 X38.041 Y-93.440 Z-2.400 I-3.209 J3.719 F2540
G3 X44.459 Y-100.878 Z-2.939 I3.209 J-3.719 F762
G3 X38.041 Y-93.440 Z-3.478 I-3.209 J3.719 F762
G3 X36.390 Y-96.440 Z-3.600 I3.209 J-3.719 F762
G3 X46.110 Y-97.878 Z-3.600 I4.860 J-0.719 F2540
G3 X36.390 Y-96.440 Z-3.600 I-4.860 J0.719 F2540
G3 X46.110 Y-97.878 Z-4.139 I4.860 J-0.719 F762
G3 X39.396 Y-92.610 Z-4.500 I-4.860 J0.719 F762
G3 X43.104 Y-101.708 Z-4.500 I1.854 J-4.549 F2540
G3 X39.396 Y-92.610 Z-4.500 I-1.854 J4.549 F2540
G1 X39.396 Y-92.610 Z5.000 F2540
G1 X91.266 Y-101.639 Z5.000 F2540
G1 X91.266 Y-101.639 Z2.500 F762
G3 X87.234 Y-92.679 Z1.961 I-2.016 J4.480 F762
G3 X91.266 Y-101.639 Z1.422 I2.016 J-4.480 F762
G3 X87.234 Y-92.679 Z0.883 I-2.016 J4.480 F762
G3 X91.266 Y-101.639 Z0.344 I2.016 J-4.480 F762
G3 X87.234 Y-92.679 Z-0.195 I-2.016 J4.480 F762
G3 X91.266 Y-101.639 Z-0.734 I2.016 J-4.480 F762
G3 X89.250 Y-92.247 Z-1.200 I-2.016 J4.480 F762
G3 X89.250 Y-102.072 Z-1.200 I0.000 J-4.913 F2540
G3 X89.250 Y-92.247 Z-1.200 I0.000 J4.913 F2540
G3 X89.250 Y-102.072 Z-1.739 I0.000 J-4.913 F762
G3 X89.250 Y-92.247 Z-2.278 I0.000 J4.913 F762
G3 X86.041 Y-93.440 Z-2.400 I0.000 J-4.913 F762
G3 X92.459 Y-100.878 Z-2.400 I3.209 J-3.719 F2540
G3 X86.041 Y-93.440 Z-2.400 I-3.209 J3.719 F2540
G3 X92.459 Y-100.878 Z-2.939 I3.209 J-3.719 F762
G3 X86.041 Y-93.440 Z-3.478 I-3.209 J3.719 F762
G3 X84.390 Y-96.440 Z-3.600 I3.209 J-3.719 F762
G3 X94.110 Y-97.878 Z-3.600 I4.860 J-0.719 F2540
G3 X84.390 Y-96.440 Z-3.600 I-4.860 J0.719 F2540
G3 X94.110 Y-97.878 Z-4.139 I4.860 J-0.719 F762
G3 X87.396 Y-92.610 Z-4.500 I-4.860 J0.719 F762
G3 X91.104 Y-101.708 Z-4.500 I1.854 J-4.549 F2540
G3 X87.396 Y-92.610 Z-4.500 I-1.854 J4.549 F2540
G1 X87.396 Y-92.610 Z15.000 F2540
