(back_pockets_ter)
(Machine)
(  vendor: Ooznest)
(  model: Workbee 1000x1500)
(  description: This machine has YXZ axis on the Head)
G21
G90
(When using Fusion 360 for Personal Use, the feedrate of)
(rapid moves is reduced to match the feedrate of cutting)
(moves, which can increase machining time. Unrestricted rapid)
(moves are available with a Fusion 360 Subscription.)

(2D Contour2 3)
G0 X154.762 Y-95.890 Z15.000
G1 X154.762 Y-95.890 Z15.000 F2540
G1 X154.762 Y-95.890 Z5.000 F2540
G1 X154.762 Y-95.890 Z2.500 F762
G1 X154.762 Y-93.497 Z2.416 F762
G1 X145.438 Y-93.497 Z2.091 F762
G1 X145.438 Y-100.822 Z1.835 F762
G1 X154.762 Y-100.822 Z1.509 F762
G1 X154.762 Y-93.497 Z1.254 F762
G1 X145.438 Y-93.497 Z0.928 F762
G1 X145.438 Y-100.822 Z0.672 F762
G1 X154.762 Y-100.822 Z0.347 F762
G1 X154.762 Y-93.497 Z0.091 F762
G1 X145.438 Y-93.497 Z-0.235 F762
G1 X145.438 Y-100.822 Z-0.491 F762
G1 X154.762 Y-100.822 Z-0.816 F762
G1 X154.762 Y-93.497 Z-1.072 F762
G1 X151.100 Y-93.497 Z-1.200 F762
G1 X145.438 Y-93.497 Z-1.200 F2540
G1 X145.438 Y-100.822 Z-1.200 F2540
G1 X154.762 Y-100.822 Z-1.200 F2540
G1 X154.762 Y-93.497 Z-1.200 F2540
G1 X151.100 Y-93.497 Z-1.200 F2540
G1 X145.438 Y-93.497 Z-1.398 F762
G1 X145.438 Y-100.822 Z-1.654 F762
G1 X154.762 Y-100.822 Z-1.979 F762
G1 X154.762 Y-93.497 Z-2.235 F762
G1 X150.036 Y-93.497 Z-2.400 F762
G1 X145.438 Y-93.497 Z-2.400 F2540
G1 X145.438 Y-100.822 Z-2.400 F2540
G1 X154.762 Y-100.822 Z-2.400 F2540
G1 X154.762 Y-93.497 Z-2.400 F2540
G1 X151.100 Y-93.497 Z-2.400 F2540
G1 X150.036 Y-93.497 Z-2.400 F2540
G1 X145.438 Y-93.497 Z-2.561 F762
G1 X145.438 Y-100.822 Z-2.816 F762
G1 X154.762 Y-100.822 Z-3.142 F762
G1 X154.762 Y-93.497 Z-3.398 F762
G1 X148.972 Y-93.497 Z-3.600 F762
G1 X145.438 Y-93.497 Z-3.600 F2540
G1 X145.438 Y-100.822 Z-3.600 F2540
G1 X154.762 Y-100.822 Z-3.600 F2540
G1 X154.762 Y-93.497 Z-3.600 F2540
G1 X150.036 Y-93.497 Z-3.600 F2540
G1 X148.972 Y-93.497 Z-3.600 F2540
G1 X145.438 Y-93.497 Z-3.723 F762
G1 X145.438 Y-100.822 Z-3.979 F762
G1 X154.762 Y-100.822 Z-4.305 F762
G1 X154.762 Y-95.233 Z-4.500 F762
G1 X154.762 Y-93.497 Z-4.500 F2540
G1 X148.972 Y-93.497 Z-4.500 F2540
G1 X145.438 Y-93.497 Z-4.500 F2540
G1 X145.438 Y-100.822 Z-4.500 F2540
G1 X154.762 Y-100.822 Z-4.500 F2540
G1 X154.762 Y-95.233 Z-4.500 F2540
G1 X154.762 Y-95.233 Z15.000 F2540
(When using Fusion 360 for Personal Use, the feedrate of)
(rapid moves is reduced to match the feedrate of cutting)
(moves, which can increase machining time. Unrestricted rapid)
(moves are available with a Fusion 360 Subscription.)

(2D Contour2 4)
G0 X158.542 Y-97.136 Z15.000
G1 X158.542 Y-97.136 Z15.000 F540
G1 X158.542 Y-97.136 Z5.000 F540
G1 X158.542 Y-97.136 Z2.500 F762
G1 X158.538 Y-97.167 Z2.499 F762
G1 X158.550 Y-97.196 Z2.498 F762
G1 X158.574 Y-97.216 Z2.497 F762
G1 X158.605 Y-97.222 Z2.496 F762
G1 X158.635 Y-97.211 Z2.494 F762
G1 X158.656 Y-97.188 Z2.493 F762
G1 X158.662 Y-97.157 Z2.492 F762
G1 X158.654 Y-97.127 Z2.491 F762
G1 X158.631 Y-97.105 Z2.490 F762
G1 X158.601 Y-97.097 Z2.489 F762
G1 X158.571 Y-97.104 Z2.488 F762
G1 X158.547 Y-97.125 Z2.487 F762
G1 X158.538 Y-97.155 Z2.486 F762
G1 X158.543 Y-97.186 Z2.485 F762
G1 X158.564 Y-97.210 Z2.483 F762
G1 X158.593 Y-97.221 Z2.482 F762
G1 X158.624 Y-97.217 Z2.481 F762
G1 X158.649 Y-97.198 Z2.480 F762
G1 X158.662 Y-97.169 Z2.479 F762
G1 X158.659 Y-97.138 Z2.478 F762
G1 X158.641 Y-97.112 Z2.477 F762
G1 X158.613 Y-97.098 Z2.476 F762
G1 X158.582 Y-97.099 Z2.475 F762
G1 X158.555 Y-97.116 Z2.473 F762
G1 X158.540 Y-97.143 Z2.472 F762
G1 X158.539 Y-97.174 Z2.471 F762
G1 X158.554 Y-97.202 Z2.470 F762
G1 X158.581 Y-97.219 Z2.469 F762
G1 X158.612 Y-97.221 Z2.468 F762
G1 X158.640 Y-97.207 Z2.467 F762
G1 X158.659 Y-97.181 Z2.466 F762
G1 X158.662 Y-97.150 Z2.465 F762
G1 X158.650 Y-97.121 Z2.463 F762
G1 X158.625 Y-97.102 Z2.462 F762
G1 X158.594 Y-97.097 Z2.461 F762
G1 X158.564 Y-97.108 Z2.460 F762
G1 X158.544 Y-97.132 Z2.459 F762
G1 X158.538 Y-97.162 Z2.458 F762
G1 X158.547 Y-97.192 Z2.457 F762
G1 X158.570 Y-97.214 Z2.456 F762
G1 X158.600 Y-97.222 Z2.455 F762
G1 X158.630 Y-97.214 Z2.454 F762
G1 X158.653 Y-97.192 Z2.452 F762
G1 X158.662 Y-97.162 Z2.451 F762
G1 X158.656 Y-97.132 Z2.450 F762
G1 X158.636 Y-97.108 Z2.449 F762
G1 X158.606 Y-97.097 Z2.448 F762
G1 X158.575 Y-97.102 Z2.447 F762
G1 X158.550 Y-97.121 Z2.446 F762
G1 X158.538 Y-97.150 Z2.445 F762
G1 X158.542 Y-97.181 Z2.444 F762
G1 X158.560 Y-97.207 Z2.442 F762
G1 X158.588 Y-97.221 Z2.441 F762
G1 X158.619 Y-97.219 Z2.440 F762
G1 X158.646 Y-97.202 Z2.439 F762
G1 X158.661 Y-97.174 Z2.438 F762
G1 X158.660 Y-97.143 Z2.437 F762
G1 X158.645 Y-97.116 Z2.436 F762
G1 X158.618 Y-97.099 Z2.435 F762
G1 X158.587 Y-97.098 Z2.434 F762
G1 X158.559 Y-97.112 Z2.432 F762
G1 X158.541 Y-97.138 Z2.431 F762
G1 X158.538 Y-97.169 Z2.430 F762
G1 X158.551 Y-97.198 Z2.429 F762
G1 X158.576 Y-97.217 Z2.428 F762
G1 X158.607 Y-97.221 Z2.427 F762
G1 X158.636 Y-97.210 Z2.426 F762
G1 X158.657 Y-97.186 Z2.425 F762
G1 X158.662 Y-97.155 Z2.424 F762
G1 X158.653 Y-97.125 Z2.423 F762
G1 X158.629 Y-97.104 Z2.421 F762
G1 X158.599 Y-97.097 Z2.420 F762
G1 X158.569 Y-97.105 Z2.419 F762
G1 X158.546 Y-97.127 Z2.418 F762
G1 X158.538 Y-97.157 Z2.417 F762
G1 X158.544 Y-97.188 Z2.416 F762
G1 X158.565 Y-97.211 Z2.415 F762
G1 X158.595 Y-97.222 Z2.414 F762
G1 X158.626 Y-97.216 Z2.413 F762
G1 X158.650 Y-97.196 Z2.411 F762
G1 X158.662 Y-97.167 Z2.410 F762
G1 X158.658 Y-97.136 Z2.409 F762
G1 X158.640 Y-97.111 Z2.408 F762
G1 X158.611 Y-97.098 Z2.407 F762
G1 X158.580 Y-97.100 Z2.406 F762
G1 X158.554 Y-97.117 Z2.405 F762
G1 X158.539 Y-97.145 Z2.404 F762
G1 X158.540 Y-97.176 Z2.403 F762
G1 X158.556 Y-97.203 Z2.401 F762
G1 X158.583 Y-97.219 Z2.400 F762
G1 X158.614 Y-97.220 Z2.399 F762
G1 X158.642 Y-97.205 Z2.398 F762
G1 X158.659 Y-97.179 Z2.397 F762
G1 X158.661 Y-97.148 Z2.396 F762
G1 X158.648 Y-97.119 Z2.395 F762
G1 X158.623 Y-97.101 Z2.394 F762
G1 X158.592 Y-97.097 Z2.393 F762
G1 X158.563 Y-97.109 Z2.392 F762
G1 X158.543 Y-97.134 Z2.390 F762
G1 X158.538 Y-97.164 Z2.389 F762
G1 X158.548 Y-97.194 Z2.388 F762
G1 X158.572 Y-97.215 Z2.387 F762
G1 X158.602 Y-97.222 Z2.386 F762
G1 X158.632 Y-97.213 Z2.385 F762
G1 X158.654 Y-97.190 Z2.384 F762
G1 X158.663 Y-97.160 Z2.383 F762
G1 X158.655 Y-97.130 Z2.382 F762
G1 X158.634 Y-97.107 Z2.380 F762
G1 X158.604 Y-97.097 Z2.379 F762
G1 X158.573 Y-97.103 Z2.378 F762
G1 X158.549 Y-97.123 Z2.377 F762
G1 X158.538 Y-97.152 Z2.376 F762
G1 X158.542 Y-97.183 Z2.375 F762
G1 X158.561 Y-97.208 Z2.374 F762
G1 X158.590 Y-97.221 Z2.373 F762
G1 X158.621 Y-97.218 Z2.372 F762
G1 X158.647 Y-97.200 Z2.370 F762
G1 X158.661 Y-97.172 Z2.369 F762
G1 X158.660 Y-97.141 Z2.368 F762
G1 X158.643 Y-97.114 Z2.367 F762
G1 X158.616 Y-97.099 Z2.366 F762
G1 X158.585 Y-97.099 Z2.365 F762
G1 X158.557 Y-97.114 Z2.364 F762
G1 X158.540 Y-97.140 Z2.363 F762
G1 X158.539 Y-97.172 Z2.362 F762
G1 X158.552 Y-97.200 Z2.361 F762
G1 X158.578 Y-97.218 Z2.359 F762
G1 X158.609 Y-97.221 Z2.358 F762
G1 X158.638 Y-97.209 Z2.357 F762
G1 X158.657 Y-97.184 Z2.356 F762
G1 X158.662 Y-97.153 Z2.355 F762
G1 X158.651 Y-97.123 Z2.354 F762
G1 X158.628 Y-97.103 Z2.353 F762
G1 X158.597 Y-97.097 Z2.352 F762
G1 X158.567 Y-97.106 Z2.351 F762
G1 X158.545 Y-97.129 Z2.349 F762
G1 X158.537 Y-97.159 Z2.348 F762
G1 X158.545 Y-97.190 Z2.347 F762
G1 X158.567 Y-97.212 Z2.346 F762
G1 X158.597 Y-97.222 Z2.345 F762
G1 X158.628 Y-97.215 Z2.344 F762
G1 X158.652 Y-97.195 Z2.343 F762
G1 X158.662 Y-97.165 Z2.342 F762
G1 X158.657 Y-97.134 Z2.341 F762
G1 X158.638 Y-97.109 Z2.339 F762
G1 X158.609 Y-97.097 Z2.338 F762
G1 X158.578 Y-97.101 Z2.337 F762
G1 X158.552 Y-97.119 Z2.336 F762
G1 X158.539 Y-97.147 Z2.335 F762
G1 X158.541 Y-97.179 Z2.334 F762
G1 X158.557 Y-97.205 Z2.333 F762
G1 X158.585 Y-97.220 Z2.332 F762
G1 X158.616 Y-97.220 Z2.331 F762
G1 X158.644 Y-97.204 Z2.330 F762
G1 X158.660 Y-97.177 Z2.328 F762
G1 X158.661 Y-97.146 Z2.327 F762
G1 X158.647 Y-97.118 Z2.326 F762
G1 X158.621 Y-97.100 Z2.325 F762
G1 X158.590 Y-97.098 Z2.324 F762
G1 X158.561 Y-97.110 Z2.323 F762
G1 X158.542 Y-97.135 Z2.322 F762
G1 X158.538 Y-97.167 Z2.321 F762
G1 X158.549 Y-97.196 Z2.320 F762
G1 X158.573 Y-97.216 Z2.318 F762
G1 X158.604 Y-97.222 Z2.317 F762
G1 X158.634 Y-97.212 Z2.316 F762
G1 X158.655 Y-97.188 Z2.315 F762
G1 X158.663 Y-97.158 Z2.314 F762
G1 X158.654 Y-97.128 Z2.313 F762
G1 X158.632 Y-97.105 Z2.312 F762
G1 X158.602 Y-97.097 Z2.311 F762
G1 X158.571 Y-97.104 Z2.310 F762
G1 X158.548 Y-97.125 Z2.308 F762
G1 X158.538 Y-97.154 Z2.307 F762
G1 X158.543 Y-97.185 Z2.306 F762
G1 X158.563 Y-97.210 Z2.305 F762
G1 X158.592 Y-97.221 Z2.304 F762
G1 X158.623 Y-97.217 Z2.303 F762
G1 X158.648 Y-97.199 Z2.302 F762
G1 X158.662 Y-97.170 Z2.301 F762
G1 X158.659 Y-97.139 Z2.300 F762
G1 X158.642 Y-97.113 Z2.299 F762
G1 X158.614 Y-97.098 Z2.297 F762
G1 X158.583 Y-97.099 Z2.296 F762
G1 X158.556 Y-97.115 Z2.295 F762
G1 X158.540 Y-97.142 Z2.294 F762
G1 X158.539 Y-97.174 Z2.293 F762
G1 X158.554 Y-97.201 Z2.292 F762
G1 X158.580 Y-97.218 Z2.291 F762
G1 X158.611 Y-97.221 Z2.290 F762
G1 X158.640 Y-97.207 Z2.289 F762
G1 X158.658 Y-97.182 Z2.287 F762
G1 X158.662 Y-97.151 Z2.286 F762
G1 X158.650 Y-97.122 Z2.285 F762
G1 X158.626 Y-97.102 Z2.284 F762
G1 X158.595 Y-97.097 Z2.283 F762
G1 X158.565 Y-97.107 Z2.282 F762
G1 X158.544 Y-97.131 Z2.281 F762
G1 X158.538 Y-97.162 Z2.280 F762
G1 X158.547 Y-97.192 Z2.279 F762
G1 X158.569 Y-97.213 Z2.277 F762
G1 X158.599 Y-97.222 Z2.276 F762
G1 X158.630 Y-97.214 Z2.275 F762
G1 X158.653 Y-97.193 Z2.274 F762
G1 X158.662 Y-97.163 Z2.273 F762
G1 X158.656 Y-97.132 Z2.272 F762
G1 X158.636 Y-97.108 Z2.271 F762
G1 X158.607 Y-97.097 Z2.270 F762
G1 X158.576 Y-97.102 Z2.269 F762
G1 X158.551 Y-97.121 Z2.268 F762
G1 X158.538 Y-97.149 Z2.266 F762
G1 X158.541 Y-97.181 Z2.265 F762
G1 X158.559 Y-97.206 Z2.264 F762
G1 X158.587 Y-97.220 Z2.263 F762
G1 X158.618 Y-97.219 Z2.262 F762
G1 X158.645 Y-97.202 Z2.261 F762
G1 X158.660 Y-97.175 Z2.260 F762
G1 X158.661 Y-97.144 Z2.259 F762
G1 X158.645 Y-97.116 Z2.258 F762
G1 X158.619 Y-97.100 Z2.256 F762
G1 X158.588 Y-97.098 Z2.255 F762
G1 X158.559 Y-97.112 Z2.254 F762
G1 X158.541 Y-97.137 Z2.253 F762
G1 X158.538 Y-97.169 Z2.252 F762
G1 X158.551 Y-97.197 Z2.251 F762
G1 X158.575 Y-97.217 Z2.250 F762
G1 X158.606 Y-97.221 Z2.249 F762
G1 X158.636 Y-97.210 Z2.248 F762
G1 X158.656 Y-97.187 Z2.246 F762
G1 X158.662 Y-97.156 Z2.245 F762
G1 X158.653 Y-97.126 Z2.244 F762
G1 X158.630 Y-97.104 Z2.243 F762
G1 X158.600 Y-97.097 Z2.242 F762
G1 X158.569 Y-97.105 Z2.241 F762
G1 X158.547 Y-97.126 Z2.240 F762
G1 X158.538 Y-97.156 Z2.239 F762
G1 X158.544 Y-97.187 Z2.238 F762
G1 X158.565 Y-97.211 Z2.237 F762
G1 X158.594 Y-97.221 Z2.235 F762
G1 X158.625 Y-97.216 Z2.234 F762
G1 X158.650 Y-97.197 Z2.233 F762
G1 X158.662 Y-97.168 Z2.232 F762
G1 X158.658 Y-97.137 Z2.231 F762
G1 X158.640 Y-97.111 Z2.230 F762
G1 X158.612 Y-97.098 Z2.229 F762
G1 X158.581 Y-97.100 Z2.228 F762
G1 X158.554 Y-97.117 Z2.227 F762
G1 X158.539 Y-97.144 Z2.225 F762
G1 X158.540 Y-97.176 Z2.224 F762
G1 X158.555 Y-97.203 Z2.223 F762
G1 X158.582 Y-97.219 Z2.222 F762
G1 X158.614 Y-97.220 Z2.221 F762
G1 X158.641 Y-97.206 Z2.220 F762
G1 X158.659 Y-97.180 Z2.219 F762
G1 X158.662 Y-97.149 Z2.218 F762
G1 X158.649 Y-97.120 Z2.217 F762
G1 X158.624 Y-97.101 Z2.215 F762
G1 X158.593 Y-97.097 Z2.214 F762
G1 X158.563 Y-97.109 Z2.213 F762
G1 X158.543 Y-97.133 Z2.212 F762
G1 X158.538 Y-97.164 Z2.211 F762
G1 X158.548 Y-97.193 Z2.210 F762
G1 X158.571 Y-97.215 Z2.209 F762
G1 X158.601 Y-97.222 Z2.208 F762
G1 X158.632 Y-97.213 Z2.207 F762
G1 X158.654 Y-97.191 Z2.206 F762
G1 X158.662 Y-97.161 Z2.204 F762
G1 X158.655 Y-97.130 Z2.203 F762
G1 X158.634 Y-97.107 Z2.202 F762
G1 X158.605 Y-97.097 Z2.201 F762
G1 X158.574 Y-97.102 Z2.200 F762
G1 X158.550 Y-97.122 Z2.199 F762
G1 X158.538 Y-97.151 Z2.198 F762
G1 X158.542 Y-97.183 Z2.197 F762
G1 X158.561 Y-97.208 Z2.196 F762
G1 X158.589 Y-97.221 Z2.194 F762
G1 X158.620 Y-97.218 Z2.193 F762
G1 X158.647 Y-97.201 Z2.192 F762
G1 X158.661 Y-97.173 Z2.191 F762
G1 X158.660 Y-97.142 Z2.190 F762
G1 X158.644 Y-97.115 Z2.189 F762
G1 X158.617 Y-97.099 Z2.188 F762
G1 X158.585 Y-97.098 Z2.187 F762
G1 X158.558 Y-97.113 Z2.186 F762
G1 X158.541 Y-97.139 Z2.184 F762
G1 X158.539 Y-97.171 Z2.183 F762
G1 X158.552 Y-97.199 Z2.182 F762
G1 X158.577 Y-97.217 Z2.181 F762
G1 X158.609 Y-97.221 Z2.180 F762
G1 X158.638 Y-97.209 Z2.179 F762
G1 X158.657 Y-97.185 Z2.178 F762
G1 X158.662 Y-97.154 Z2.177 F762
G1 X158.652 Y-97.124 Z2.176 F762
G1 X158.628 Y-97.103 Z2.175 F762
G1 X158.598 Y-97.097 Z2.173 F762
G1 X158.568 Y-97.106 Z2.172 F762
G1 X158.546 Y-97.128 Z2.171 F762
G1 X158.537 Y-97.159 Z2.170 F762
G1 X158.545 Y-97.189 Z2.169 F762
G1 X158.566 Y-97.212 Z2.168 F762
G1 X158.596 Y-97.222 Z2.167 F762
G1 X158.627 Y-97.216 Z2.166 F762
G1 X158.651 Y-97.195 Z2.165 F762
G1 X158.662 Y-97.166 Z2.163 F762
G1 X158.658 Y-97.135 Z2.162 F762
G1 X158.639 Y-97.110 Z2.161 F762
G1 X158.610 Y-97.097 Z2.160 F762
G1 X158.579 Y-97.100 Z2.159 F762
G1 X158.553 Y-97.118 Z2.158 F762
G1 X158.539 Y-97.146 Z2.157 F762
G1 X158.540 Y-97.178 Z2.156 F762
G1 X158.557 Y-97.204 Z2.155 F762
G1 X158.584 Y-97.220 Z2.153 F762
G1 X158.616 Y-97.220 Z2.152 F762
G1 X158.643 Y-97.205 Z2.151 F762
G1 X158.660 Y-97.178 Z2.150 F762
G1 X158.661 Y-97.147 Z2.149 F762
G1 X158.647 Y-97.118 Z2.148 F762
G1 X158.622 Y-97.101 Z2.147 F762
G1 X158.590 Y-97.097 Z2.146 F762
G1 X158.562 Y-97.110 Z2.145 F762
G1 X158.542 Y-97.135 Z2.144 F762
G1 X158.538 Y-97.166 Z2.142 F762
G1 X158.549 Y-97.195 Z2.141 F762
G1 X158.573 Y-97.215 Z2.140 F762
G1 X158.604 Y-97.222 Z2.139 F762
G1 X158.633 Y-97.212 Z2.138 F762
G1 X158.655 Y-97.189 Z2.137 F762
G1 X158.663 Y-97.159 Z2.136 F762
G1 X158.654 Y-97.128 Z2.135 F762
G1 X158.633 Y-97.106 Z2.134 F762
G1 X158.603 Y-97.097 Z2.132 F762
G1 X158.572 Y-97.103 Z2.131 F762
G1 X158.548 Y-97.124 Z2.130 F762
G1 X158.538 Y-97.154 Z2.129 F762
G1 X158.543 Y-97.185 Z2.128 F762
G1 X158.562 Y-97.209 Z2.127 F762
G1 X158.591 Y-97.221 Z2.126 F762
G1 X158.622 Y-97.218 Z2.125 F762
G1 X158.648 Y-97.199 Z2.124 F762
G1 X158.661 Y-97.171 Z2.122 F762
G1 X158.659 Y-97.140 Z2.121 F762
G1 X158.642 Y-97.113 Z2.120 F762
G1 X158.615 Y-97.098 Z2.119 F762
G1 X158.583 Y-97.099 Z2.118 F762
G1 X158.556 Y-97.115 Z2.117 F762
G1 X158.540 Y-97.142 Z2.116 F762
G1 X158.539 Y-97.173 Z2.115 F762
G1 X158.553 Y-97.201 Z2.114 F762
G1 X158.579 Y-97.218 Z2.113 F762
G1 X158.611 Y-97.221 Z2.111 F762
G1 X158.639 Y-97.208 Z2.110 F762
G1 X158.658 Y-97.183 Z2.109 F762
G1 X158.662 Y-97.152 Z2.108 F762
G1 X158.651 Y-97.122 Z2.107 F762
G1 X158.626 Y-97.102 Z2.106 F762
G1 X158.595 Y-97.097 Z2.105 F762
G1 X158.566 Y-97.107 Z2.104 F762
G1 X158.545 Y-97.130 Z2.103 F762
G1 X158.538 Y-97.161 Z2.101 F762
G1 X158.546 Y-97.191 Z2.100 F762
G1 X158.568 Y-97.213 Z2.099 F762
G1 X158.598 Y-97.222 Z2.098 F762
G1 X158.629 Y-97.215 Z2.097 F762
G1 X158.652 Y-97.193 Z2.096 F762
G1 X158.662 Y-97.164 Z2.095 F762
G1 X158.657 Y-97.133 Z2.094 F762
G1 X158.637 Y-97.109 Z2.093 F762
G1 X158.608 Y-97.097 Z2.091 F762
G1 X158.577 Y-97.101 Z2.090 F762
G1 X158.551 Y-97.120 Z2.089 F762
G1 X158.538 Y-97.149 Z2.088 F762
G1 X158.541 Y-97.180 Z2.087 F762
G1 X158.558 Y-97.206 Z2.086 F762
G1 X158.586 Y-97.220 Z2.085 F762
G1 X158.618 Y-97.219 Z2.084 F762
G1 X158.645 Y-97.203 Z2.083 F762
G1 X158.660 Y-97.176 Z2.082 F762
G1 X158.661 Y-97.144 Z2.080 F762
G1 X158.646 Y-97.117 Z2.079 F762
G1 X158.620 Y-97.100 Z2.078 F762
G1 X158.588 Y-97.098 Z2.077 F762
G1 X158.560 Y-97.111 Z2.076 F762
G1 X158.542 Y-97.137 Z2.075 F762
G1 X158.538 Y-97.168 Z2.074 F762
G1 X158.550 Y-97.197 Z2.073 F762
G1 X158.575 Y-97.216 Z2.072 F762
G1 X158.606 Y-97.221 Z2.070 F762
G1 X158.635 Y-97.211 Z2.069 F762
G1 X158.656 Y-97.187 Z2.068 F762
G1 X158.662 Y-97.157 Z2.067 F762
G1 X158.653 Y-97.127 Z2.066 F762
G1 X158.631 Y-97.105 Z2.065 F762
G1 X158.600 Y-97.097 Z2.064 F762
G1 X158.570 Y-97.104 Z2.063 F762
G1 X158.547 Y-97.126 Z2.062 F762
G1 X158.538 Y-97.156 Z2.060 F762
G1 X158.544 Y-97.186 Z2.059 F762
G1 X158.564 Y-97.210 Z2.058 F762
G1 X158.593 Y-97.221 Z2.057 F762
G1 X158.624 Y-97.217 Z2.056 F762
G1 X158.649 Y-97.198 Z2.055 F762
G1 X158.662 Y-97.169 Z2.054 F762
G1 X158.659 Y-97.138 Z2.053 F762
G1 X158.641 Y-97.112 Z2.052 F762
G1 X158.613 Y-97.098 Z2.051 F762
G1 X158.581 Y-97.100 Z2.049 F762
G1 X158.555 Y-97.116 Z2.048 F762
G1 X158.539 Y-97.144 Z2.047 F762
G1 X158.540 Y-97.175 Z2.046 F762
G1 X158.555 Y-97.202 Z2.045 F762
G1 X158.581 Y-97.219 Z2.044 F762
G1 X158.613 Y-97.220 Z2.043 F762
G1 X158.641 Y-97.206 Z2.042 F762
G1 X158.659 Y-97.181 Z2.041 F762
G1 X158.662 Y-97.149 Z2.039 F762
G1 X158.649 Y-97.121 Z2.038 F762
G1 X158.624 Y-97.102 Z2.037 F762
G1 X158.593 Y-97.097 Z2.036 F762
G1 X158.564 Y-97.108 Z2.035 F762
G1 X158.544 Y-97.132 Z2.034 F762
G1 X158.538 Y-97.163 Z2.033 F762
G1 X158.547 Y-97.193 Z2.032 F762
G1 X158.570 Y-97.214 Z2.031 F762
G1 X158.601 Y-97.222 Z2.029 F762
G1 X158.631 Y-97.214 Z2.028 F762
G1 X158.653 Y-97.192 Z2.027 F762
G1 X158.662 Y-97.162 Z2.026 F762
G1 X158.656 Y-97.131 Z2.025 F762
G1 X158.635 Y-97.107 Z2.024 F762
G1 X158.606 Y-97.097 Z2.023 F762
G1 X158.575 Y-97.102 Z2.022 F762
G1 X158.550 Y-97.122 Z2.021 F762
G1 X158.538 Y-97.151 Z2.020 F762
G1 X158.542 Y-97.182 Z2.018 F762
G1 X158.560 Y-97.207 Z2.017 F762
G1 X158.588 Y-97.221 Z2.016 F762
G1 X158.620 Y-97.219 Z2.015 F762
G1 X158.646 Y-97.201 Z2.014 F762
G1 X158.661 Y-97.174 Z2.013 F762
G1 X158.660 Y-97.142 Z2.012 F762
G1 X158.644 Y-97.115 Z2.011 F762
G1 X158.618 Y-97.099 Z2.010 F762
G1 X158.586 Y-97.098 Z2.008 F762
G1 X158.558 Y-97.113 Z2.007 F762
G1 X158.541 Y-97.139 Z2.006 F762
G1 X158.538 Y-97.170 Z2.005 F762
G1 X158.551 Y-97.199 Z2.004 F762
G1 X158.577 Y-97.217 Z2.003 F762
G1 X158.608 Y-97.221 Z2.002 F762
G1 X158.637 Y-97.210 Z2.001 F762
G1 X158.657 Y-97.185 Z2.000 F762
G1 X158.662 Y-97.154 Z1.998 F762
G1 X158.652 Y-97.125 Z1.997 F762
G1 X158.629 Y-97.104 Z1.996 F762
G1 X158.598 Y-97.097 Z1.995 F762
G1 X158.568 Y-97.105 Z1.994 F762
G1 X158.546 Y-97.128 Z1.993 F762
G1 X158.538 Y-97.158 Z1.992 F762
G1 X158.545 Y-97.188 Z1.991 F762
G1 X158.566 Y-97.212 Z1.990 F762
G1 X158.596 Y-97.222 Z1.989 F762
G1 X158.626 Y-97.216 Z1.987 F762
G1 X158.651 Y-97.196 Z1.986 F762
G1 X158.662 Y-97.167 Z1.985 F762
G1 X158.658 Y-97.136 Z1.984 F762
G1 X158.639 Y-97.110 Z1.983 F762
G1 X158.611 Y-97.098 Z1.982 F762
G1 X158.579 Y-97.100 Z1.981 F762
G1 X158.553 Y-97.118 Z1.980 F762
G1 X158.539 Y-97.146 Z1.979 F762
G1 X158.540 Y-97.177 Z1.977 F762
G1 X158.556 Y-97.204 Z1.976 F762
G1 X158.584 Y-97.219 Z1.975 F762
G1 X158.615 Y-97.220 Z1.974 F762
G1 X158.642 Y-97.205 Z1.973 F762
G1 X158.659 Y-97.179 Z1.972 F762
G1 X158.661 Y-97.147 Z1.971 F762
G1 X158.648 Y-97.119 Z1.970 F762
G1 X158.622 Y-97.101 Z1.969 F762
G1 X158.591 Y-97.097 Z1.967 F762
G1 X158.562 Y-97.109 Z1.966 F762
G1 X158.543 Y-97.134 Z1.965 F762
G1 X158.538 Y-97.165 Z1.964 F762
G1 X158.548 Y-97.195 Z1.963 F762
G1 X158.572 Y-97.215 Z1.962 F762
G1 X158.603 Y-97.222 Z1.961 F762
G1 X158.633 Y-97.212 Z1.960 F762
G1 X158.654 Y-97.190 Z1.959 F762
G1 X158.663 Y-97.160 Z1.958 F762
G1 X158.655 Y-97.129 Z1.956 F762
G1 X158.633 Y-97.106 Z1.955 F762
G1 X158.603 Y-97.097 Z1.954 F762
G1 X158.573 Y-97.103 Z1.953 F762
G1 X158.549 Y-97.123 Z1.952 F762
G1 X158.538 Y-97.153 Z1.951 F762
G1 X158.543 Y-97.184 Z1.950 F762
G1 X158.562 Y-97.209 Z1.949 F762
G1 X158.591 Y-97.221 Z1.948 F762
G1 X158.622 Y-97.218 Z1.946 F762
G1 X158.647 Y-97.200 Z1.945 F762
G1 X158.661 Y-97.172 Z1.944 F762
G1 X158.660 Y-97.140 Z1.943 F762
G1 X158.643 Y-97.114 Z1.942 F762
G1 X158.615 Y-97.099 Z1.941 F762
G1 X158.584 Y-97.099 Z1.940 F762
G1 X158.557 Y-97.114 Z1.939 F762
G1 X158.540 Y-97.141 Z1.938 F762
G1 X158.539 Y-97.172 Z1.936 F762
G1 X158.553 Y-97.200 Z1.935 F762
G1 X158.579 Y-97.218 Z1.934 F762
G1 X158.610 Y-97.221 Z1.933 F762
G1 X158.639 Y-97.208 Z1.932 F762
G1 X158.658 Y-97.183 Z1.931 F762
G1 X158.662 Y-97.152 Z1.930 F762
G1 X158.651 Y-97.123 Z1.929 F762
G1 X158.627 Y-97.103 Z1.928 F762
G1 X158.596 Y-97.097 Z1.927 F762
G1 X158.566 Y-97.107 Z1.925 F762
G1 X158.545 Y-97.130 Z1.924 F762
G1 X158.538 Y-97.160 Z1.923 F762
G1 X158.546 Y-97.190 Z1.922 F762
G1 X158.568 Y-97.213 Z1.921 F762
G1 X158.598 Y-97.222 Z1.920 F762
G1 X158.628 Y-97.215 Z1.919 F762
G1 X158.652 Y-97.194 Z1.918 F762
G1 X158.662 Y-97.165 Z1.917 F762
G1 X158.657 Y-97.134 Z1.915 F762
G1 X158.637 Y-97.109 Z1.914 F762
G1 X158.608 Y-97.097 Z1.913 F762
G1 X158.577 Y-97.101 Z1.912 F762
G1 X158.552 Y-97.119 Z1.911 F762
G1 X158.539 Y-97.148 Z1.910 F762
G1 X158.541 Y-97.179 Z1.909 F762
G1 X158.558 Y-97.205 Z1.908 F762
G1 X158.586 Y-97.220 Z1.907 F762
G1 X158.617 Y-97.219 Z1.905 F762
G1 X158.644 Y-97.204 Z1.904 F762
G1 X158.660 Y-97.177 Z1.903 F762
G1 X158.661 Y-97.145 Z1.902 F762
G1 X158.646 Y-97.117 Z1.901 F762
G1 X158.620 Y-97.100 Z1.900 F762
G1 X158.589 Y-97.098 Z1.899 F762
G1 X158.561 Y-97.111 Z1.898 F762
G1 X158.542 Y-97.136 Z1.897 F762
G1 X158.538 Y-97.167 Z1.896 F762
G1 X158.550 Y-97.196 Z1.894 F762
G1 X158.574 Y-97.216 Z1.893 F762
G1 X158.605 Y-97.222 Z1.892 F762
G1 X158.635 Y-97.211 Z1.891 F762
G1 X158.656 Y-97.188 Z1.890 F762
G1 X158.662 Y-97.157 Z1.889 F762
G1 X158.654 Y-97.127 Z1.888 F762
G1 X158.631 Y-97.105 Z1.887 F762
G1 X158.601 Y-97.097 Z1.886 F762
G1 X158.571 Y-97.104 Z1.884 F762
G1 X158.548 Y-97.125 Z1.883 F762
G1 X158.538 Y-97.155 Z1.882 F762
G1 X158.543 Y-97.186 Z1.881 F762
G1 X158.563 Y-97.210 Z1.880 F762
G1 X158.593 Y-97.221 Z1.879 F762
G1 X158.624 Y-97.217 Z1.878 F762
G1 X158.649 Y-97.198 Z1.877 F762
G1 X158.662 Y-97.170 Z1.876 F762
G1 X158.659 Y-97.138 Z1.874 F762
G1 X158.641 Y-97.112 Z1.873 F762
G1 X158.613 Y-97.098 Z1.872 F762
G1 X158.582 Y-97.099 Z1.871 F762
G1 X158.555 Y-97.116 Z1.870 F762
G1 X158.540 Y-97.143 Z1.869 F762
G1 X158.539 Y-97.174 Z1.868 F762
G1 X158.554 Y-97.202 Z1.867 F762
G1 X158.581 Y-97.219 Z1.866 F762
G1 X158.612 Y-97.221 Z1.865 F762
G1 X158.640 Y-97.207 Z1.863 F762
G1 X158.658 Y-97.181 Z1.862 F762
G1 X158.662 Y-97.150 Z1.861 F762
G1 X158.650 Y-97.121 Z1.860 F762
G1 X158.625 Y-97.102 Z1.859 F762
G1 X158.594 Y-97.097 Z1.858 F762
G1 X158.565 Y-97.108 Z1.857 F762
G1 X158.544 Y-97.131 Z1.856 F762
G1 X158.538 Y-97.162 Z1.855 F762
G1 X158.547 Y-97.192 Z1.853 F762
G1 X158.570 Y-97.214 Z1.852 F762
G1 X158.600 Y-97.222 Z1.851 F762
G1 X158.630 Y-97.214 Z1.850 F762
G1 X158.653 Y-97.192 Z1.849 F762
G1 X158.662 Y-97.162 Z1.848 F762
G1 X158.656 Y-97.132 Z1.847 F762
G1 X158.636 Y-97.108 Z1.846 F762
G1 X158.606 Y-97.097 Z1.845 F762
G1 X158.575 Y-97.102 Z1.843 F762
G1 X158.551 Y-97.121 Z1.842 F762
G1 X158.538 Y-97.150 Z1.841 F762
G1 X158.541 Y-97.181 Z1.840 F762
G1 X158.559 Y-97.207 Z1.839 F762
G1 X158.588 Y-97.220 Z1.838 F762
G1 X158.619 Y-97.219 Z1.837 F762
G1 X158.646 Y-97.202 Z1.836 F762
G1 X158.661 Y-97.175 Z1.835 F762
G1 X158.660 Y-97.143 Z1.834 F762
G1 X158.645 Y-97.116 Z1.832 F762
G1 X158.618 Y-97.099 Z1.831 F762
G1 X158.587 Y-97.098 Z1.830 F762
G1 X158.559 Y-97.112 Z1.829 F762
G1 X158.541 Y-97.138 Z1.828 F762
G1 X158.538 Y-97.169 Z1.827 F762
G1 X158.551 Y-97.198 Z1.826 F762
G1 X158.576 Y-97.217 Z1.825 F762
G1 X158.607 Y-97.221 Z1.824 F762
G1 X158.636 Y-97.210 Z1.822 F762
G1 X158.656 Y-97.186 Z1.821 F762
G1 X158.662 Y-97.155 Z1.820 F762
G1 X158.653 Y-97.125 Z1.819 F762
G1 X158.630 Y-97.104 Z1.818 F762
G1 X158.599 Y-97.097 Z1.817 F762
G1 X158.569 Y-97.105 Z1.816 F762
G1 X158.546 Y-97.127 Z1.815 F762
G1 X158.538 Y-97.157 Z1.814 F762
G1 X158.544 Y-97.188 Z1.812 F762
G1 X158.565 Y-97.211 Z1.811 F762
G1 X158.595 Y-97.221 Z1.810 F762
G1 X158.626 Y-97.216 Z1.809 F762
G1 X158.650 Y-97.197 Z1.808 F762
G1 X158.662 Y-97.167 Z1.807 F762
G1 X158.658 Y-97.136 Z1.806 F762
G1 X158.640 Y-97.111 Z1.805 F762
G1 X158.611 Y-97.098 Z1.804 F762
G1 X158.580 Y-97.100 Z1.803 F762
G1 X158.554 Y-97.117 Z1.801 F762
G1 X158.539 Y-97.145 Z1.800 F762
G1 X158.540 Y-97.176 Z1.799 F762
G1 X158.556 Y-97.203 Z1.798 F762
G1 X158.583 Y-97.219 Z1.797 F762
G1 X158.614 Y-97.220 Z1.796 F762
G1 X158.642 Y-97.206 Z1.795 F762
G1 X158.659 Y-97.179 Z1.794 F762
G1 X158.662 Y-97.148 Z1.793 F762
G1 X158.648 Y-97.120 Z1.791 F762
G1 X158.623 Y-97.101 Z1.790 F762
G1 X158.592 Y-97.097 Z1.789 F762
G1 X158.563 Y-97.109 Z1.788 F762
G1 X158.543 Y-97.133 Z1.787 F762
G1 X158.538 Y-97.164 Z1.786 F762
G1 X158.548 Y-97.194 Z1.785 F762
G1 X158.571 Y-97.215 Z1.784 F762
G1 X158.602 Y-97.222 Z1.783 F762
G1 X158.632 Y-97.213 Z1.781 F762
G1 X158.654 Y-97.191 Z1.780 F762
G1 X158.663 Y-97.160 Z1.779 F762
G1 X158.655 Y-97.130 Z1.778 F762
G1 X158.634 Y-97.107 Z1.777 F762
G1 X158.604 Y-97.097 Z1.776 F762
G1 X158.573 Y-97.103 Z1.775 F762
G1 X158.549 Y-97.123 Z1.774 F762
G1 X158.538 Y-97.152 Z1.773 F762
G1 X158.542 Y-97.183 Z1.772 F762
G1 X158.561 Y-97.208 Z1.770 F762
G1 X158.590 Y-97.221 Z1.769 F762
G1 X158.621 Y-97.218 Z1.768 F762
G1 X158.647 Y-97.200 Z1.767 F762
G1 X158.661 Y-97.172 Z1.766 F762
G1 X158.660 Y-97.141 Z1.765 F762
G1 X158.644 Y-97.114 Z1.764 F762
G1 X158.616 Y-97.099 Z1.763 F762
G1 X158.585 Y-97.099 Z1.762 F762
G1 X158.557 Y-97.114 Z1.760 F762
G1 X158.541 Y-97.140 Z1.759 F762
G1 X158.539 Y-97.171 Z1.758 F762
G1 X158.552 Y-97.200 Z1.757 F762
G1 X158.578 Y-97.218 Z1.756 F762
G1 X158.609 Y-97.221 Z1.755 F762
G1 X158.638 Y-97.209 Z1.754 F762
G1 X158.657 Y-97.184 Z1.753 F762
G1 X158.662 Y-97.153 Z1.752 F762
G1 X158.651 Y-97.124 Z1.750 F762
G1 X158.628 Y-97.103 Z1.749 F762
G1 X158.597 Y-97.097 Z1.748 F762
G1 X158.567 Y-97.106 Z1.747 F762
G1 X158.545 Y-97.129 Z1.746 F762
G1 X158.537 Y-97.159 Z1.745 F762
G1 X158.545 Y-97.190 Z1.744 F762
G1 X158.567 Y-97.212 Z1.743 F762
G1 X158.597 Y-97.222 Z1.742 F762
G1 X158.628 Y-97.215 Z1.741 F762
G1 X158.651 Y-97.195 Z1.739 F762
G1 X158.662 Y-97.165 Z1.738 F762
G1 X158.657 Y-97.134 Z1.737 F762
G1 X158.638 Y-97.110 Z1.736 F762
G1 X158.609 Y-97.097 Z1.735 F762
G1 X158.578 Y-97.101 Z1.734 F762
G1 X158.552 Y-97.119 Z1.733 F762
G1 X158.539 Y-97.147 Z1.732 F762
G1 X158.540 Y-97.178 Z1.731 F762
G1 X158.557 Y-97.205 Z1.729 F762
G1 X158.585 Y-97.220 Z1.728 F762
G1 X158.616 Y-97.220 Z1.727 F762
G1 X158.643 Y-97.204 Z1.726 F762
G1 X158.660 Y-97.177 Z1.725 F762
G1 X158.661 Y-97.146 Z1.724 F762
G1 X158.647 Y-97.118 Z1.723 F762
G1 X158.621 Y-97.100 Z1.722 F762
G1 X158.590 Y-97.098 Z1.721 F762
G1 X158.561 Y-97.110 Z1.719 F762
G1 X158.542 Y-97.135 Z1.718 F762
G1 X158.538 Y-97.166 Z1.717 F762
G1 X158.549 Y-97.196 Z1.716 F762
G1 X158.573 Y-97.216 Z1.715 F762
G1 X158.604 Y-97.222 Z1.714 F762
G1 X158.634 Y-97.212 Z1.713 F762
G1 X158.655 Y-97.189 Z1.712 F762
G1 X158.663 Y-97.158 Z1.711 F762
G1 X158.654 Y-97.128 Z1.710 F762
G1 X158.632 Y-97.106 Z1.708 F762
G1 X158.602 Y-97.097 Z1.707 F762
G1 X158.571 Y-97.104 Z1.706 F762
G1 X158.548 Y-97.125 Z1.705 F762
G1 X158.538 Y-97.154 Z1.704 F762
G1 X158.543 Y-97.185 Z1.703 F762
G1 X158.563 Y-97.209 Z1.702 F762
G1 X158.592 Y-97.221 Z1.701 F762
G1 X158.623 Y-97.217 Z1.700 F762
G1 X158.648 Y-97.199 Z1.698 F762
G1 X158.662 Y-97.170 Z1.697 F762
G1 X158.659 Y-97.139 Z1.696 F762
G1 X158.642 Y-97.113 Z1.695 F762
G1 X158.614 Y-97.098 Z1.694 F762
G1 X158.583 Y-97.099 Z1.693 F762
G1 X158.556 Y-97.115 Z1.692 F762
G1 X158.540 Y-97.142 Z1.691 F762
G1 X158.539 Y-97.173 Z1.690 F762
G1 X158.554 Y-97.201 Z1.688 F762
G1 X158.580 Y-97.218 Z1.687 F762
G1 X158.611 Y-97.221 Z1.686 F762
G1 X158.640 Y-97.207 Z1.685 F762
G1 X158.658 Y-97.182 Z1.684 F762
G1 X158.662 Y-97.151 Z1.683 F762
G1 X158.650 Y-97.122 Z1.682 F762
G1 X158.626 Y-97.102 Z1.681 F762
G1 X158.595 Y-97.097 Z1.680 F762
G1 X158.565 Y-97.107 Z1.679 F762
G1 X158.544 Y-97.131 Z1.677 F762
G1 X158.538 Y-97.161 Z1.676 F762
G1 X158.546 Y-97.191 Z1.675 F762
G1 X158.569 Y-97.213 Z1.674 F762
G1 X158.599 Y-97.222 Z1.673 F762
G1 X158.630 Y-97.214 Z1.672 F762
G1 X158.653 Y-97.193 Z1.671 F762
G1 X158.662 Y-97.163 Z1.670 F762
G1 X158.656 Y-97.132 Z1.669 F762
G1 X158.636 Y-97.108 Z1.667 F762
G1 X158.607 Y-97.097 Z1.666 F762
G1 X158.576 Y-97.101 Z1.665 F762
G1 X158.551 Y-97.120 Z1.664 F762
G1 X158.538 Y-97.149 Z1.663 F762
G1 X158.541 Y-97.180 Z1.662 F762
G1 X158.559 Y-97.206 Z1.661 F762
G1 X158.587 Y-97.220 Z1.660 F762
G1 X158.618 Y-97.219 Z1.659 F762
G1 X158.645 Y-97.203 Z1.657 F762
G1 X158.660 Y-97.175 Z1.656 F762
G1 X158.661 Y-97.144 Z1.655 F762
G1 X158.646 Y-97.116 Z1.654 F762
G1 X158.619 Y-97.100 Z1.653 F762
G1 X158.588 Y-97.098 Z1.652 F762
G1 X158.559 Y-97.112 Z1.651 F762
G1 X158.541 Y-97.137 Z1.650 F762
G1 X158.538 Y-97.168 Z1.649 F762
G1 X158.550 Y-97.197 Z1.648 F762
G1 X158.575 Y-97.217 Z1.646 F762
G1 X158.606 Y-97.221 Z1.645 F762
G1 X158.636 Y-97.211 Z1.644 F762
G1 X158.656 Y-97.187 Z1.643 F762
G1 X158.662 Y-97.156 Z1.642 F762
G1 X158.653 Y-97.126 Z1.641 F762
G1 X158.630 Y-97.104 Z1.640 F762
G1 X158.600 Y-97.097 Z1.639 F762
G1 X158.570 Y-97.105 Z1.638 F762
G1 X158.547 Y-97.126 Z1.636 F762
G1 X158.538 Y-97.156 Z1.635 F762
G1 X158.544 Y-97.187 Z1.634 F762
G1 X158.565 Y-97.211 Z1.633 F762
G1 X158.594 Y-97.221 Z1.632 F762
G1 X158.625 Y-97.216 Z1.631 F762
G1 X158.650 Y-97.197 Z1.630 F762
G1 X158.662 Y-97.168 Z1.629 F762
G1 X158.658 Y-97.137 Z1.628 F762
G1 X158.640 Y-97.111 Z1.626 F762
G1 X158.612 Y-97.098 Z1.625 F762
G1 X158.581 Y-97.100 Z1.624 F762
G1 X158.554 Y-97.117 Z1.623 F762
G1 X158.539 Y-97.144 Z1.622 F762
G1 X158.540 Y-97.176 Z1.621 F762
G1 X158.555 Y-97.203 Z1.620 F762
G1 X158.582 Y-97.219 Z1.619 F762
G1 X158.613 Y-97.220 Z1.618 F762
G1 X158.641 Y-97.206 Z1.617 F762
G1 X158.659 Y-97.180 Z1.615 F762
G1 X158.662 Y-97.149 Z1.614 F762
G1 X158.649 Y-97.120 Z1.613 F762
G1 X158.624 Y-97.101 Z1.612 F762
G1 X158.593 Y-97.097 Z1.611 F762
G1 X158.563 Y-97.108 Z1.610 F762
G1 X158.543 Y-97.133 Z1.609 F762
G1 X158.538 Y-97.163 Z1.608 F762
G1 X158.548 Y-97.193 Z1.607 F762
G1 X158.571 Y-97.214 Z1.605 F762
G1 X158.601 Y-97.222 Z1.604 F762
G1 X158.631 Y-97.213 Z1.603 F762
G1 X158.654 Y-97.191 Z1.602 F762
G1 X158.662 Y-97.161 Z1.601 F762
G1 X158.656 Y-97.130 Z1.600 F762
G1 X158.635 Y-97.107 Z1.599 F762
G1 X158.605 Y-97.097 Z1.598 F762
G1 X158.574 Y-97.102 Z1.597 F762
G1 X158.550 Y-97.122 Z1.595 F762
G1 X158.538 Y-97.151 Z1.594 F762
G1 X158.542 Y-97.182 Z1.593 F762
G1 X158.561 Y-97.208 Z1.592 F762
G1 X158.589 Y-97.221 Z1.591 F762
G1 X158.620 Y-97.218 Z1.590 F762
G1 X158.646 Y-97.201 Z1.589 F762
G1 X158.661 Y-97.173 Z1.588 F762
G1 X158.660 Y-97.142 Z1.587 F762
G1 X158.644 Y-97.115 Z1.586 F762
G1 X158.617 Y-97.099 Z1.584 F762
G1 X158.586 Y-97.098 Z1.583 F762
G1 X158.558 Y-97.113 Z1.582 F762
G1 X158.541 Y-97.139 Z1.581 F762
G1 X158.539 Y-97.171 Z1.580 F762
G1 X158.552 Y-97.199 Z1.579 F762
G1 X158.577 Y-97.217 Z1.578 F762
G1 X158.608 Y-97.221 Z1.577 F762
G1 X158.637 Y-97.209 Z1.576 F762
G1 X158.657 Y-97.185 Z1.574 F762
G1 X158.662 Y-97.154 Z1.573 F762
G1 X158.652 Y-97.124 Z1.572 F762
G1 X158.628 Y-97.103 Z1.571 F762
G1 X158.598 Y-97.097 Z1.570 F762
G1 X158.568 Y-97.106 Z1.569 F762
G1 X158.546 Y-97.128 Z1.568 F762
G1 X158.538 Y-97.158 Z1.567 F762
G1 X158.545 Y-97.189 Z1.566 F762
G1 X158.566 Y-97.212 Z1.564 F762
G1 X158.596 Y-97.222 Z1.563 F762
G1 X158.627 Y-97.216 Z1.562 F762
G1 X158.651 Y-97.195 Z1.561 F762
G1 X158.662 Y-97.166 Z1.560 F762
G1 X158.658 Y-97.135 Z1.559 F762
G1 X158.639 Y-97.110 Z1.558 F762
G1 X158.610 Y-97.097 Z1.557 F762
G1 X158.579 Y-97.100 Z1.556 F762
G1 X158.553 Y-97.118 Z1.555 F762
G1 X158.539 Y-97.146 Z1.553 F762
G1 X158.540 Y-97.178 Z1.552 F762
G1 X158.557 Y-97.204 Z1.551 F762
G1 X158.584 Y-97.220 Z1.550 F762
G1 X158.615 Y-97.220 Z1.549 F762
G1 X158.643 Y-97.205 Z1.548 F762
G1 X158.660 Y-97.178 Z1.547 F762
G1 X158.661 Y-97.147 Z1.546 F762
G1 X158.647 Y-97.119 Z1.545 F762
G1 X158.622 Y-97.101 Z1.543 F762
G1 X158.591 Y-97.097 Z1.542 F762
G1 X158.562 Y-97.110 Z1.541 F762
G1 X158.543 Y-97.135 Z1.540 F762
G1 X158.538 Y-97.166 Z1.539 F762
G1 X158.549 Y-97.195 Z1.538 F762
G1 X158.573 Y-97.215 Z1.537 F762
G1 X158.603 Y-97.222 Z1.536 F762
G1 X158.633 Y-97.212 Z1.535 F762
G1 X158.655 Y-97.189 Z1.533 F762
G1 X158.663 Y-97.159 Z1.532 F762
G1 X158.655 Y-97.129 Z1.531 F762
G1 X158.633 Y-97.106 Z1.530 F762
G1 X158.603 Y-97.097 Z1.529 F762
G1 X158.572 Y-97.103 Z1.528 F762
G1 X158.548 Y-97.124 Z1.527 F762
G1 X158.538 Y-97.153 Z1.526 F762
G1 X158.543 Y-97.184 Z1.525 F762
G1 X158.562 Y-97.209 Z1.524 F762
G1 X158.591 Y-97.221 Z1.522 F762
G1 X158.622 Y-97.218 Z1.521 F762
G1 X158.648 Y-97.199 Z1.520 F762
G1 X158.661 Y-97.171 Z1.519 F762
G1 X158.659 Y-97.140 Z1.518 F762
G1 X158.643 Y-97.113 Z1.517 F762
G1 X158.615 Y-97.098 Z1.516 F762
G1 X158.584 Y-97.099 Z1.515 F762
G1 X158.556 Y-97.115 Z1.514 F762
G1 X158.540 Y-97.141 Z1.512 F762
G1 X158.539 Y-97.173 Z1.511 F762
G1 X158.553 Y-97.201 Z1.510 F762
G1 X158.579 Y-97.218 Z1.509 F762
G1 X158.611 Y-97.221 Z1.508 F762
G1 X158.639 Y-97.208 Z1.507 F762
G1 X158.658 Y-97.183 Z1.506 F762
G1 X158.662 Y-97.152 Z1.505 F762
G1 X158.651 Y-97.123 Z1.504 F762
G1 X158.626 Y-97.103 Z1.502 F762
G1 X158.596 Y-97.097 Z1.501 F762
G1 X158.566 Y-97.107 Z1.500 F762
G1 X158.545 Y-97.130 Z1.499 F762
G1 X158.538 Y-97.161 Z1.498 F762
G1 X158.546 Y-97.191 Z1.497 F762
G1 X158.568 Y-97.213 Z1.496 F762
G1 X158.598 Y-97.222 Z1.495 F762
G1 X158.629 Y-97.215 Z1.494 F762
G1 X158.652 Y-97.194 Z1.493 F762
G1 X158.662 Y-97.164 Z1.491 F762
G1 X158.657 Y-97.133 Z1.490 F762
G1 X158.637 Y-97.109 Z1.489 F762
G1 X158.608 Y-97.097 Z1.488 F762
G1 X158.577 Y-97.101 Z1.487 F762
G1 X158.551 Y-97.120 Z1.486 F762
G1 X158.538 Y-97.148 Z1.485 F762
G1 X158.541 Y-97.180 Z1.484 F762
G1 X158.558 Y-97.206 Z1.483 F762
G1 X158.586 Y-97.220 Z1.481 F762
G1 X158.618 Y-97.219 Z1.480 F762
G1 X158.644 Y-97.203 Z1.479 F762
G1 X158.660 Y-97.176 Z1.478 F762
G1 X158.661 Y-97.145 Z1.477 F762
G1 X158.646 Y-97.117 Z1.476 F762
G1 X158.620 Y-97.100 Z1.475 F762
G1 X158.588 Y-97.098 Z1.474 F762
G1 X158.560 Y-97.111 Z1.473 F762
G1 X158.542 Y-97.137 Z1.471 F762
G1 X158.538 Y-97.168 Z1.470 F762
G1 X158.550 Y-97.197 Z1.469 F762
G1 X158.575 Y-97.216 Z1.468 F762
G1 X158.605 Y-97.221 Z1.467 F762
G1 X158.635 Y-97.211 Z1.466 F762
G1 X158.656 Y-97.187 Z1.465 F762
G1 X158.662 Y-97.157 Z1.464 F762
G1 X158.653 Y-97.127 Z1.463 F762
G1 X158.631 Y-97.105 Z1.462 F762
G1 X158.601 Y-97.097 Z1.460 F762
G1 X158.570 Y-97.104 Z1.459 F762
G1 X158.547 Y-97.126 Z1.458 F762
G1 X158.538 Y-97.156 Z1.457 F762
G1 X158.544 Y-97.186 Z1.456 F762
G1 X158.564 Y-97.210 Z1.455 F762
G1 X158.593 Y-97.221 Z1.454 F762
G1 X158.624 Y-97.217 Z1.453 F762
G1 X158.649 Y-97.198 Z1.452 F762
G1 X158.662 Y-97.169 Z1.450 F762
G1 X158.659 Y-97.138 Z1.449 F762
G1 X158.641 Y-97.112 Z1.448 F762
G1 X158.613 Y-97.098 Z1.447 F762
G1 X158.581 Y-97.100 Z1.446 F762
G1 X158.555 Y-97.116 Z1.445 F762
G1 X158.540 Y-97.143 Z1.444 F762
G1 X158.539 Y-97.175 Z1.443 F762
G1 X158.555 Y-97.202 Z1.442 F762
G1 X158.581 Y-97.219 Z1.440 F762
G1 X158.613 Y-97.220 Z1.439 F762
G1 X158.641 Y-97.207 Z1.438 F762
G1 X158.659 Y-97.181 Z1.437 F762
G1 X158.662 Y-97.150 Z1.436 F762
G1 X158.649 Y-97.121 Z1.435 F762
G1 X158.624 Y-97.102 Z1.434 F762
G1 X158.593 Y-97.097 Z1.433 F762
G1 X158.564 Y-97.108 Z1.432 F762
G1 X158.544 Y-97.132 Z1.431 F762
G1 X158.538 Y-97.163 Z1.429 F762
G1 X158.547 Y-97.193 Z1.428 F762
G1 X158.570 Y-97.214 Z1.427 F762
G1 X158.600 Y-97.222 Z1.426 F762
G1 X158.631 Y-97.214 Z1.425 F762
G1 X158.653 Y-97.192 Z1.424 F762
G1 X158.662 Y-97.162 Z1.423 F762
G1 X158.656 Y-97.131 Z1.422 F762
G1 X158.635 Y-97.108 Z1.421 F762
G1 X158.606 Y-97.097 Z1.419 F762
G1 X158.575 Y-97.102 Z1.418 F762
G1 X158.550 Y-97.122 Z1.417 F762
G1 X158.538 Y-97.150 Z1.416 F762
G1 X158.542 Y-97.182 Z1.415 F762
G1 X158.560 Y-97.207 Z1.414 F762
G1 X158.588 Y-97.221 Z1.413 F762
G1 X158.620 Y-97.219 Z1.412 F762
G1 X158.646 Y-97.202 Z1.411 F762
G1 X158.661 Y-97.174 Z1.409 F762
G1 X158.660 Y-97.143 Z1.408 F762
G1 X158.645 Y-97.115 Z1.407 F762
G1 X158.618 Y-97.099 Z1.406 F762
G1 X158.586 Y-97.098 Z1.405 F762
G1 X158.558 Y-97.113 Z1.404 F762
G1 X158.541 Y-97.139 Z1.403 F762
G1 X158.538 Y-97.170 Z1.402 F762
G1 X158.551 Y-97.198 Z1.401 F762
G1 X158.577 Y-97.217 Z1.400 F762
G1 X158.608 Y-97.221 Z1.398 F762
G1 X158.637 Y-97.210 Z1.397 F762
G1 X158.657 Y-97.185 Z1.396 F762
G1 X158.662 Y-97.155 Z1.395 F762
G1 X158.652 Y-97.125 Z1.394 F762
G1 X158.629 Y-97.104 Z1.393 F762
G1 X158.599 Y-97.097 Z1.392 F762
G1 X158.568 Y-97.105 Z1.391 F762
G1 X158.546 Y-97.127 Z1.390 F762
G1 X158.538 Y-97.158 Z1.388 F762
G1 X158.545 Y-97.188 Z1.387 F762
G1 X158.566 Y-97.211 Z1.386 F762
G1 X158.595 Y-97.222 Z1.385 F762
G1 X158.626 Y-97.216 Z1.384 F762
G1 X158.651 Y-97.196 Z1.383 F762
G1 X158.662 Y-97.167 Z1.382 F762
G1 X158.658 Y-97.136 Z1.381 F762
G1 X158.639 Y-97.111 Z1.380 F762
G1 X158.611 Y-97.098 Z1.378 F762
G1 X158.579 Y-97.100 Z1.377 F762
G1 X158.553 Y-97.118 Z1.376 F762
G1 X158.539 Y-97.146 Z1.375 F762
G1 X158.540 Y-97.177 Z1.374 F762
G1 X158.556 Y-97.204 Z1.373 F762
G1 X158.583 Y-97.219 Z1.372 F762
G1 X158.615 Y-97.220 Z1.371 F762
G1 X158.642 Y-97.205 Z1.370 F762
G1 X158.659 Y-97.179 Z1.369 F762
G1 X158.661 Y-97.148 Z1.367 F762
G1 X158.648 Y-97.119 Z1.366 F762
G1 X158.622 Y-97.101 Z1.365 F762
G1 X158.591 Y-97.097 Z1.364 F762
G1 X158.562 Y-97.109 Z1.363 F762
G1 X158.543 Y-97.134 Z1.362 F762
G1 X158.538 Y-97.165 Z1.361 F762
G1 X158.548 Y-97.194 Z1.360 F762
G1 X158.572 Y-97.215 Z1.359 F762
G1 X158.603 Y-97.222 Z1.357 F762
G1 X158.633 Y-97.213 Z1.356 F762
G1 X158.654 Y-97.190 Z1.355 F762
G1 X158.663 Y-97.160 Z1.354 F762
G1 X158.655 Y-97.129 Z1.353 F762
G1 X158.633 Y-97.106 Z1.352 F762
G1 X158.604 Y-97.097 Z1.351 F762
G1 X158.573 Y-97.103 Z1.350 F762
G1 X158.549 Y-97.123 Z1.349 F762
G1 X158.538 Y-97.153 Z1.347 F762
G1 X158.542 Y-97.184 Z1.346 F762
G1 X158.562 Y-97.209 Z1.345 F762
G1 X158.590 Y-97.221 Z1.344 F762
G1 X158.622 Y-97.218 Z1.343 F762
G1 X158.647 Y-97.200 Z1.342 F762
G1 X158.661 Y-97.172 Z1.341 F762
G1 X158.660 Y-97.141 Z1.340 F762
G1 X158.643 Y-97.114 Z1.339 F762
G1 X158.616 Y-97.099 Z1.338 F762
G1 X158.584 Y-97.099 Z1.336 F762
G1 X158.557 Y-97.114 Z1.335 F762
G1 X158.540 Y-97.141 Z1.334 F762
G1 X158.539 Y-97.172 Z1.333 F762
G1 X158.553 Y-97.200 Z1.332 F762
G1 X158.579 Y-97.218 Z1.331 F762
G1 X158.610 Y-97.221 Z1.330 F762
G1 X158.639 Y-97.208 Z1.329 F762
G1 X158.658 Y-97.184 Z1.328 F762
G1 X158.662 Y-97.153 Z1.326 F762
G1 X158.651 Y-97.123 Z1.325 F762
G1 X158.627 Y-97.103 Z1.324 F762
G1 X158.596 Y-97.097 Z1.323 F762
G1 X158.567 Y-97.106 Z1.322 F762
G1 X158.545 Y-97.129 Z1.321 F762
G1 X158.538 Y-97.160 Z1.320 F762
G1 X158.546 Y-97.190 Z1.319 F762
G1 X158.567 Y-97.213 Z1.318 F762
G1 X158.598 Y-97.222 Z1.316 F762
G1 X158.628 Y-97.215 Z1.315 F762
G1 X158.652 Y-97.194 Z1.314 F762
G1 X158.662 Y-97.165 Z1.313 F762
G1 X158.657 Y-97.134 Z1.312 F762
G1 X158.638 Y-97.109 Z1.311 F762
G1 X158.609 Y-97.097 Z1.310 F762
G1 X158.577 Y-97.101 Z1.309 F762
G1 X158.552 Y-97.119 Z1.308 F762
G1 X158.539 Y-97.148 Z1.307 F762
G1 X158.541 Y-97.179 Z1.305 F762
G1 X158.558 Y-97.205 Z1.304 F762
G1 X158.585 Y-97.220 Z1.303 F762
G1 X158.617 Y-97.219 Z1.302 F762
G1 X158.644 Y-97.204 Z1.301 F762
G1 X158.660 Y-97.177 Z1.300 F762
G1 X158.661 Y-97.145 Z1.299 F762
G1 X158.647 Y-97.118 Z1.298 F762
G1 X158.620 Y-97.100 Z1.297 F762
G1 X158.589 Y-97.098 Z1.295 F762
G1 X158.561 Y-97.111 Z1.294 F762
G1 X158.542 Y-97.136 Z1.293 F762
G1 X158.538 Y-97.167 Z1.292 F762
G1 X158.550 Y-97.196 Z1.291 F762
G1 X158.574 Y-97.216 Z1.290 F762
G1 X158.605 Y-97.222 Z1.289 F762
G1 X158.634 Y-97.211 Z1.288 F762
G1 X158.655 Y-97.188 Z1.287 F762
G1 X158.662 Y-97.158 Z1.285 F762
G1 X158.654 Y-97.127 Z1.284 F762
G1 X158.632 Y-97.105 Z1.283 F762
G1 X158.601 Y-97.097 Z1.282 F762
G1 X158.571 Y-97.104 Z1.281 F762
G1 X158.548 Y-97.125 Z1.280 F762
G1 X158.538 Y-97.155 Z1.279 F762
G1 X158.543 Y-97.186 Z1.278 F762
G1 X158.563 Y-97.210 Z1.277 F762
G1 X158.592 Y-97.221 Z1.276 F762
G1 X158.624 Y-97.217 Z1.274 F762
G1 X158.649 Y-97.198 Z1.273 F762
G1 X158.662 Y-97.170 Z1.272 F762
G1 X158.659 Y-97.138 Z1.271 F762
G1 X158.641 Y-97.112 Z1.270 F762
G1 X158.614 Y-97.098 Z1.269 F762
G1 X158.582 Y-97.099 Z1.268 F762
G1 X158.555 Y-97.115 Z1.267 F762
G1 X158.540 Y-97.143 Z1.266 F762
G1 X158.539 Y-97.174 Z1.264 F762
G1 X158.554 Y-97.202 Z1.263 F762
G1 X158.581 Y-97.219 Z1.262 F762
G1 X158.612 Y-97.221 Z1.261 F762
G1 X158.640 Y-97.207 Z1.260 F762
G1 X158.658 Y-97.182 Z1.259 F762
G1 X158.662 Y-97.150 Z1.258 F762
G1 X158.650 Y-97.121 Z1.257 F762
G1 X158.625 Y-97.102 Z1.256 F762
G1 X158.594 Y-97.097 Z1.254 F762
G1 X158.565 Y-97.108 Z1.253 F762
G1 X158.544 Y-97.131 Z1.252 F762
G1 X158.538 Y-97.162 Z1.251 F762
G1 X158.547 Y-97.192 Z1.250 F762
G1 X158.569 Y-97.214 Z1.249 F762
G1 X158.600 Y-97.222 Z1.248 F762
G1 X158.630 Y-97.214 Z1.247 F762
G1 X158.653 Y-97.192 Z1.246 F762
G1 X158.662 Y-97.163 Z1.245 F762
G1 X158.656 Y-97.132 Z1.243 F762
G1 X158.636 Y-97.108 Z1.242 F762
G1 X158.606 Y-97.097 Z1.241 F762
G1 X158.575 Y-97.102 Z1.240 F762
G1 X158.551 Y-97.121 Z1.239 F762
G1 X158.538 Y-97.150 Z1.238 F762
G1 X158.541 Y-97.181 Z1.237 F762
G1 X158.559 Y-97.207 Z1.236 F762
G1 X158.587 Y-97.220 Z1.235 F762
G1 X158.619 Y-97.219 Z1.233 F762
G1 X158.645 Y-97.202 Z1.232 F762
G1 X158.661 Y-97.175 Z1.231 F762
G1 X158.660 Y-97.143 Z1.230 F762
G1 X158.645 Y-97.116 Z1.229 F762
G1 X158.618 Y-97.099 Z1.228 F762
G1 X158.587 Y-97.098 Z1.227 F762
G1 X158.559 Y-97.112 Z1.226 F762
G1 X158.541 Y-97.138 Z1.225 F762
G1 X158.538 Y-97.169 Z1.223 F762
G1 X158.551 Y-97.198 Z1.222 F762
G1 X158.576 Y-97.217 Z1.221 F762
G1 X158.607 Y-97.221 Z1.220 F762
G1 X158.636 Y-97.210 Z1.219 F762
G1 X158.656 Y-97.186 Z1.218 F762
G1 X158.662 Y-97.155 Z1.217 F762
G1 X158.653 Y-97.126 Z1.216 F762
G1 X158.630 Y-97.104 Z1.215 F762
G1 X158.599 Y-97.097 Z1.214 F762
G1 X158.569 Y-97.105 Z1.212 F762
G1 X158.547 Y-97.127 Z1.211 F762
G1 X158.538 Y-97.157 Z1.210 F762
G1 X158.544 Y-97.188 Z1.209 F762
G1 X158.565 Y-97.211 Z1.208 F762
G1 X158.595 Y-97.221 Z1.207 F762
G1 X158.626 Y-97.216 Z1.206 F762
G1 X158.650 Y-97.197 Z1.205 F762
G1 X158.662 Y-97.168 Z1.204 F762
G1 X158.658 Y-97.136 Z1.202 F762
G1 X158.640 Y-97.111 Z1.201 F762
G1 X158.611 Y-97.098 Z1.200 F762
G1 X158.580 Y-97.100 Z1.199 F762
G1 X158.554 Y-97.117 Z1.198 F762
G1 X158.539 Y-97.145 Z1.197 F762
G1 X158.540 Y-97.176 Z1.196 F762
G1 X158.556 Y-97.203 Z1.195 F762
G1 X158.583 Y-97.219 Z1.194 F762
G1 X158.614 Y-97.220 Z1.192 F762
G1 X158.642 Y-97.206 Z1.191 F762
G1 X158.659 Y-97.180 Z1.190 F762
G1 X158.662 Y-97.148 Z1.189 F762
G1 X158.648 Y-97.120 Z1.188 F762
G1 X158.623 Y-97.101 Z1.187 F762
G1 X158.592 Y-97.097 Z1.186 F762
G1 X158.563 Y-97.109 Z1.185 F762
G1 X158.543 Y-97.133 Z1.184 F762
G1 X158.538 Y-97.164 Z1.183 F762
G1 X158.548 Y-97.194 Z1.181 F762
G1 X158.571 Y-97.215 Z1.180 F762
G1 X158.602 Y-97.222 Z1.179 F762
G1 X158.632 Y-97.213 Z1.178 F762
G1 X158.654 Y-97.191 Z1.177 F762
G1 X158.662 Y-97.160 Z1.176 F762
G1 X158.655 Y-97.130 Z1.175 F762
G1 X158.634 Y-97.107 Z1.174 F762
G1 X158.604 Y-97.097 Z1.173 F762
G1 X158.573 Y-97.103 Z1.171 F762
G1 X158.549 Y-97.123 Z1.170 F762
G1 X158.538 Y-97.152 Z1.169 F762
G1 X158.542 Y-97.183 Z1.168 F762
G1 X158.561 Y-97.208 Z1.167 F762
G1 X158.590 Y-97.221 Z1.166 F762
G1 X158.621 Y-97.218 Z1.165 F762
G1 X158.647 Y-97.201 Z1.164 F762
G1 X158.661 Y-97.173 Z1.163 F762
G1 X158.660 Y-97.141 Z1.161 F762
G1 X158.644 Y-97.114 Z1.160 F762
G1 X158.616 Y-97.099 Z1.159 F762
G1 X158.585 Y-97.099 Z1.158 F762
G1 X158.557 Y-97.113 Z1.157 F762
G1 X158.541 Y-97.140 Z1.156 F762
G1 X158.539 Y-97.171 Z1.155 F762
G1 X158.552 Y-97.199 Z1.154 F762
G1 X158.578 Y-97.218 Z1.153 F762
G1 X158.609 Y-97.221 Z1.152 F762
G1 X158.638 Y-97.209 Z1.150 F762
G1 X158.657 Y-97.184 Z1.149 F762
G1 X158.662 Y-97.153 Z1.148 F762
G1 X158.652 Y-97.124 Z1.147 F762
G1 X158.628 Y-97.103 Z1.146 F762
G1 X158.597 Y-97.097 Z1.145 F762
G1 X158.567 Y-97.106 Z1.144 F762
G1 X158.545 Y-97.129 Z1.143 F762
G1 X158.538 Y-97.159 Z1.142 F762
G1 X158.545 Y-97.189 Z1.140 F762
G1 X158.567 Y-97.212 Z1.139 F762
G1 X158.597 Y-97.222 Z1.138 F762
G1 X158.627 Y-97.215 Z1.137 F762
G1 X158.651 Y-97.195 Z1.136 F762
G1 X158.662 Y-97.166 Z1.135 F762
G1 X158.657 Y-97.135 Z1.134 F762
G1 X158.638 Y-97.110 Z1.133 F762
G1 X158.609 Y-97.097 Z1.132 F762
G1 X158.578 Y-97.101 Z1.130 F762
G1 X158.552 Y-97.119 Z1.129 F762
G1 X158.539 Y-97.147 Z1.128 F762
G1 X158.540 Y-97.178 Z1.127 F762
G1 X158.557 Y-97.205 Z1.126 F762
G1 X158.585 Y-97.220 Z1.125 F762
G1 X158.616 Y-97.220 Z1.124 F762
G1 X158.643 Y-97.204 Z1.123 F762
G1 X158.660 Y-97.178 Z1.122 F762
G1 X158.661 Y-97.146 Z1.121 F762
G1 X158.647 Y-97.118 Z1.119 F762
G1 X158.621 Y-97.100 Z1.118 F762
G1 X158.590 Y-97.098 Z1.117 F762
G1 X158.561 Y-97.110 Z1.116 F762
G1 X158.542 Y-97.135 Z1.115 F762
G1 X158.538 Y-97.166 Z1.114 F762
G1 X158.549 Y-97.195 Z1.113 F762
G1 X158.573 Y-97.216 Z1.112 F762
G1 X158.604 Y-97.222 Z1.111 F762
G1 X158.634 Y-97.212 Z1.109 F762
G1 X158.655 Y-97.189 Z1.108 F762
G1 X158.663 Y-97.158 Z1.107 F762
G1 X158.654 Y-97.128 Z1.106 F762
G1 X158.632 Y-97.106 Z1.105 F762
G1 X158.602 Y-97.097 Z1.104 F762
G1 X158.572 Y-97.104 Z1.103 F762
G1 X158.548 Y-97.124 Z1.102 F762
G1 X158.538 Y-97.154 Z1.101 F762
G1 X158.543 Y-97.185 Z1.099 F762
G1 X158.563 Y-97.209 Z1.098 F762
G1 X158.592 Y-97.221 Z1.097 F762
G1 X158.623 Y-97.217 Z1.096 F762
G1 X158.648 Y-97.199 Z1.095 F762
G1 X158.661 Y-97.171 Z1.094 F762
G1 X158.659 Y-97.139 Z1.093 F762
G1 X158.642 Y-97.113 Z1.092 F762
G1 X158.614 Y-97.098 Z1.091 F762
G1 X158.583 Y-97.099 Z1.090 F762
G1 X158.556 Y-97.115 Z1.088 F762
G1 X158.540 Y-97.142 Z1.087 F762
G1 X158.539 Y-97.173 Z1.086 F762
G1 X158.554 Y-97.201 Z1.085 F762
G1 X158.580 Y-97.218 Z1.084 F762
G1 X158.611 Y-97.221 Z1.083 F762
G1 X158.640 Y-97.208 Z1.082 F762
G1 X158.658 Y-97.182 Z1.081 F762
G1 X158.662 Y-97.151 Z1.080 F762
G1 X158.650 Y-97.122 Z1.078 F762
G1 X158.626 Y-97.102 Z1.077 F762
G1 X158.595 Y-97.097 Z1.076 F762
G1 X158.565 Y-97.107 Z1.075 F762
G1 X158.544 Y-97.131 Z1.074 F762
G1 X158.538 Y-97.161 Z1.073 F762
G1 X158.546 Y-97.191 Z1.072 F762
G1 X158.569 Y-97.213 Z1.071 F762
G1 X158.599 Y-97.222 Z1.070 F762
G1 X158.629 Y-97.214 Z1.068 F762
G1 X158.652 Y-97.193 Z1.067 F762
G1 X158.662 Y-97.163 Z1.066 F762
G1 X158.657 Y-97.133 Z1.065 F762
G1 X158.636 Y-97.108 Z1.064 F762
G1 X158.607 Y-97.097 Z1.063 F762
G1 X158.576 Y-97.101 Z1.062 F762
G1 X158.551 Y-97.120 Z1.061 F762
G1 X158.538 Y-97.149 Z1.060 F762
G1 X158.541 Y-97.180 Z1.059 F762
G1 X158.559 Y-97.206 Z1.057 F762
G1 X158.587 Y-97.220 Z1.056 F762
G1 X158.618 Y-97.219 Z1.055 F762
G1 X158.645 Y-97.203 Z1.054 F762
G1 X158.660 Y-97.175 Z1.053 F762
G1 X158.661 Y-97.144 Z1.052 F762
G1 X158.646 Y-97.117 Z1.051 F762
G1 X158.619 Y-97.100 Z1.050 F762
G1 X158.588 Y-97.098 Z1.049 F762
G1 X158.560 Y-97.111 Z1.047 F762
G1 X158.542 Y-97.137 Z1.046 F762
G1 X158.538 Y-97.168 Z1.045 F762
G1 X158.550 Y-97.197 Z1.044 F762
G1 X158.575 Y-97.217 Z1.043 F762
G1 X158.606 Y-97.221 Z1.042 F762
G1 X158.636 Y-97.211 Z1.041 F762
G1 X158.656 Y-97.187 Z1.040 F762
G1 X158.662 Y-97.156 Z1.039 F762
G1 X158.653 Y-97.126 Z1.037 F762
G1 X158.630 Y-97.105 Z1.036 F762
G1 X158.600 Y-97.097 Z1.035 F762
G1 X158.570 Y-97.105 Z1.034 F762
G1 X158.547 Y-97.126 Z1.033 F762
G1 X158.538 Y-97.156 Z1.032 F762
G1 X158.544 Y-97.187 Z1.031 F762
G1 X158.564 Y-97.211 Z1.030 F762
G1 X158.594 Y-97.221 Z1.029 F762
G1 X158.625 Y-97.217 Z1.028 F762
G1 X158.650 Y-97.197 Z1.026 F762
G1 X158.662 Y-97.168 Z1.025 F762
G1 X158.659 Y-97.137 Z1.024 F762
G1 X158.640 Y-97.112 Z1.023 F762
G1 X158.612 Y-97.098 Z1.022 F762
G1 X158.581 Y-97.100 Z1.021 F762
G1 X158.554 Y-97.116 Z1.020 F762
G1 X158.539 Y-97.144 Z1.019 F762
G1 X158.540 Y-97.175 Z1.018 F762
G1 X158.555 Y-97.203 Z1.016 F762
G1 X158.582 Y-97.219 Z1.015 F762
G1 X158.613 Y-97.220 Z1.014 F762
G1 X158.641 Y-97.206 Z1.013 F762
G1 X158.659 Y-97.180 Z1.012 F762
G1 X158.662 Y-97.149 Z1.011 F762
G1 X158.649 Y-97.120 Z1.010 F762
G1 X158.624 Y-97.101 Z1.009 F762
G1 X158.593 Y-97.097 Z1.008 F762
G1 X158.564 Y-97.108 Z1.006 F762
G1 X158.544 Y-97.132 Z1.005 F762
G1 X158.538 Y-97.163 Z1.004 F762
G1 X158.547 Y-97.193 Z1.003 F762
G1 X158.571 Y-97.214 Z1.002 F762
G1 X158.601 Y-97.222 Z1.001 F762
G1 X158.631 Y-97.213 Z1.000 F762
G1 X158.654 Y-97.191 Z0.999 F762
G1 X158.662 Y-97.161 Z0.998 F762
G1 X158.656 Y-97.131 Z0.997 F762
G1 X158.635 Y-97.107 Z0.995 F762
G1 X158.605 Y-97.097 Z0.994 F762
G1 X158.574 Y-97.102 Z0.993 F762
G1 X158.550 Y-97.122 Z0.992 F762
G1 X158.538 Y-97.151 Z0.991 F762
G1 X158.542 Y-97.182 Z0.990 F762
G1 X158.560 Y-97.208 Z0.989 F762
G1 X158.589 Y-97.221 Z0.988 F762
G1 X158.620 Y-97.218 Z0.987 F762
G1 X158.646 Y-97.201 Z0.985 F762
G1 X158.661 Y-97.173 Z0.984 F762
G1 X158.660 Y-97.142 Z0.983 F762
G1 X158.644 Y-97.115 Z0.982 F762
G1 X158.617 Y-97.099 Z0.981 F762
G1 X158.586 Y-97.098 Z0.980 F762
G1 X158.558 Y-97.113 Z0.979 F762
G1 X158.541 Y-97.139 Z0.978 F762
G1 X158.539 Y-97.170 Z0.977 F762
G1 X158.552 Y-97.199 Z0.975 F762
G1 X158.577 Y-97.217 Z0.974 F762
G1 X158.608 Y-97.221 Z0.973 F762
G1 X158.637 Y-97.209 Z0.972 F762
G1 X158.657 Y-97.185 Z0.971 F762
G1 X158.662 Y-97.154 Z0.970 F762
G1 X158.652 Y-97.124 Z0.969 F762
G1 X158.629 Y-97.104 Z0.968 F762
G1 X158.598 Y-97.097 Z0.967 F762
G1 X158.568 Y-97.106 Z0.966 F762
G1 X158.546 Y-97.128 Z0.964 F762
G1 X158.538 Y-97.158 Z0.963 F762
G1 X158.545 Y-97.189 Z0.962 F762
G1 X158.566 Y-97.212 Z0.961 F762
G1 X158.596 Y-97.222 Z0.960 F762
G1 X158.627 Y-97.216 Z0.959 F762
G1 X158.651 Y-97.196 Z0.958 F762
G1 X158.662 Y-97.166 Z0.957 F762
G1 X158.658 Y-97.135 Z0.956 F762
G1 X158.639 Y-97.110 Z0.954 F762
G1 X158.610 Y-97.098 Z0.953 F762
G1 X158.579 Y-97.100 Z0.952 F762
G1 X158.553 Y-97.118 Z0.951 F762
G1 X158.539 Y-97.146 Z0.950 F762
G1 X158.540 Y-97.177 Z0.949 F762
G1 X158.557 Y-97.204 Z0.948 F762
G1 X158.584 Y-97.220 Z0.947 F762
G1 X158.615 Y-97.220 Z0.946 F762
G1 X158.643 Y-97.205 Z0.944 F762
G1 X158.660 Y-97.178 Z0.943 F762
G1 X158.661 Y-97.147 Z0.942 F762
G1 X158.648 Y-97.119 Z0.941 F762
G1 X158.622 Y-97.101 Z0.940 F762
G1 X158.591 Y-97.097 Z0.939 F762
G1 X158.562 Y-97.110 Z0.938 F762
G1 X158.543 Y-97.134 Z0.937 F762
G1 X158.538 Y-97.165 Z0.936 F762
G1 X158.549 Y-97.195 Z0.935 F762
G1 X158.572 Y-97.215 Z0.933 F762
G1 X158.603 Y-97.222 Z0.932 F762
G1 X158.633 Y-97.212 Z0.931 F762
G1 X158.655 Y-97.189 Z0.930 F762
G1 X158.663 Y-97.159 Z0.929 F762
G1 X158.655 Y-97.129 Z0.928 F762
G1 X158.633 Y-97.106 Z0.927 F762
G1 X158.603 Y-97.097 Z0.926 F762
G1 X158.572 Y-97.103 Z0.925 F762
G1 X158.549 Y-97.124 Z0.923 F762
G1 X158.538 Y-97.153 Z0.922 F762
G1 X158.543 Y-97.184 Z0.921 F762
G1 X158.562 Y-97.209 Z0.920 F762
G1 X158.591 Y-97.221 Z0.919 F762
G1 X158.622 Y-97.218 Z0.918 F762
G1 X158.648 Y-97.200 Z0.917 F762
G1 X158.661 Y-97.171 Z0.916 F762
G1 X158.659 Y-97.140 Z0.915 F762
G1 X158.643 Y-97.113 Z0.913 F762
G1 X158.615 Y-97.099 Z0.912 F762
G1 X158.584 Y-97.099 Z0.911 F762
G1 X158.556 Y-97.114 Z0.910 F762
G1 X158.540 Y-97.141 Z0.909 F762
G1 X158.539 Y-97.173 Z0.908 F762
G1 X158.553 Y-97.201 Z0.907 F762
G1 X158.579 Y-97.218 Z0.906 F762
G1 X158.610 Y-97.221 Z0.905 F762
G1 X158.639 Y-97.208 Z0.904 F762
G1 X158.658 Y-97.183 Z0.902 F762
G1 X158.662 Y-97.152 Z0.901 F762
G1 X158.651 Y-97.123 Z0.900 F762
G1 X158.627 Y-97.103 Z0.899 F762
G1 X158.596 Y-97.097 Z0.898 F762
G1 X158.566 Y-97.107 Z0.897 F762
G1 X158.545 Y-97.130 Z0.896 F762
G1 X158.538 Y-97.160 Z0.895 F762
G1 X158.546 Y-97.191 Z0.894 F762
G1 X158.568 Y-97.213 Z0.892 F762
G1 X158.598 Y-97.222 Z0.891 F762
G1 X158.629 Y-97.215 Z0.890 F762
G1 X158.652 Y-97.194 Z0.889 F762
G1 X158.662 Y-97.164 Z0.888 F762
G1 X158.657 Y-97.133 Z0.887 F762
G1 X158.637 Y-97.109 Z0.886 F762
G1 X158.608 Y-97.097 Z0.885 F762
G1 X158.577 Y-97.101 Z0.884 F762
G1 X158.552 Y-97.120 Z0.882 F762
G1 X158.538 Y-97.148 Z0.881 F762
G1 X158.541 Y-97.179 Z0.880 F762
G1 X158.558 Y-97.206 Z0.879 F762
G1 X158.586 Y-97.220 Z0.878 F762
G1 X158.617 Y-97.219 Z0.877 F762
G1 X158.644 Y-97.203 Z0.876 F762
G1 X158.660 Y-97.176 Z0.875 F762
G1 X158.661 Y-97.145 Z0.874 F762
G1 X158.646 Y-97.117 Z0.873 F762
G1 X158.620 Y-97.100 Z0.871 F762
G1 X158.589 Y-97.098 Z0.870 F762
G1 X158.560 Y-97.111 Z0.869 F762
G1 X158.542 Y-97.136 Z0.868 F762
G1 X158.538 Y-97.168 Z0.867 F762
G1 X158.550 Y-97.197 Z0.866 F762
G1 X158.574 Y-97.216 Z0.865 F762
G1 X158.605 Y-97.221 Z0.864 F762
G1 X158.635 Y-97.211 Z0.863 F762
G1 X158.656 Y-97.188 Z0.861 F762
G1 X158.662 Y-97.157 Z0.860 F762
G1 X158.654 Y-97.127 Z0.859 F762
G1 X158.631 Y-97.105 Z0.858 F762
G1 X158.601 Y-97.097 Z0.857 F762
G1 X158.570 Y-97.104 Z0.856 F762
G1 X158.547 Y-97.126 Z0.855 F762
G1 X158.538 Y-97.155 Z0.854 F762
G1 X158.544 Y-97.186 Z0.853 F762
G1 X158.564 Y-97.210 Z0.851 F762
G1 X158.593 Y-97.221 Z0.850 F762
G1 X158.624 Y-97.217 Z0.849 F762
G1 X158.649 Y-97.198 Z0.848 F762
G1 X158.662 Y-97.169 Z0.847 F762
G1 X158.659 Y-97.138 Z0.846 F762
G1 X158.641 Y-97.112 Z0.845 F762
G1 X158.613 Y-97.098 Z0.844 F762
G1 X158.582 Y-97.099 Z0.843 F762
G1 X158.555 Y-97.116 Z0.842 F762
G1 X158.540 Y-97.143 Z0.840 F762
G1 X158.539 Y-97.175 Z0.839 F762
G1 X158.555 Y-97.202 Z0.838 F762
G1 X158.581 Y-97.219 Z0.837 F762
G1 X158.612 Y-97.220 Z0.836 F762
G1 X158.641 Y-97.207 Z0.835 F762
G1 X158.659 Y-97.181 Z0.834 F762
G1 X158.662 Y-97.150 Z0.833 F762
G1 X158.649 Y-97.121 Z0.832 F762
G1 X158.625 Y-97.102 Z0.830 F762
G1 X158.594 Y-97.097 Z0.829 F762
G1 X158.564 Y-97.108 Z0.828 F762
G1 X158.544 Y-97.132 Z0.827 F762
G1 X158.538 Y-97.163 Z0.826 F762
G1 X158.547 Y-97.192 Z0.825 F762
G1 X158.570 Y-97.214 Z0.824 F762
G1 X158.600 Y-97.222 Z0.823 F762
G1 X158.631 Y-97.214 Z0.822 F762
G1 X158.653 Y-97.192 Z0.820 F762
G1 X158.662 Y-97.162 Z0.819 F762
G1 X158.656 Y-97.131 Z0.818 F762
G1 X158.635 Y-97.108 Z0.817 F762
G1 X158.606 Y-97.097 Z0.816 F762
G1 X158.575 Y-97.102 Z0.815 F762
G1 X158.550 Y-97.121 Z0.814 F762
G1 X158.538 Y-97.150 Z0.813 F762
G1 X158.542 Y-97.181 Z0.812 F762
G1 X158.560 Y-97.207 Z0.811 F762
G1 X158.588 Y-97.221 Z0.809 F762
G1 X158.619 Y-97.219 Z0.808 F762
G1 X158.646 Y-97.202 Z0.807 F762
G1 X158.661 Y-97.174 Z0.806 F762
G1 X158.660 Y-97.143 Z0.805 F762
G1 X158.645 Y-97.116 Z0.804 F762
G1 X158.618 Y-97.099 Z0.803 F762
G1 X158.587 Y-97.098 Z0.802 F762
G1 X158.559 Y-97.112 Z0.801 F762
G1 X158.541 Y-97.138 Z0.799 F762
G1 X158.538 Y-97.170 Z0.798 F762
G1 X158.551 Y-97.198 Z0.797 F762
G1 X158.576 Y-97.217 Z0.796 F762
G1 X158.607 Y-97.221 Z0.795 F762
G1 X158.637 Y-97.210 Z0.794 F762
G1 X158.657 Y-97.186 Z0.793 F762
G1 X158.662 Y-97.155 Z0.792 F762
G1 X158.652 Y-97.125 Z0.791 F762
G1 X158.629 Y-97.104 Z0.789 F762
G1 X158.599 Y-97.097 Z0.788 F762
G1 X158.568 Y-97.105 Z0.787 F762
G1 X158.546 Y-97.127 Z0.786 F762
G1 X158.538 Y-97.157 Z0.785 F762
G1 X158.545 Y-97.188 Z0.784 F762
G1 X158.566 Y-97.211 Z0.783 F762
G1 X158.595 Y-97.222 Z0.782 F762
G1 X158.626 Y-97.216 Z0.781 F762
G1 X158.650 Y-97.196 Z0.780 F762
G1 X158.662 Y-97.167 Z0.778 F762
G1 X158.658 Y-97.136 Z0.777 F762
G1 X158.639 Y-97.111 Z0.776 F762
G1 X158.611 Y-97.098 Z0.775 F762
G1 X158.580 Y-97.100 Z0.774 F762
G1 X158.553 Y-97.117 Z0.773 F762
G1 X158.539 Y-97.145 Z0.772 F762
G1 X158.540 Y-97.177 Z0.771 F762
G1 X158.556 Y-97.204 Z0.770 F762
G1 X158.583 Y-97.219 Z0.768 F762
G1 X158.615 Y-97.220 Z0.767 F762
G1 X158.642 Y-97.205 Z0.766 F762
G1 X158.659 Y-97.179 Z0.765 F762
G1 X158.661 Y-97.148 Z0.764 F762
G1 X158.648 Y-97.119 Z0.763 F762
G1 X158.623 Y-97.101 Z0.762 F762
G1 X158.592 Y-97.097 Z0.761 F762
G1 X158.563 Y-97.109 Z0.760 F762
G1 X158.543 Y-97.134 Z0.758 F762
G1 X158.538 Y-97.165 Z0.757 F762
G1 X158.548 Y-97.194 Z0.756 F762
G1 X158.572 Y-97.215 Z0.755 F762
G1 X158.602 Y-97.222 Z0.754 F762
G1 X158.632 Y-97.213 Z0.753 F762
G1 X158.654 Y-97.190 Z0.752 F762
G1 X158.663 Y-97.160 Z0.751 F762
G1 X158.655 Y-97.129 Z0.750 F762
G1 X158.634 Y-97.106 Z0.749 F762
G1 X158.604 Y-97.097 Z0.747 F762
G1 X158.573 Y-97.103 Z0.746 F762
G1 X158.549 Y-97.123 Z0.745 F762
G1 X158.538 Y-97.152 Z0.744 F762
G1 X158.542 Y-97.183 Z0.743 F762
G1 X158.561 Y-97.208 Z0.742 F762
G1 X158.590 Y-97.221 Z0.741 F762
G1 X158.621 Y-97.218 Z0.740 F762
G1 X158.647 Y-97.200 Z0.739 F762
G1 X158.661 Y-97.172 Z0.737 F762
G1 X158.660 Y-97.141 Z0.736 F762
G1 X158.643 Y-97.114 Z0.735 F762
G1 X158.616 Y-97.099 Z0.734 F762
G1 X158.584 Y-97.099 Z0.733 F762
G1 X158.557 Y-97.114 Z0.732 F762
G1 X158.540 Y-97.140 Z0.731 F762
G1 X158.539 Y-97.172 Z0.730 F762
G1 X158.553 Y-97.200 Z0.729 F762
G1 X158.578 Y-97.218 Z0.727 F762
G1 X158.610 Y-97.221 Z0.726 F762
G1 X158.638 Y-97.209 Z0.725 F762
G1 X158.658 Y-97.184 Z0.724 F762
G1 X158.662 Y-97.153 Z0.723 F762
G1 X158.651 Y-97.123 Z0.722 F762
G1 X158.627 Y-97.103 Z0.721 F762
G1 X158.597 Y-97.097 Z0.720 F762
G1 X158.567 Y-97.106 Z0.719 F762
G1 X158.545 Y-97.129 Z0.718 F762
G1 X158.538 Y-97.160 Z0.716 F762
G1 X158.546 Y-97.190 Z0.715 F762
G1 X158.567 Y-97.212 Z0.714 F762
G1 X158.597 Y-97.222 Z0.713 F762
G1 X158.628 Y-97.215 Z0.712 F762
G1 X158.652 Y-97.194 Z0.711 F762
G1 X158.662 Y-97.165 Z0.710 F762
G1 X158.657 Y-97.134 Z0.709 F762
G1 X158.638 Y-97.109 Z0.708 F762
G1 X158.609 Y-97.097 Z0.706 F762
G1 X158.578 Y-97.101 Z0.705 F762
G1 X158.552 Y-97.119 Z0.704 F762
G1 X158.539 Y-97.147 Z0.703 F762
G1 X158.541 Y-97.179 Z0.702 F762
G1 X158.558 Y-97.205 Z0.701 F762
G1 X158.585 Y-97.220 Z0.700 F762
G1 X158.617 Y-97.219 Z0.699 F762
G1 X158.644 Y-97.204 Z0.698 F762
G1 X158.660 Y-97.177 Z0.696 F762
G1 X158.661 Y-97.146 Z0.695 F762
G1 X158.647 Y-97.118 Z0.694 F762
G1 X158.621 Y-97.100 Z0.693 F762
G1 X158.589 Y-97.098 Z0.692 F762
G1 X158.561 Y-97.111 Z0.691 F762
G1 X158.542 Y-97.136 Z0.690 F762
G1 X158.538 Y-97.167 Z0.689 F762
G1 X158.549 Y-97.196 Z0.688 F762
G1 X158.574 Y-97.216 Z0.687 F762
G1 X158.605 Y-97.222 Z0.685 F762
G1 X158.634 Y-97.211 Z0.684 F762
G1 X158.655 Y-97.188 Z0.683 F762
G1 X158.662 Y-97.158 Z0.682 F762
G1 X158.654 Y-97.128 Z0.681 F762
G1 X158.632 Y-97.105 Z0.680 F762
G1 X158.602 Y-97.097 Z0.679 F762
G1 X158.571 Y-97.104 Z0.678 F762
G1 X158.548 Y-97.125 Z0.677 F762
G1 X158.538 Y-97.155 Z0.675 F762
G1 X158.543 Y-97.185 Z0.674 F762
G1 X158.563 Y-97.210 Z0.673 F762
G1 X158.592 Y-97.221 Z0.672 F762
G1 X158.623 Y-97.217 Z0.671 F762
G1 X158.649 Y-97.198 Z0.670 F762
G1 X158.662 Y-97.170 Z0.669 F762
G1 X158.659 Y-97.139 Z0.668 F762
G1 X158.642 Y-97.113 Z0.667 F762
G1 X158.614 Y-97.098 Z0.665 F762
G1 X158.582 Y-97.099 Z0.664 F762
G1 X158.555 Y-97.115 Z0.663 F762
G1 X158.540 Y-97.142 Z0.662 F762
G1 X158.539 Y-97.174 Z0.661 F762
G1 X158.554 Y-97.202 Z0.660 F762
G1 X158.580 Y-97.219 Z0.659 F762
G1 X158.612 Y-97.221 Z0.658 F762
G1 X158.640 Y-97.207 Z0.657 F762
G1 X158.658 Y-97.182 Z0.656 F762
G1 X158.662 Y-97.151 Z0.654 F762
G1 X158.650 Y-97.122 Z0.653 F762
G1 X158.625 Y-97.102 Z0.652 F762
G1 X158.594 Y-97.097 Z0.651 F762
G1 X158.565 Y-97.108 Z0.650 F762
G1 X158.544 Y-97.131 Z0.649 F762
G1 X158.538 Y-97.162 Z0.648 F762
G1 X158.547 Y-97.192 Z0.647 F762
G1 X158.569 Y-97.214 Z0.646 F762
G1 X158.599 Y-97.222 Z0.644 F762
G1 X158.630 Y-97.214 Z0.643 F762
G1 X158.653 Y-97.193 Z0.642 F762
G1 X158.662 Y-97.163 Z0.641 F762
G1 X158.656 Y-97.132 Z0.640 F762
G1 X158.636 Y-97.108 Z0.639 F762
G1 X158.607 Y-97.097 Z0.638 F762
G1 X158.576 Y-97.102 Z0.637 F762
G1 X158.551 Y-97.121 Z0.636 F762
G1 X158.538 Y-97.150 Z0.635 F762
G1 X158.541 Y-97.181 Z0.633 F762
G1 X158.559 Y-97.207 Z0.632 F762
G1 X158.587 Y-97.220 Z0.631 F762
G1 X158.619 Y-97.219 Z0.630 F762
G1 X158.645 Y-97.202 Z0.629 F762
G1 X158.661 Y-97.175 Z0.628 F762
G1 X158.661 Y-97.144 Z0.627 F762
G1 X158.645 Y-97.116 Z0.626 F762
G1 X158.619 Y-97.100 Z0.625 F762
G1 X158.587 Y-97.098 Z0.623 F762
G1 X158.559 Y-97.112 Z0.622 F762
G1 X158.541 Y-97.138 Z0.621 F762
G1 X158.538 Y-97.169 Z0.620 F762
G1 X158.551 Y-97.198 Z0.619 F762
G1 X158.576 Y-97.217 Z0.618 F762
G1 X158.607 Y-97.221 Z0.617 F762
G1 X158.636 Y-97.210 Z0.616 F762
G1 X158.656 Y-97.186 Z0.615 F762
G1 X158.662 Y-97.156 Z0.613 F762
G1 X158.653 Y-97.126 Z0.612 F762
G1 X158.630 Y-97.104 Z0.611 F762
G1 X158.599 Y-97.097 Z0.610 F762
G1 X158.569 Y-97.105 Z0.609 F762
G1 X158.547 Y-97.127 Z0.608 F762
G1 X158.538 Y-97.157 Z0.607 F762
G1 X158.544 Y-97.187 Z0.606 F762
G1 X158.565 Y-97.211 Z0.605 F762
G1 X158.594 Y-97.221 Z0.604 F762
G1 X158.625 Y-97.216 Z0.602 F762
G1 X158.650 Y-97.197 Z0.601 F762
G1 X158.662 Y-97.168 Z0.600 F762
G1 X158.658 Y-97.137 Z0.599 F762
G1 X158.640 Y-97.111 Z0.598 F762
G1 X158.612 Y-97.098 Z0.597 F762
G1 X158.580 Y-97.100 Z0.596 F762
G1 X158.554 Y-97.117 Z0.595 F762
G1 X158.539 Y-97.145 Z0.594 F762
G1 X158.540 Y-97.176 Z0.592 F762
G1 X158.555 Y-97.203 Z0.591 F762
G1 X158.582 Y-97.219 Z0.590 F762
G1 X158.614 Y-97.220 Z0.589 F762
G1 X158.642 Y-97.206 Z0.588 F762
G1 X158.659 Y-97.180 Z0.587 F762
G1 X158.662 Y-97.148 Z0.586 F762
G1 X158.649 Y-97.120 Z0.585 F762
G1 X158.623 Y-97.101 Z0.584 F762
G1 X158.592 Y-97.097 Z0.582 F762
G1 X158.563 Y-97.109 Z0.581 F762
G1 X158.543 Y-97.133 Z0.580 F762
G1 X158.538 Y-97.164 Z0.579 F762
G1 X158.548 Y-97.194 Z0.578 F762
G1 X158.571 Y-97.215 Z0.577 F762
G1 X158.602 Y-97.222 Z0.576 F762
G1 X158.632 Y-97.213 Z0.575 F762
G1 X158.654 Y-97.191 Z0.574 F762
G1 X158.662 Y-97.161 Z0.573 F762
G1 X158.655 Y-97.130 Z0.571 F762
G1 X158.634 Y-97.107 Z0.570 F762
G1 X158.605 Y-97.097 Z0.569 F762
G1 X158.574 Y-97.103 Z0.568 F762
G1 X158.549 Y-97.122 Z0.567 F762
G1 X158.538 Y-97.152 Z0.566 F762
G1 X158.542 Y-97.183 Z0.565 F762
G1 X158.561 Y-97.208 Z0.564 F762
G1 X158.589 Y-97.221 Z0.563 F762
G1 X158.621 Y-97.218 Z0.561 F762
G1 X158.647 Y-97.201 Z0.560 F762
G1 X158.661 Y-97.173 Z0.559 F762
G1 X158.660 Y-97.141 Z0.558 F762
G1 X158.644 Y-97.115 Z0.557 F762
G1 X158.617 Y-97.099 Z0.556 F762
G1 X158.585 Y-97.098 Z0.555 F762
G1 X158.558 Y-97.113 Z0.554 F762
G1 X158.541 Y-97.140 Z0.553 F762
G1 X158.539 Y-97.171 Z0.551 F762
G1 X158.552 Y-97.199 Z0.550 F762
G1 X158.578 Y-97.218 Z0.549 F762
G1 X158.609 Y-97.221 Z0.548 F762
G1 X158.638 Y-97.209 Z0.547 F762
G1 X158.657 Y-97.184 Z0.546 F762
G1 X158.662 Y-97.153 Z0.545 F762
G1 X158.652 Y-97.124 Z0.544 F762
G1 X158.628 Y-97.103 Z0.543 F762
G1 X158.597 Y-97.097 Z0.542 F762
G1 X158.567 Y-97.106 Z0.540 F762
G1 X158.546 Y-97.129 Z0.539 F762
G1 X158.538 Y-97.159 Z0.538 F762
G1 X158.545 Y-97.189 Z0.537 F762
G1 X158.567 Y-97.212 Z0.536 F762
G1 X158.597 Y-97.222 Z0.535 F762
G1 X158.627 Y-97.215 Z0.534 F762
G1 X158.651 Y-97.195 Z0.533 F762
G1 X158.662 Y-97.166 Z0.532 F762
G1 X158.657 Y-97.135 Z0.530 F762
G1 X158.638 Y-97.110 Z0.529 F762
G1 X158.610 Y-97.097 Z0.528 F762
G1 X158.578 Y-97.101 Z0.527 F762
G1 X158.553 Y-97.118 Z0.526 F762
G1 X158.539 Y-97.147 Z0.525 F762
G1 X158.540 Y-97.178 Z0.524 F762
G1 X158.557 Y-97.205 Z0.523 F762
G1 X158.584 Y-97.220 Z0.522 F762
G1 X158.616 Y-97.220 Z0.520 F762
G1 X158.643 Y-97.204 Z0.519 F762
G1 X158.660 Y-97.178 Z0.518 F762
G1 X158.661 Y-97.146 Z0.517 F762
G1 X158.647 Y-97.118 Z0.516 F762
G1 X158.621 Y-97.100 Z0.515 F762
G1 X158.590 Y-97.097 Z0.514 F762
G1 X158.561 Y-97.110 Z0.513 F762
G1 X158.542 Y-97.135 Z0.512 F762
G1 X158.538 Y-97.166 Z0.511 F762
G1 X158.549 Y-97.195 Z0.509 F762
G1 X158.573 Y-97.216 Z0.508 F762
G1 X158.604 Y-97.222 Z0.507 F762
G1 X158.634 Y-97.212 Z0.506 F762
G1 X158.655 Y-97.189 Z0.505 F762
G1 X158.663 Y-97.159 Z0.504 F762
G1 X158.654 Y-97.128 Z0.503 F762
G1 X158.632 Y-97.106 Z0.502 F762
G1 X158.602 Y-97.097 Z0.501 F762
G1 X158.572 Y-97.103 Z0.499 F762
G1 X158.548 Y-97.124 Z0.498 F762
G1 X158.538 Y-97.154 Z0.497 F762
G1 X158.543 Y-97.185 Z0.496 F762
G1 X158.563 Y-97.209 Z0.495 F762
G1 X158.592 Y-97.221 Z0.494 F762
G1 X158.623 Y-97.217 Z0.493 F762
G1 X158.648 Y-97.199 Z0.492 F762
G1 X158.661 Y-97.171 Z0.491 F762
G1 X158.659 Y-97.139 Z0.489 F762
G1 X158.642 Y-97.113 Z0.488 F762
G1 X158.614 Y-97.098 Z0.487 F762
G1 X158.583 Y-97.099 Z0.486 F762
G1 X158.556 Y-97.115 Z0.485 F762
G1 X158.540 Y-97.142 Z0.484 F762
G1 X158.539 Y-97.173 Z0.483 F762
G1 X158.553 Y-97.201 Z0.482 F762
G1 X158.580 Y-97.218 Z0.481 F762
G1 X158.611 Y-97.221 Z0.480 F762
G1 X158.639 Y-97.208 Z0.478 F762
G1 X158.658 Y-97.182 Z0.477 F762
G1 X158.662 Y-97.151 Z0.476 F762
G1 X158.650 Y-97.122 Z0.475 F762
G1 X158.626 Y-97.102 Z0.474 F762
G1 X158.595 Y-97.097 Z0.473 F762
G1 X158.566 Y-97.107 Z0.472 F762
G1 X158.545 Y-97.130 Z0.471 F762
G1 X158.538 Y-97.161 Z0.470 F762
G1 X158.546 Y-97.191 Z0.468 F762
G1 X158.569 Y-97.213 Z0.467 F762
G1 X158.599 Y-97.222 Z0.466 F762
G1 X158.629 Y-97.214 Z0.465 F762
G1 X158.652 Y-97.193 Z0.464 F762
G1 X158.662 Y-97.164 Z0.463 F762
G1 X158.657 Y-97.133 Z0.462 F762
G1 X158.637 Y-97.109 Z0.461 F762
G1 X158.607 Y-97.097 Z0.460 F762
G1 X158.576 Y-97.101 Z0.458 F762
G1 X158.551 Y-97.120 Z0.457 F762
G1 X158.538 Y-97.149 Z0.456 F762
G1 X158.541 Y-97.180 Z0.455 F762
G1 X158.559 Y-97.206 Z0.454 F762
G1 X158.587 Y-97.220 Z0.453 F762
G1 X158.618 Y-97.219 Z0.452 F762
G1 X158.645 Y-97.203 Z0.451 F762
G1 X158.660 Y-97.176 Z0.450 F762
G1 X158.661 Y-97.144 Z0.449 F762
G1 X158.646 Y-97.117 Z0.447 F762
G1 X158.619 Y-97.100 Z0.446 F762
G1 X158.588 Y-97.098 Z0.445 F762
G1 X158.560 Y-97.111 Z0.444 F762
G1 X158.542 Y-97.137 Z0.443 F762
G1 X158.538 Y-97.168 Z0.442 F762
G1 X158.550 Y-97.197 Z0.441 F762
G1 X158.575 Y-97.216 Z0.440 F762
G1 X158.606 Y-97.221 Z0.439 F762
G1 X158.635 Y-97.211 Z0.437 F762
G1 X158.656 Y-97.187 Z0.436 F762
G1 X158.662 Y-97.156 Z0.435 F762
G1 X158.653 Y-97.126 Z0.434 F762
G1 X158.631 Y-97.105 Z0.433 F762
G1 X158.600 Y-97.097 Z0.432 F762
G1 X158.570 Y-97.104 Z0.431 F762
G1 X158.547 Y-97.126 Z0.430 F762
G1 X158.538 Y-97.156 Z0.429 F762
G1 X158.544 Y-97.187 Z0.427 F762
G1 X158.564 Y-97.210 Z0.426 F762
G1 X158.594 Y-97.221 Z0.425 F762
G1 X158.625 Y-97.217 Z0.424 F762
G1 X158.649 Y-97.197 Z0.423 F762
G1 X158.662 Y-97.169 Z0.422 F762
G1 X158.659 Y-97.137 Z0.421 F762
G1 X158.641 Y-97.112 Z0.420 F762
G1 X158.612 Y-97.098 Z0.419 F762
G1 X158.581 Y-97.100 Z0.418 F762
G1 X158.555 Y-97.116 Z0.416 F762
G1 X158.539 Y-97.144 Z0.415 F762
G1 X158.540 Y-97.175 Z0.414 F762
G1 X158.555 Y-97.203 Z0.413 F762
G1 X158.582 Y-97.219 Z0.412 F762
G1 X158.613 Y-97.220 Z0.411 F762
G1 X158.641 Y-97.206 Z0.410 F762
G1 X158.659 Y-97.180 Z0.409 F762
G1 X158.662 Y-97.149 Z0.408 F762
G1 X158.649 Y-97.120 Z0.406 F762
G1 X158.624 Y-97.102 Z0.405 F762
G1 X158.593 Y-97.097 Z0.404 F762
G1 X158.564 Y-97.108 Z0.403 F762
G1 X158.544 Y-97.132 Z0.402 F762
G1 X158.538 Y-97.163 Z0.401 F762
G1 X158.547 Y-97.193 Z0.400 F762
G1 X158.570 Y-97.214 Z0.399 F762
G1 X158.601 Y-97.222 Z0.398 F762
G1 X158.631 Y-97.213 Z0.396 F762
G1 X158.654 Y-97.191 Z0.395 F762
G1 X158.662 Y-97.161 Z0.394 F762
G1 X158.656 Y-97.131 Z0.393 F762
G1 X158.635 Y-97.107 Z0.392 F762
G1 X158.605 Y-97.097 Z0.391 F762
G1 X158.574 Y-97.102 Z0.390 F762
G1 X158.550 Y-97.122 Z0.389 F762
G1 X158.538 Y-97.151 Z0.388 F762
G1 X158.542 Y-97.182 Z0.387 F762
G1 X158.560 Y-97.207 Z0.385 F762
G1 X158.589 Y-97.221 Z0.384 F762
G1 X158.620 Y-97.218 Z0.383 F762
G1 X158.646 Y-97.201 Z0.382 F762
G1 X158.661 Y-97.174 Z0.381 F762
G1 X158.660 Y-97.142 Z0.380 F762
G1 X158.644 Y-97.115 Z0.379 F762
G1 X158.617 Y-97.099 Z0.378 F762
G1 X158.586 Y-97.098 Z0.377 F762
G1 X158.558 Y-97.113 Z0.375 F762
G1 X158.541 Y-97.139 Z0.374 F762
G1 X158.538 Y-97.170 Z0.373 F762
G1 X158.552 Y-97.199 Z0.372 F762
G1 X158.577 Y-97.217 Z0.371 F762
G1 X158.608 Y-97.221 Z0.370 F762
G1 X158.637 Y-97.209 Z0.369 F762
G1 X158.657 Y-97.185 Z0.368 F762
G1 X158.662 Y-97.154 Z0.367 F762
G1 X158.652 Y-97.125 Z0.365 F762
G1 X158.629 Y-97.104 Z0.364 F762
G1 X158.598 Y-97.097 Z0.363 F762
G1 X158.568 Y-97.106 Z0.362 F762
G1 X158.546 Y-97.128 Z0.361 F762
G1 X158.538 Y-97.158 Z0.360 F762
G1 X158.545 Y-97.189 Z0.359 F762
G1 X158.566 Y-97.212 Z0.358 F762
G1 X158.596 Y-97.222 Z0.357 F762
G1 X158.627 Y-97.216 Z0.356 F762
G1 X158.651 Y-97.196 Z0.354 F762
G1 X158.662 Y-97.166 Z0.353 F762
G1 X158.658 Y-97.135 Z0.352 F762
G1 X158.639 Y-97.110 Z0.351 F762
G1 X158.610 Y-97.098 Z0.350 F762
G1 X158.579 Y-97.100 Z0.349 F762
G1 X158.553 Y-97.118 Z0.348 F762
G1 X158.539 Y-97.146 Z0.347 F762
G1 X158.540 Y-97.177 Z0.346 F762
G1 X158.556 Y-97.204 Z0.344 F762
G1 X158.584 Y-97.220 Z0.343 F762
G1 X158.615 Y-97.220 Z0.342 F762
G1 X158.643 Y-97.205 Z0.341 F762
G1 X158.659 Y-97.178 Z0.340 F762
G1 X158.661 Y-97.147 Z0.339 F762
G1 X158.648 Y-97.119 Z0.338 F762
G1 X158.622 Y-97.101 Z0.337 F762
G1 X158.591 Y-97.097 Z0.336 F762
G1 X158.562 Y-97.110 Z0.334 F762
G1 X158.543 Y-97.134 Z0.333 F762
G1 X158.538 Y-97.165 Z0.332 F762
G1 X158.549 Y-97.195 Z0.331 F762
G1 X158.572 Y-97.215 Z0.330 F762
G1 X158.603 Y-97.222 Z0.329 F762
G1 X158.633 Y-97.212 Z0.328 F762
G1 X158.655 Y-97.190 Z0.327 F762
G1 X158.663 Y-97.159 Z0.326 F762
G1 X158.655 Y-97.129 Z0.325 F762
G1 X158.633 Y-97.106 Z0.323 F762
G1 X158.603 Y-97.097 Z0.322 F762
G1 X158.572 Y-97.103 Z0.321 F762
G1 X158.549 Y-97.124 Z0.320 F762
G1 X158.538 Y-97.153 Z0.319 F762
G1 X158.543 Y-97.184 Z0.318 F762
G1 X158.562 Y-97.209 Z0.317 F762
G1 X158.591 Y-97.221 Z0.316 F762
G1 X158.622 Y-97.218 Z0.315 F762
G1 X158.648 Y-97.200 Z0.313 F762
G1 X158.661 Y-97.171 Z0.312 F762
G1 X158.660 Y-97.140 Z0.311 F762
G1 X158.643 Y-97.114 Z0.310 F762
G1 X158.615 Y-97.099 Z0.309 F762
G1 X158.584 Y-97.099 Z0.308 F762
G1 X158.557 Y-97.114 Z0.307 F762
G1 X158.540 Y-97.141 Z0.306 F762
G1 X158.539 Y-97.172 Z0.305 F762
G1 X158.553 Y-97.200 Z0.303 F762
G1 X158.579 Y-97.218 Z0.302 F762
G1 X158.610 Y-97.221 Z0.301 F762
G1 X158.639 Y-97.208 Z0.300 F762
G1 X158.658 Y-97.183 Z0.299 F762
G1 X158.662 Y-97.152 Z0.298 F762
G1 X158.651 Y-97.123 Z0.297 F762
G1 X158.627 Y-97.103 Z0.296 F762
G1 X158.596 Y-97.097 Z0.295 F762
G1 X158.566 Y-97.107 Z0.294 F762
G1 X158.545 Y-97.130 Z0.292 F762
G1 X158.538 Y-97.160 Z0.291 F762
G1 X158.546 Y-97.190 Z0.290 F762
G1 X158.568 Y-97.213 Z0.289 F762
G1 X158.598 Y-97.222 Z0.288 F762
G1 X158.629 Y-97.215 Z0.287 F762
G1 X158.652 Y-97.194 Z0.286 F762
G1 X158.662 Y-97.164 Z0.285 F762
G1 X158.657 Y-97.133 Z0.284 F762
G1 X158.637 Y-97.109 Z0.282 F762
G1 X158.608 Y-97.097 Z0.281 F762
G1 X158.577 Y-97.101 Z0.280 F762
G1 X158.552 Y-97.120 Z0.279 F762
G1 X158.539 Y-97.148 Z0.278 F762
G1 X158.541 Y-97.179 Z0.277 F762
G1 X158.558 Y-97.206 Z0.276 F762
G1 X158.586 Y-97.220 Z0.275 F762
G1 X158.617 Y-97.219 Z0.274 F762
G1 X158.644 Y-97.203 Z0.272 F762
G1 X158.660 Y-97.176 Z0.271 F762
G1 X158.661 Y-97.145 Z0.270 F762
G1 X158.646 Y-97.117 Z0.269 F762
G1 X158.620 Y-97.100 Z0.268 F762
G1 X158.589 Y-97.098 Z0.267 F762
G1 X158.560 Y-97.111 Z0.266 F762
G1 X158.542 Y-97.136 Z0.265 F762
G1 X158.538 Y-97.167 Z0.264 F762
G1 X158.550 Y-97.196 Z0.263 F762
G1 X158.574 Y-97.216 Z0.261 F762
G1 X158.605 Y-97.221 Z0.260 F762
G1 X158.635 Y-97.211 Z0.259 F762
G1 X158.656 Y-97.188 Z0.258 F762
G1 X158.662 Y-97.157 Z0.257 F762
G1 X158.654 Y-97.127 Z0.256 F762
G1 X158.631 Y-97.105 Z0.255 F762
G1 X158.601 Y-97.097 Z0.254 F762
G1 X158.571 Y-97.104 Z0.253 F762
G1 X158.547 Y-97.125 Z0.251 F762
G1 X158.538 Y-97.155 Z0.250 F762
G1 X158.544 Y-97.186 Z0.249 F762
G1 X158.564 Y-97.210 Z0.248 F762
G1 X158.593 Y-97.221 Z0.247 F762
G1 X158.624 Y-97.217 Z0.246 F762
G1 X158.649 Y-97.198 Z0.245 F762
G1 X158.662 Y-97.169 Z0.244 F762
G1 X158.659 Y-97.138 Z0.243 F762
G1 X158.641 Y-97.112 Z0.241 F762
G1 X158.613 Y-97.098 Z0.240 F762
G1 X158.582 Y-97.099 Z0.239 F762
G1 X158.555 Y-97.116 Z0.238 F762
G1 X158.540 Y-97.143 Z0.237 F762
G1 X158.539 Y-97.174 Z0.236 F762
G1 X158.554 Y-97.202 Z0.235 F762
G1 X158.581 Y-97.219 Z0.234 F762
G1 X158.612 Y-97.220 Z0.233 F762
G1 X158.640 Y-97.207 Z0.232 F762
G1 X158.659 Y-97.181 Z0.230 F762
G1 X158.662 Y-97.150 Z0.229 F762
G1 X158.650 Y-97.121 Z0.228 F762
G1 X158.625 Y-97.102 Z0.227 F762
G1 X158.594 Y-97.097 Z0.226 F762
G1 X158.564 Y-97.108 Z0.225 F762
G1 X158.544 Y-97.132 Z0.224 F762
G1 X158.538 Y-97.162 Z0.223 F762
G1 X158.547 Y-97.192 Z0.222 F762
G1 X158.570 Y-97.214 Z0.220 F762
G1 X158.600 Y-97.222 Z0.219 F762
G1 X158.630 Y-97.214 Z0.218 F762
G1 X158.653 Y-97.192 Z0.217 F762
G1 X158.662 Y-97.162 Z0.216 F762
G1 X158.656 Y-97.131 Z0.215 F762
G1 X158.636 Y-97.108 Z0.214 F762
G1 X158.606 Y-97.097 Z0.213 F762
G1 X158.575 Y-97.102 Z0.212 F762
G1 X158.550 Y-97.121 Z0.210 F762
G1 X158.538 Y-97.150 Z0.209 F762
G1 X158.542 Y-97.181 Z0.208 F762
G1 X158.560 Y-97.207 Z0.207 F762
G1 X158.588 Y-97.221 Z0.206 F762
G1 X158.619 Y-97.219 Z0.205 F762
G1 X158.646 Y-97.202 Z0.204 F762
G1 X158.661 Y-97.174 Z0.203 F762
G1 X158.660 Y-97.143 Z0.202 F762
G1 X158.645 Y-97.116 Z0.201 F762
G1 X158.618 Y-97.099 Z0.199 F762
G1 X158.587 Y-97.098 Z0.198 F762
G1 X158.559 Y-97.112 Z0.197 F762
G1 X158.541 Y-97.138 Z0.196 F762
G1 X158.538 Y-97.169 Z0.195 F762
G1 X158.551 Y-97.198 Z0.194 F762
G1 X158.576 Y-97.217 Z0.193 F762
G1 X158.607 Y-97.221 Z0.192 F762
G1 X158.637 Y-97.210 Z0.191 F762
G1 X158.657 Y-97.186 Z0.189 F762
G1 X158.662 Y-97.155 Z0.188 F762
G1 X158.652 Y-97.125 Z0.187 F762
G1 X158.629 Y-97.104 Z0.186 F762
G1 X158.599 Y-97.097 Z0.185 F762
G1 X158.569 Y-97.105 Z0.184 F762
G1 X158.546 Y-97.127 Z0.183 F762
G1 X158.538 Y-97.157 Z0.182 F762
G1 X158.544 Y-97.188 Z0.181 F762
G1 X158.565 Y-97.211 Z0.179 F762
G1 X158.595 Y-97.222 Z0.178 F762
G1 X158.626 Y-97.216 Z0.177 F762
G1 X158.650 Y-97.196 Z0.176 F762
G1 X158.662 Y-97.167 Z0.175 F762
G1 X158.658 Y-97.136 Z0.174 F762
G1 X158.640 Y-97.111 Z0.173 F762
G1 X158.611 Y-97.098 Z0.172 F762
G1 X158.580 Y-97.100 Z0.171 F762
G1 X158.554 Y-97.117 Z0.170 F762
G1 X158.539 Y-97.145 Z0.168 F762
G1 X158.540 Y-97.177 Z0.167 F762
G1 X158.556 Y-97.204 Z0.166 F762
G1 X158.583 Y-97.219 Z0.165 F762
G1 X158.614 Y-97.220 Z0.164 F762
G1 X158.642 Y-97.205 Z0.163 F762
G1 X158.659 Y-97.179 Z0.162 F762
G1 X158.661 Y-97.148 Z0.161 F762
G1 X158.648 Y-97.119 Z0.160 F762
G1 X158.623 Y-97.101 Z0.158 F762
G1 X158.592 Y-97.097 Z0.157 F762
G1 X158.563 Y-97.109 Z0.156 F762
G1 X158.543 Y-97.134 Z0.155 F762
G1 X158.538 Y-97.164 Z0.154 F762
G1 X158.548 Y-97.194 Z0.153 F762
G1 X158.572 Y-97.215 Z0.152 F762
G1 X158.602 Y-97.222 Z0.151 F762
G1 X158.632 Y-97.213 Z0.150 F762
G1 X158.654 Y-97.190 Z0.148 F762
G1 X158.663 Y-97.160 Z0.147 F762
G1 X158.655 Y-97.130 Z0.146 F762
G1 X158.634 Y-97.107 Z0.145 F762
G1 X158.604 Y-97.097 Z0.144 F762
G1 X158.573 Y-97.103 Z0.143 F762
G1 X158.549 Y-97.123 Z0.142 F762
G1 X158.538 Y-97.152 Z0.141 F762
G1 X158.542 Y-97.183 Z0.140 F762
G1 X158.561 Y-97.208 Z0.139 F762
G1 X158.590 Y-97.221 Z0.137 F762
G1 X158.621 Y-97.218 Z0.136 F762
G1 X158.647 Y-97.200 Z0.135 F762
G1 X158.661 Y-97.172 Z0.134 F762
G1 X158.660 Y-97.141 Z0.133 F762
G1 X158.643 Y-97.114 Z0.132 F762
G1 X158.616 Y-97.099 Z0.131 F762
G1 X158.585 Y-97.099 Z0.130 F762
G1 X158.557 Y-97.114 Z0.129 F762
G1 X158.540 Y-97.140 Z0.127 F762
G1 X158.539 Y-97.172 Z0.126 F762
G1 X158.552 Y-97.200 Z0.125 F762
G1 X158.578 Y-97.218 Z0.124 F762
G1 X158.609 Y-97.221 Z0.123 F762
G1 X158.638 Y-97.209 Z0.122 F762
G1 X158.657 Y-97.184 Z0.121 F762
G1 X158.662 Y-97.153 Z0.120 F762
G1 X158.651 Y-97.123 Z0.119 F762
G1 X158.627 Y-97.103 Z0.117 F762
G1 X158.597 Y-97.097 Z0.116 F762
G1 X158.567 Y-97.106 Z0.115 F762
G1 X158.545 Y-97.129 Z0.114 F762
G1 X158.538 Y-97.159 Z0.113 F762
G1 X158.545 Y-97.190 Z0.112 F762
G1 X158.567 Y-97.212 Z0.111 F762
G1 X158.597 Y-97.222 Z0.110 F762
G1 X158.628 Y-97.215 Z0.109 F762
G1 X158.652 Y-97.195 Z0.108 F762
G1 X158.662 Y-97.165 Z0.106 F762
G1 X158.657 Y-97.134 Z0.105 F762
G1 X158.638 Y-97.109 Z0.104 F762
G1 X158.609 Y-97.097 Z0.103 F762
G1 X158.578 Y-97.101 Z0.102 F762
G1 X158.552 Y-97.119 Z0.101 F762
G1 X158.539 Y-97.147 Z0.100 F762
G1 X158.541 Y-97.179 Z0.099 F762
G1 X158.557 Y-97.205 Z0.098 F762
G1 X158.585 Y-97.220 Z0.096 F762
G1 X158.616 Y-97.220 Z0.095 F762
G1 X158.644 Y-97.204 Z0.094 F762
G1 X158.660 Y-97.177 Z0.093 F762
G1 X158.661 Y-97.146 Z0.092 F762
G1 X158.647 Y-97.118 Z0.091 F762
G1 X158.621 Y-97.100 Z0.090 F762
G1 X158.590 Y-97.098 Z0.089 F762
G1 X158.561 Y-97.110 Z0.088 F762
G1 X158.542 Y-97.136 Z0.086 F762
G1 X158.538 Y-97.167 Z0.085 F762
G1 X158.549 Y-97.196 Z0.084 F762
G1 X158.574 Y-97.216 Z0.083 F762
G1 X158.604 Y-97.222 Z0.082 F762
G1 X158.634 Y-97.212 Z0.081 F762
G1 X158.655 Y-97.188 Z0.080 F762
G1 X158.662 Y-97.158 Z0.079 F762
G1 X158.654 Y-97.128 Z0.078 F762
G1 X158.632 Y-97.105 Z0.077 F762
G1 X158.602 Y-97.097 Z0.075 F762
G1 X158.571 Y-97.104 Z0.074 F762
G1 X158.548 Y-97.125 Z0.073 F762
G1 X158.538 Y-97.154 Z0.072 F762
G1 X158.543 Y-97.185 Z0.071 F762
G1 X158.563 Y-97.210 Z0.070 F762
G1 X158.592 Y-97.221 Z0.069 F762
G1 X158.623 Y-97.217 Z0.068 F762
G1 X158.648 Y-97.199 Z0.067 F762
G1 X158.662 Y-97.170 Z0.065 F762
G1 X158.659 Y-97.139 Z0.064 F762
G1 X158.642 Y-97.113 Z0.063 F762
G1 X158.614 Y-97.098 Z0.062 F762
G1 X158.583 Y-97.099 Z0.061 F762
G1 X158.556 Y-97.115 Z0.060 F762
G1 X158.540 Y-97.142 Z0.059 F762
G1 X158.539 Y-97.174 Z0.058 F762
G1 X158.554 Y-97.201 Z0.057 F762
G1 X158.580 Y-97.218 Z0.055 F762
G1 X158.611 Y-97.221 Z0.054 F762
G1 X158.640 Y-97.207 Z0.053 F762
G1 X158.658 Y-97.182 Z0.052 F762
G1 X158.662 Y-97.151 Z0.051 F762
G1 X158.650 Y-97.122 Z0.050 F762
G1 X158.626 Y-97.102 Z0.049 F762
G1 X158.595 Y-97.097 Z0.048 F762
G1 X158.565 Y-97.107 Z0.047 F762
G1 X158.544 Y-97.131 Z0.046 F762
G1 X158.538 Y-97.162 Z0.044 F762
G1 X158.547 Y-97.192 Z0.043 F762
G1 X158.569 Y-97.213 Z0.042 F762
G1 X158.599 Y-97.222 Z0.041 F762
G1 X158.630 Y-97.214 Z0.040 F762
G1 X158.653 Y-97.193 Z0.039 F762
G1 X158.662 Y-97.163 Z0.038 F762
G1 X158.656 Y-97.132 Z0.037 F762
G1 X158.636 Y-97.108 Z0.036 F762
G1 X158.607 Y-97.097 Z0.034 F762
G1 X158.576 Y-97.102 Z0.033 F762
G1 X158.551 Y-97.121 Z0.032 F762
G1 X158.538 Y-97.149 Z0.031 F762
G1 X158.541 Y-97.181 Z0.030 F762
G1 X158.559 Y-97.206 Z0.029 F762
G1 X158.587 Y-97.220 Z0.028 F762
G1 X158.618 Y-97.219 Z0.027 F762
G1 X158.645 Y-97.202 Z0.026 F762
G1 X158.660 Y-97.175 Z0.024 F762
G1 X158.661 Y-97.144 Z0.023 F762
G1 X158.645 Y-97.116 Z0.022 F762
G1 X158.619 Y-97.100 Z0.021 F762
G1 X158.587 Y-97.098 Z0.020 F762
G1 X158.559 Y-97.112 Z0.019 F762
G1 X158.541 Y-97.138 Z0.018 F762
G1 X158.538 Y-97.169 Z0.017 F762
G1 X158.551 Y-97.198 Z0.016 F762
G1 X158.575 Y-97.217 Z0.015 F762
G1 X158.606 Y-97.221 Z0.013 F762
G1 X158.636 Y-97.210 Z0.012 F762
G1 X158.656 Y-97.187 Z0.011 F762
G1 X158.662 Y-97.156 Z0.010 F762
G1 X158.653 Y-97.126 Z0.009 F762
G1 X158.630 Y-97.104 Z0.008 F762
G1 X158.600 Y-97.097 Z0.007 F762
G1 X158.569 Y-97.105 Z0.006 F762
G1 X158.547 Y-97.127 Z0.005 F762
G1 X158.538 Y-97.157 Z0.003 F762
G1 X158.544 Y-97.187 Z0.002 F762
G1 X158.565 Y-97.211 Z0.001 F762
G1 X158.594 Y-97.221 Z0.000 F762
G1 X158.625 Y-97.216 Z-0.001 F762
G1 X158.650 Y-97.197 Z-0.002 F762
G1 X158.662 Y-97.168 Z-0.003 F762
G1 X158.658 Y-97.137 Z-0.004 F762
G1 X158.640 Y-97.111 Z-0.005 F762
G1 X158.612 Y-97.098 Z-0.007 F762
G1 X158.581 Y-97.100 Z-0.008 F762
G1 X158.554 Y-97.117 Z-0.009 F762
G1 X158.539 Y-97.144 Z-0.010 F762
G1 X158.540 Y-97.176 Z-0.011 F762
G1 X158.555 Y-97.203 Z-0.012 F762
G1 X158.582 Y-97.219 Z-0.013 F762
G1 X158.614 Y-97.220 Z-0.014 F762
G1 X158.642 Y-97.206 Z-0.015 F762
G1 X158.659 Y-97.180 Z-0.016 F762
G1 X158.662 Y-97.149 Z-0.018 F762
G1 X158.649 Y-97.120 Z-0.019 F762
G1 X158.624 Y-97.101 Z-0.020 F762
G1 X158.592 Y-97.097 Z-0.021 F762
G1 X158.563 Y-97.109 Z-0.022 F762
G1 X158.543 Y-97.133 Z-0.023 F762
G1 X158.538 Y-97.164 Z-0.024 F762
G1 X158.548 Y-97.193 Z-0.025 F762
G1 X158.571 Y-97.215 Z-0.026 F762
G1 X158.601 Y-97.222 Z-0.028 F762
G1 X158.632 Y-97.213 Z-0.029 F762
G1 X158.654 Y-97.191 Z-0.030 F762
G1 X158.662 Y-97.161 Z-0.031 F762
G1 X158.655 Y-97.130 Z-0.032 F762
G1 X158.634 Y-97.107 Z-0.033 F762
G1 X158.605 Y-97.097 Z-0.034 F762
G1 X158.574 Y-97.102 Z-0.035 F762
G1 X158.550 Y-97.122 Z-0.036 F762
G1 X158.538 Y-97.151 Z-0.038 F762
G1 X158.542 Y-97.183 Z-0.039 F762
G1 X158.561 Y-97.208 Z-0.040 F762
G1 X158.589 Y-97.221 Z-0.041 F762
G1 X158.621 Y-97.218 Z-0.042 F762
G1 X158.647 Y-97.201 Z-0.043 F762
G1 X158.661 Y-97.173 Z-0.044 F762
G1 X158.660 Y-97.142 Z-0.045 F762
G1 X158.644 Y-97.115 Z-0.046 F762
G1 X158.617 Y-97.099 Z-0.047 F762
G1 X158.585 Y-97.098 Z-0.049 F762
G1 X158.558 Y-97.113 Z-0.050 F762
G1 X158.541 Y-97.140 Z-0.051 F762
G1 X158.539 Y-97.171 Z-0.052 F762
G1 X158.552 Y-97.199 Z-0.053 F762
G1 X158.577 Y-97.217 Z-0.054 F762
G1 X158.609 Y-97.221 Z-0.055 F762
G1 X158.638 Y-97.209 Z-0.056 F762
G1 X158.657 Y-97.185 Z-0.057 F762
G1 X158.662 Y-97.154 Z-0.059 F762
G1 X158.652 Y-97.124 Z-0.060 F762
G1 X158.628 Y-97.103 Z-0.061 F762
G1 X158.598 Y-97.097 Z-0.062 F762
G1 X158.567 Y-97.106 Z-0.063 F762
G1 X158.546 Y-97.128 Z-0.064 F762
G1 X158.538 Y-97.159 Z-0.065 F762
G1 X158.545 Y-97.189 Z-0.066 F762
G1 X158.567 Y-97.212 Z-0.067 F762
G1 X158.596 Y-97.222 Z-0.069 F762
G1 X158.627 Y-97.216 Z-0.070 F762
G1 X158.651 Y-97.195 Z-0.071 F762
G1 X158.662 Y-97.166 Z-0.072 F762
G1 X158.658 Y-97.135 Z-0.073 F762
G1 X158.638 Y-97.110 Z-0.074 F762
G1 X158.610 Y-97.097 Z-0.075 F762
G1 X158.578 Y-97.101 Z-0.076 F762
G1 X158.553 Y-97.118 Z-0.077 F762
G1 X158.539 Y-97.146 Z-0.078 F762
G1 X158.540 Y-97.178 Z-0.080 F762
G1 X158.557 Y-97.204 Z-0.081 F762
G1 X158.584 Y-97.220 Z-0.082 F762
G1 X158.616 Y-97.220 Z-0.083 F762
G1 X158.643 Y-97.204 Z-0.084 F762
G1 X158.660 Y-97.178 Z-0.085 F762
G1 X158.661 Y-97.147 Z-0.086 F762
G1 X158.647 Y-97.118 Z-0.087 F762
G1 X158.622 Y-97.101 Z-0.088 F762
G1 X158.590 Y-97.097 Z-0.090 F762
G1 X158.562 Y-97.110 Z-0.091 F762
G1 X158.542 Y-97.135 Z-0.092 F762
G1 X158.538 Y-97.166 Z-0.093 F762
G1 X158.549 Y-97.195 Z-0.094 F762
G1 X158.573 Y-97.215 Z-0.095 F762
G1 X158.604 Y-97.222 Z-0.096 F762
G1 X158.633 Y-97.212 Z-0.097 F762
G1 X158.655 Y-97.189 Z-0.098 F762
G1 X158.663 Y-97.159 Z-0.100 F762
G1 X158.654 Y-97.128 Z-0.101 F762
G1 X158.633 Y-97.106 Z-0.102 F762
G1 X158.603 Y-97.097 Z-0.103 F762
G1 X158.572 Y-97.103 Z-0.104 F762
G1 X158.548 Y-97.124 Z-0.105 F762
G1 X158.538 Y-97.154 Z-0.106 F762
G1 X158.543 Y-97.185 Z-0.107 F762
G1 X158.562 Y-97.209 Z-0.108 F762
G1 X158.591 Y-97.221 Z-0.109 F762
G1 X158.623 Y-97.218 Z-0.111 F762
G1 X158.648 Y-97.199 Z-0.112 F762
G1 X158.661 Y-97.171 Z-0.113 F762
G1 X158.659 Y-97.140 Z-0.114 F762
G1 X158.642 Y-97.113 Z-0.115 F762
G1 X158.615 Y-97.098 Z-0.116 F762
G1 X158.583 Y-97.099 Z-0.117 F762
G1 X158.556 Y-97.115 Z-0.118 F762
G1 X158.540 Y-97.142 Z-0.119 F762
G1 X158.539 Y-97.173 Z-0.121 F762
G1 X158.553 Y-97.201 Z-0.122 F762
G1 X158.579 Y-97.218 Z-0.123 F762
G1 X158.611 Y-97.221 Z-0.124 F762
G1 X158.639 Y-97.208 Z-0.125 F762
G1 X158.658 Y-97.183 Z-0.126 F762
G1 X158.662 Y-97.152 Z-0.127 F762
G1 X158.650 Y-97.122 Z-0.128 F762
G1 X158.626 Y-97.102 Z-0.129 F762
G1 X158.595 Y-97.097 Z-0.131 F762
G1 X158.566 Y-97.107 Z-0.132 F762
G1 X158.545 Y-97.130 Z-0.133 F762
G1 X158.538 Y-97.161 Z-0.134 F762
G1 X158.546 Y-97.191 Z-0.135 F762
G1 X158.568 Y-97.213 Z-0.136 F762
G1 X158.599 Y-97.222 Z-0.137 F762
G1 X158.629 Y-97.215 Z-0.138 F762
G1 X158.652 Y-97.193 Z-0.139 F762
G1 X158.662 Y-97.164 Z-0.140 F762
G1 X158.657 Y-97.133 Z-0.142 F762
G1 X158.637 Y-97.109 Z-0.143 F762
G1 X158.608 Y-97.097 Z-0.144 F762
G1 X158.577 Y-97.101 Z-0.145 F762
G1 X158.551 Y-97.120 Z-0.146 F762
G1 X158.538 Y-97.149 Z-0.147 F762
G1 X158.541 Y-97.180 Z-0.148 F762
G1 X158.558 Y-97.206 Z-0.149 F762
G1 X158.586 Y-97.220 Z-0.150 F762
G1 X158.618 Y-97.219 Z-0.152 F762
G1 X158.645 Y-97.203 Z-0.153 F762
G1 X158.660 Y-97.176 Z-0.154 F762
G1 X158.661 Y-97.144 Z-0.155 F762
G1 X158.646 Y-97.117 Z-0.156 F762
G1 X158.620 Y-97.100 Z-0.157 F762
G1 X158.588 Y-97.098 Z-0.158 F762
G1 X158.560 Y-97.111 Z-0.159 F762
G1 X158.542 Y-97.137 Z-0.160 F762
G1 X158.538 Y-97.168 Z-0.162 F762
G1 X158.550 Y-97.197 Z-0.163 F762
G1 X158.575 Y-97.216 Z-0.164 F762
G1 X158.606 Y-97.221 Z-0.165 F762
G1 X158.635 Y-97.211 Z-0.166 F762
G1 X158.656 Y-97.187 Z-0.167 F762
G1 X158.662 Y-97.157 Z-0.168 F762
G1 X158.653 Y-97.127 Z-0.169 F762
G1 X158.631 Y-97.105 Z-0.170 F762
G1 X158.600 Y-97.097 Z-0.171 F762
G1 X158.570 Y-97.104 Z-0.173 F762
G1 X158.547 Y-97.126 Z-0.174 F762
G1 X158.538 Y-97.156 Z-0.175 F762
G1 X158.544 Y-97.186 Z-0.176 F762
G1 X158.564 Y-97.210 Z-0.177 F762
G1 X158.593 Y-97.221 Z-0.178 F762
G1 X158.624 Y-97.217 Z-0.179 F762
G1 X158.649 Y-97.198 Z-0.180 F762
G1 X158.662 Y-97.169 Z-0.181 F762
G1 X158.659 Y-97.138 Z-0.183 F762
G1 X158.641 Y-97.112 Z-0.184 F762
G1 X158.613 Y-97.098 Z-0.185 F762
G1 X158.581 Y-97.100 Z-0.186 F762
G1 X158.555 Y-97.116 Z-0.187 F762
G1 X158.539 Y-97.144 Z-0.188 F762
G1 X158.540 Y-97.175 Z-0.189 F762
G1 X158.555 Y-97.202 Z-0.190 F762
G1 X158.581 Y-97.219 Z-0.191 F762
G1 X158.613 Y-97.220 Z-0.193 F762
G1 X158.641 Y-97.206 Z-0.194 F762
G1 X158.659 Y-97.181 Z-0.195 F762
G1 X158.662 Y-97.149 Z-0.196 F762
G1 X158.649 Y-97.121 Z-0.197 F762
G1 X158.624 Y-97.102 Z-0.198 F762
G1 X158.593 Y-97.097 Z-0.199 F762
G1 X158.564 Y-97.108 Z-0.200 F762
G1 X158.544 Y-97.132 Z-0.201 F762
G1 X158.538 Y-97.163 Z-0.202 F762
G1 X158.547 Y-97.193 Z-0.204 F762
G1 X158.570 Y-97.214 Z-0.205 F762
G1 X158.601 Y-97.222 Z-0.206 F762
G1 X158.631 Y-97.214 Z-0.207 F762
G1 X158.653 Y-97.192 Z-0.208 F762
G1 X158.662 Y-97.162 Z-0.209 F762
G1 X158.656 Y-97.131 Z-0.210 F762
G1 X158.635 Y-97.107 Z-0.211 F762
G1 X158.605 Y-97.097 Z-0.212 F762
G1 X158.575 Y-97.102 Z-0.214 F762
G1 X158.550 Y-97.122 Z-0.215 F762
G1 X158.538 Y-97.151 Z-0.216 F762
G1 X158.542 Y-97.182 Z-0.217 F762
G1 X158.560 Y-97.207 Z-0.218 F762
G1 X158.588 Y-97.221 Z-0.219 F762
G1 X158.620 Y-97.218 Z-0.220 F762
G1 X158.646 Y-97.201 Z-0.221 F762
G1 X158.661 Y-97.174 Z-0.222 F762
G1 X158.660 Y-97.142 Z-0.224 F762
G1 X158.644 Y-97.115 Z-0.225 F762
G1 X158.617 Y-97.099 Z-0.226 F762
G1 X158.586 Y-97.098 Z-0.227 F762
G1 X158.558 Y-97.113 Z-0.228 F762
G1 X158.541 Y-97.139 Z-0.229 F762
G1 X158.538 Y-97.170 Z-0.230 F762
G1 X158.551 Y-97.199 Z-0.231 F762
G1 X158.577 Y-97.217 Z-0.232 F762
G1 X158.608 Y-97.221 Z-0.233 F762
G1 X158.637 Y-97.210 Z-0.235 F762
G1 X158.657 Y-97.185 Z-0.236 F762
G1 X158.662 Y-97.154 Z-0.237 F762
G1 X158.652 Y-97.125 Z-0.238 F762
G1 X158.629 Y-97.104 Z-0.239 F762
G1 X158.598 Y-97.097 Z-0.240 F762
G1 X158.568 Y-97.105 Z-0.241 F762
G1 X158.546 Y-97.128 Z-0.242 F762
G1 X158.538 Y-97.158 Z-0.243 F762
G1 X158.545 Y-97.188 Z-0.245 F762
G1 X158.566 Y-97.212 Z-0.246 F762
G1 X158.596 Y-97.222 Z-0.247 F762
G1 X158.626 Y-97.216 Z-0.248 F762
G1 X158.651 Y-97.196 Z-0.249 F762
G1 X158.662 Y-97.167 Z-0.250 F762
G1 X158.658 Y-97.136 Z-0.251 F762
G1 X158.639 Y-97.110 Z-0.252 F762
G1 X158.610 Y-97.098 Z-0.253 F762
G1 X158.579 Y-97.100 Z-0.255 F762
G1 X158.553 Y-97.118 Z-0.256 F762
G1 X158.539 Y-97.146 Z-0.257 F762
G1 X158.540 Y-97.177 Z-0.258 F762
G1 X158.556 Y-97.204 Z-0.259 F762
G1 X158.584 Y-97.220 Z-0.260 F762
G1 X158.615 Y-97.220 Z-0.261 F762
G1 X158.643 Y-97.205 Z-0.262 F762
G1 X158.659 Y-97.179 Z-0.263 F762
G1 X158.661 Y-97.147 Z-0.264 F762
G1 X158.648 Y-97.119 Z-0.266 F762
G1 X158.622 Y-97.101 Z-0.267 F762
G1 X158.591 Y-97.097 Z-0.268 F762
G1 X158.562 Y-97.109 Z-0.269 F762
G1 X158.543 Y-97.134 Z-0.270 F762
G1 X158.538 Y-97.165 Z-0.271 F762
G1 X158.548 Y-97.195 Z-0.272 F762
G1 X158.572 Y-97.215 Z-0.273 F762
G1 X158.603 Y-97.222 Z-0.274 F762
G1 X158.633 Y-97.212 Z-0.276 F762
G1 X158.655 Y-97.190 Z-0.277 F762
G1 X158.663 Y-97.159 Z-0.278 F762
G1 X158.655 Y-97.129 Z-0.279 F762
G1 X158.633 Y-97.106 Z-0.280 F762
G1 X158.603 Y-97.097 Z-0.281 F762
G1 X158.573 Y-97.103 Z-0.282 F762
G1 X158.549 Y-97.123 Z-0.283 F762
G1 X158.538 Y-97.153 Z-0.284 F762
G1 X158.543 Y-97.184 Z-0.286 F762
G1 X158.562 Y-97.209 Z-0.287 F762
G1 X158.591 Y-97.221 Z-0.288 F762
G1 X158.622 Y-97.218 Z-0.289 F762
G1 X158.648 Y-97.200 Z-0.290 F762
G1 X158.661 Y-97.172 Z-0.291 F762
G1 X158.660 Y-97.140 Z-0.292 F762
G1 X158.643 Y-97.114 Z-0.293 F762
G1 X158.615 Y-97.099 Z-0.294 F762
G1 X158.584 Y-97.099 Z-0.295 F762
G1 X158.557 Y-97.114 Z-0.297 F762
G1 X158.540 Y-97.141 Z-0.298 F762
G1 X158.539 Y-97.172 Z-0.299 F762
G1 X158.553 Y-97.200 Z-0.300 F762
G1 X158.579 Y-97.218 Z-0.301 F762
G1 X158.610 Y-97.221 Z-0.302 F762
G1 X158.639 Y-97.208 Z-0.303 F762
G1 X158.658 Y-97.183 Z-0.304 F762
G1 X158.662 Y-97.152 Z-0.305 F762
G1 X158.651 Y-97.123 Z-0.307 F762
G1 X158.627 Y-97.103 Z-0.308 F762
G1 X158.596 Y-97.097 Z-0.309 F762
G1 X158.566 Y-97.107 Z-0.310 F762
G1 X158.545 Y-97.130 Z-0.311 F762
G1 X158.538 Y-97.160 Z-0.312 F762
G1 X158.546 Y-97.190 Z-0.313 F762
G1 X158.568 Y-97.213 Z-0.314 F762
G1 X158.598 Y-97.222 Z-0.315 F762
G1 X158.628 Y-97.215 Z-0.317 F762
G1 X158.652 Y-97.194 Z-0.318 F762
G1 X158.662 Y-97.165 Z-0.319 F762
G1 X158.657 Y-97.134 Z-0.320 F762
G1 X158.637 Y-97.109 Z-0.321 F762
G1 X158.608 Y-97.097 Z-0.322 F762
G1 X158.577 Y-97.101 Z-0.323 F762
G1 X158.552 Y-97.119 Z-0.324 F762
G1 X158.539 Y-97.148 Z-0.325 F762
G1 X158.541 Y-97.179 Z-0.326 F762
G1 X158.558 Y-97.205 Z-0.328 F762
G1 X158.586 Y-97.220 Z-0.329 F762
G1 X158.617 Y-97.219 Z-0.330 F762
G1 X158.644 Y-97.204 Z-0.331 F762
G1 X158.660 Y-97.177 Z-0.332 F762
G1 X158.661 Y-97.145 Z-0.333 F762
G1 X158.646 Y-97.117 Z-0.334 F762
G1 X158.620 Y-97.100 Z-0.335 F762
G1 X158.589 Y-97.098 Z-0.336 F762
G1 X158.560 Y-97.111 Z-0.338 F762
G1 X158.542 Y-97.136 Z-0.339 F762
G1 X158.538 Y-97.167 Z-0.340 F762
G1 X158.550 Y-97.196 Z-0.341 F762
G1 X158.574 Y-97.216 Z-0.342 F762
G1 X158.605 Y-97.222 Z-0.343 F762
G1 X158.635 Y-97.211 Z-0.344 F762
G1 X158.656 Y-97.188 Z-0.345 F762
G1 X158.662 Y-97.157 Z-0.346 F762
G1 X158.654 Y-97.127 Z-0.348 F762
G1 X158.631 Y-97.105 Z-0.349 F762
G1 X158.601 Y-97.097 Z-0.350 F762
G1 X158.571 Y-97.104 Z-0.351 F762
G1 X158.548 Y-97.125 Z-0.352 F762
G1 X158.538 Y-97.155 Z-0.353 F762
G1 X158.543 Y-97.186 Z-0.354 F762
G1 X158.563 Y-97.210 Z-0.355 F762
G1 X158.593 Y-97.221 Z-0.356 F762
G1 X158.624 Y-97.217 Z-0.357 F762
G1 X158.649 Y-97.198 Z-0.359 F762
G1 X158.662 Y-97.170 Z-0.360 F762
G1 X158.659 Y-97.138 Z-0.361 F762
G1 X158.641 Y-97.112 Z-0.362 F762
G1 X158.613 Y-97.098 Z-0.363 F762
G1 X158.582 Y-97.099 Z-0.364 F762
G1 X158.555 Y-97.116 Z-0.365 F762
G1 X158.540 Y-97.143 Z-0.366 F762
G1 X158.539 Y-97.174 Z-0.367 F762
G1 X158.554 Y-97.202 Z-0.369 F762
G1 X158.581 Y-97.219 Z-0.370 F762
G1 X158.612 Y-97.221 Z-0.371 F762
G1 X158.640 Y-97.207 Z-0.372 F762
G1 X158.658 Y-97.181 Z-0.373 F762
G1 X158.662 Y-97.150 Z-0.374 F762
G1 X158.650 Y-97.121 Z-0.375 F762
G1 X158.625 Y-97.102 Z-0.376 F762
G1 X158.594 Y-97.097 Z-0.377 F762
G1 X158.565 Y-97.108 Z-0.379 F762
G1 X158.544 Y-97.131 Z-0.380 F762
G1 X158.538 Y-97.162 Z-0.381 F762
G1 X158.547 Y-97.192 Z-0.382 F762
G1 X158.570 Y-97.214 Z-0.383 F762
G1 X158.600 Y-97.222 Z-0.384 F762
G1 X158.630 Y-97.214 Z-0.385 F762
G1 X158.653 Y-97.192 Z-0.386 F762
G1 X158.662 Y-97.162 Z-0.387 F762
G1 X158.656 Y-97.132 Z-0.388 F762
G1 X158.636 Y-97.108 Z-0.390 F762
G1 X158.606 Y-97.097 Z-0.391 F762
G1 X158.575 Y-97.102 Z-0.392 F762
G1 X158.550 Y-97.121 Z-0.393 F762
G1 X158.538 Y-97.150 Z-0.394 F762
G1 X158.541 Y-97.181 Z-0.395 F762
G1 X158.559 Y-97.207 Z-0.396 F762
G1 X158.588 Y-97.220 Z-0.397 F762
G1 X158.619 Y-97.219 Z-0.398 F762
G1 X158.646 Y-97.202 Z-0.400 F762
G1 X158.661 Y-97.174 Z-0.401 F762
G1 X158.660 Y-97.143 Z-0.402 F762
G1 X158.645 Y-97.116 Z-0.403 F762
G1 X158.618 Y-97.099 Z-0.404 F762
G1 X158.587 Y-97.098 Z-0.405 F762
G1 X158.559 Y-97.112 Z-0.406 F762
G1 X158.541 Y-97.138 Z-0.407 F762
G1 X158.538 Y-97.169 Z-0.408 F762
G1 X158.551 Y-97.198 Z-0.410 F762
G1 X158.576 Y-97.217 Z-0.411 F762
G1 X158.607 Y-97.221 Z-0.412 F762
G1 X158.636 Y-97.210 Z-0.413 F762
G1 X158.656 Y-97.186 Z-0.414 F762
G1 X158.662 Y-97.155 Z-0.415 F762
G1 X158.653 Y-97.125 Z-0.416 F762
G1 X158.630 Y-97.104 Z-0.417 F762
G1 X158.599 Y-97.097 Z-0.418 F762
G1 X158.569 Y-97.105 Z-0.419 F762
G1 X158.546 Y-97.127 Z-0.421 F762
G1 X158.538 Y-97.157 Z-0.422 F762
G1 X158.544 Y-97.188 Z-0.423 F762
G1 X158.565 Y-97.211 Z-0.424 F762
G1 X158.595 Y-97.221 Z-0.425 F762
G1 X158.626 Y-97.216 Z-0.426 F762
G1 X158.650 Y-97.196 Z-0.427 F762
G1 X158.662 Y-97.167 Z-0.428 F762
G1 X158.658 Y-97.136 Z-0.429 F762
G1 X158.640 Y-97.111 Z-0.431 F762
G1 X158.611 Y-97.098 Z-0.432 F762
G1 X158.580 Y-97.100 Z-0.433 F762
G1 X158.554 Y-97.117 Z-0.434 F762
G1 X158.539 Y-97.145 Z-0.435 F762
G1 X158.540 Y-97.176 Z-0.436 F762
G1 X158.556 Y-97.203 Z-0.437 F762
G1 X158.583 Y-97.219 Z-0.438 F762
G1 X158.614 Y-97.220 Z-0.439 F762
G1 X158.642 Y-97.206 Z-0.441 F762
G1 X158.659 Y-97.179 Z-0.442 F762
G1 X158.662 Y-97.148 Z-0.443 F762
G1 X158.648 Y-97.120 Z-0.444 F762
G1 X158.623 Y-97.101 Z-0.445 F762
G1 X158.592 Y-97.097 Z-0.446 F762
G1 X158.563 Y-97.109 Z-0.447 F762
G1 X158.543 Y-97.133 Z-0.448 F762
G1 X158.538 Y-97.164 Z-0.449 F762
G1 X158.548 Y-97.194 Z-0.450 F762
G1 X158.571 Y-97.215 Z-0.452 F762
G1 X158.602 Y-97.222 Z-0.453 F762
G1 X158.632 Y-97.213 Z-0.454 F762
G1 X158.654 Y-97.190 Z-0.455 F762
G1 X158.662 Y-97.160 Z-0.456 F762
G1 X158.655 Y-97.130 Z-0.457 F762
G1 X158.634 Y-97.107 Z-0.458 F762
G1 X158.604 Y-97.097 Z-0.459 F762
G1 X158.573 Y-97.103 Z-0.460 F762
G1 X158.549 Y-97.123 Z-0.462 F762
G1 X158.538 Y-97.152 Z-0.463 F762
G1 X158.542 Y-97.183 Z-0.464 F762
G1 X158.561 Y-97.208 Z-0.465 F762
G1 X158.590 Y-97.221 Z-0.466 F762
G1 X158.621 Y-97.218 Z-0.467 F762
G1 X158.647 Y-97.200 Z-0.468 F762
G1 X158.661 Y-97.172 Z-0.469 F762
G1 X158.660 Y-97.141 Z-0.470 F762
G1 X158.643 Y-97.114 Z-0.472 F762
G1 X158.616 Y-97.099 Z-0.473 F762
G1 X158.585 Y-97.099 Z-0.474 F762
G1 X158.557 Y-97.114 Z-0.475 F762
G1 X158.540 Y-97.140 Z-0.476 F762
G1 X158.539 Y-97.171 Z-0.477 F762
G1 X158.552 Y-97.200 Z-0.478 F762
G1 X158.578 Y-97.218 Z-0.479 F762
G1 X158.609 Y-97.221 Z-0.480 F762
G1 X158.638 Y-97.209 Z-0.481 F762
G1 X158.657 Y-97.184 Z-0.483 F762
G1 X158.662 Y-97.153 Z-0.484 F762
G1 X158.651 Y-97.124 Z-0.485 F762
G1 X158.628 Y-97.103 Z-0.486 F762
G1 X158.597 Y-97.097 Z-0.487 F762
G1 X158.567 Y-97.106 Z-0.488 F762
G1 X158.545 Y-97.129 Z-0.489 F762
G1 X158.538 Y-97.159 Z-0.490 F762
G1 X158.545 Y-97.190 Z-0.491 F762
G1 X158.567 Y-97.212 Z-0.493 F762
G1 X158.597 Y-97.222 Z-0.494 F762
G1 X158.628 Y-97.215 Z-0.495 F762
G1 X158.651 Y-97.195 Z-0.496 F762
G1 X158.662 Y-97.165 Z-0.497 F762
G1 X158.657 Y-97.134 Z-0.498 F762
G1 X158.638 Y-97.110 Z-0.499 F762
G1 X158.609 Y-97.097 Z-0.500 F762
G1 X158.578 Y-97.101 Z-0.501 F762
G1 X158.552 Y-97.119 Z-0.503 F762
G1 X158.539 Y-97.147 Z-0.504 F762
G1 X158.541 Y-97.178 Z-0.505 F762
G1 X158.557 Y-97.205 Z-0.506 F762
G1 X158.585 Y-97.220 Z-0.507 F762
G1 X158.616 Y-97.220 Z-0.508 F762
G1 X158.644 Y-97.204 Z-0.509 F762
G1 X158.660 Y-97.177 Z-0.510 F762
G1 X158.661 Y-97.146 Z-0.511 F762
G1 X158.647 Y-97.118 Z-0.512 F762
G1 X158.621 Y-97.100 Z-0.514 F762
G1 X158.590 Y-97.098 Z-0.515 F762
G1 X158.561 Y-97.110 Z-0.516 F762
G1 X158.542 Y-97.135 Z-0.517 F762
G1 X158.538 Y-97.166 Z-0.518 F762
G1 X158.549 Y-97.196 Z-0.519 F762
G1 X158.573 Y-97.216 Z-0.520 F762
G1 X158.604 Y-97.222 Z-0.521 F762
G1 X158.634 Y-97.212 Z-0.522 F762
G1 X158.655 Y-97.189 Z-0.524 F762
G1 X158.662 Y-97.158 Z-0.525 F762
G1 X158.654 Y-97.128 Z-0.526 F762
G1 X158.632 Y-97.106 Z-0.527 F762
G1 X158.602 Y-97.097 Z-0.528 F762
G1 X158.571 Y-97.104 Z-0.529 F762
G1 X158.548 Y-97.125 Z-0.530 F762
G1 X158.538 Y-97.154 Z-0.531 F762
G1 X158.543 Y-97.185 Z-0.532 F762
G1 X158.563 Y-97.209 Z-0.534 F762
G1 X158.592 Y-97.221 Z-0.535 F762
G1 X158.623 Y-97.217 Z-0.536 F762
G1 X158.648 Y-97.199 Z-0.537 F762
G1 X158.662 Y-97.170 Z-0.538 F762
G1 X158.659 Y-97.139 Z-0.539 F762
G1 X158.642 Y-97.113 Z-0.540 F762
G1 X158.614 Y-97.098 Z-0.541 F762
G1 X158.583 Y-97.099 Z-0.542 F762
G1 X158.556 Y-97.115 Z-0.543 F762
G1 X158.540 Y-97.142 Z-0.545 F762
G1 X158.539 Y-97.174 Z-0.546 F762
G1 X158.554 Y-97.201 Z-0.547 F762
G1 X158.580 Y-97.218 Z-0.548 F762
G1 X158.611 Y-97.221 Z-0.549 F762
G1 X158.640 Y-97.207 Z-0.550 F762
G1 X158.658 Y-97.182 Z-0.551 F762
G1 X158.662 Y-97.151 Z-0.552 F762
G1 X158.650 Y-97.122 Z-0.553 F762
G1 X158.626 Y-97.102 Z-0.555 F762
G1 X158.595 Y-97.097 Z-0.556 F762
G1 X158.565 Y-97.107 Z-0.557 F762
G1 X158.544 Y-97.131 Z-0.558 F762
G1 X158.538 Y-97.161 Z-0.559 F762
G1 X158.546 Y-97.191 Z-0.560 F762
G1 X158.569 Y-97.213 Z-0.561 F762
G1 X158.599 Y-97.222 Z-0.562 F762
G1 X158.630 Y-97.214 Z-0.563 F762
G1 X158.653 Y-97.193 Z-0.565 F762
G1 X158.662 Y-97.163 Z-0.566 F762
G1 X158.656 Y-97.132 Z-0.567 F762
G1 X158.636 Y-97.108 Z-0.568 F762
G1 X158.607 Y-97.097 Z-0.569 F762
G1 X158.576 Y-97.102 Z-0.570 F762
G1 X158.551 Y-97.120 Z-0.571 F762
G1 X158.538 Y-97.149 Z-0.572 F762
G1 X158.541 Y-97.180 Z-0.573 F762
G1 X158.559 Y-97.206 Z-0.574 F762
G1 X158.587 Y-97.220 Z-0.576 F762
G1 X158.618 Y-97.219 Z-0.577 F762
G1 X158.645 Y-97.203 Z-0.578 F762
G1 X158.660 Y-97.175 Z-0.579 F762
G1 X158.661 Y-97.144 Z-0.580 F762
G1 X158.646 Y-97.116 Z-0.581 F762
G1 X158.619 Y-97.100 Z-0.582 F762
G1 X158.588 Y-97.098 Z-0.583 F762
G1 X158.559 Y-97.112 Z-0.584 F762
G1 X158.541 Y-97.137 Z-0.586 F762
G1 X158.538 Y-97.169 Z-0.587 F762
G1 X158.551 Y-97.197 Z-0.588 F762
G1 X158.575 Y-97.217 Z-0.589 F762
G1 X158.606 Y-97.221 Z-0.590 F762
G1 X158.636 Y-97.210 Z-0.591 F762
G1 X158.656 Y-97.187 Z-0.592 F762
G1 X158.662 Y-97.156 Z-0.593 F762
G1 X158.653 Y-97.126 Z-0.594 F762
G1 X158.630 Y-97.104 Z-0.596 F762
G1 X158.600 Y-97.097 Z-0.597 F762
G1 X158.569 Y-97.105 Z-0.598 F762
G1 X158.547 Y-97.126 Z-0.599 F762
G1 X158.538 Y-97.156 Z-0.600 F762
G1 X158.544 Y-97.187 Z-0.601 F762
G1 X158.565 Y-97.211 Z-0.602 F762
G1 X158.594 Y-97.221 Z-0.603 F762
G1 X158.625 Y-97.216 Z-0.604 F762
G1 X158.650 Y-97.197 Z-0.605 F762
G1 X158.662 Y-97.168 Z-0.607 F762
G1 X158.658 Y-97.137 Z-0.608 F762
G1 X158.640 Y-97.111 Z-0.609 F762
G1 X158.612 Y-97.098 Z-0.610 F762
G1 X158.581 Y-97.100 Z-0.611 F762
G1 X158.554 Y-97.117 Z-0.612 F762
G1 X158.539 Y-97.144 Z-0.613 F762
G1 X158.540 Y-97.176 Z-0.614 F762
G1 X158.555 Y-97.203 Z-0.615 F762
G1 X158.582 Y-97.219 Z-0.617 F762
G1 X158.613 Y-97.220 Z-0.618 F762
G1 X158.641 Y-97.206 Z-0.619 F762
G1 X158.659 Y-97.180 Z-0.620 F762
G1 X158.662 Y-97.149 Z-0.621 F762
G1 X158.649 Y-97.120 Z-0.622 F762
G1 X158.624 Y-97.101 Z-0.623 F762
G1 X158.593 Y-97.097 Z-0.624 F762
G1 X158.563 Y-97.109 Z-0.625 F762
G1 X158.543 Y-97.133 Z-0.627 F762
G1 X158.538 Y-97.164 Z-0.628 F762
G1 X158.548 Y-97.193 Z-0.629 F762
G1 X158.571 Y-97.214 Z-0.630 F762
G1 X158.601 Y-97.222 Z-0.631 F762
G1 X158.631 Y-97.213 Z-0.632 F762
G1 X158.654 Y-97.191 Z-0.633 F762
G1 X158.662 Y-97.161 Z-0.634 F762
G1 X158.655 Y-97.130 Z-0.635 F762
G1 X158.635 Y-97.107 Z-0.636 F762
G1 X158.605 Y-97.097 Z-0.638 F762
G1 X158.574 Y-97.102 Z-0.639 F762
G1 X158.550 Y-97.122 Z-0.640 F762
G1 X158.538 Y-97.151 Z-0.641 F762
G1 X158.542 Y-97.182 Z-0.642 F762
G1 X158.561 Y-97.208 Z-0.643 F762
G1 X158.589 Y-97.221 Z-0.644 F762
G1 X158.620 Y-97.218 Z-0.645 F762
G1 X158.646 Y-97.201 Z-0.646 F762
