(back_pockets)
(Machine)
(  vendor: Ooznest)
(  model: Workbee 1000x1500)
(  description: This machine has YXZ axis on the Head)
G21
G90
(When using Fusion 360 for Personal Use, the feedrate of)
(rapid moves is reduced to match the feedrate of cutting)
(moves, which can increase machining time. Unrestricted rapid)
(moves are available with a Fusion 360 Subscription.)

(2D Contour2)
G0 X85.277 Y-38.079 Z15.000
G1 X85.277 Y-38.079 Z15.000 F2540
G1 X85.277 Y-38.079 Z5.000 F2540
G1 X85.277 Y-38.079 Z2.500 F762
G3 X93.223 Y-41.921 Z2.016 I3.973 J-1.921 F762
G3 X85.277 Y-38.079 Z1.532 I-3.973 J1.921 F762
G3 X93.223 Y-41.921 Z1.048 I3.973 J-1.921 F762
G3 X85.277 Y-38.079 Z0.564 I-3.973 J1.921 F762
G3 X93.223 Y-41.921 Z0.080 I3.973 J-1.921 F762
G3 X85.277 Y-38.079 Z-0.404 I-3.973 J1.921 F762
G3 X93.223 Y-41.921 Z-0.889 I3.973 J-1.921 F762
G3 X89.250 Y-35.588 Z-1.200 I-3.973 J1.921 F762
G3 X89.250 Y-44.412 Z-1.200 I0.000 J-4.412 F2540
G3 X89.250 Y-35.588 Z-1.200 I0.000 J4.412 F2540
G3 X89.250 Y-44.413 Z-1.684 I0.000 J-4.412 F762
G3 X89.250 Y-35.587 Z-2.168 I0.000 J4.413 F762
G3 X84.847 Y-39.708 Z-2.400 I0.000 J-4.413 F762
G3 X93.653 Y-40.292 Z-2.400 I4.403 J-0.292 F2540
G3 X84.847 Y-39.708 Z-2.400 I-4.403 J0.292 F2540
G3 X93.653 Y-40.292 Z-2.884 I4.403 J-0.292 F762
G3 X84.847 Y-39.708 Z-3.368 I-4.403 J0.292 F762
G3 X88.667 Y-44.374 Z-3.600 I4.403 J-0.292 F762
G3 X89.833 Y-35.626 Z-3.600 I0.583 J4.374 F2540
G3 X88.667 Y-44.374 Z-3.600 I-0.583 J-4.374 F2540
G3 X89.833 Y-35.626 Z-4.084 I0.583 J4.374 F762
G3 X86.851 Y-43.703 Z-4.500 I-0.583 J-4.374 F762
G3 X91.649 Y-36.297 Z-4.500 I2.399 J3.703 F2540
G3 X86.851 Y-43.703 Z-4.500 I-2.399 J-3.703 F2540
G1 X86.851 Y-43.703 Z5.000 F2540
G1 X37.277 Y-38.079 Z5.000 F2540
G1 X37.277 Y-38.079 Z2.500 F762
G3 X45.223 Y-41.921 Z2.016 I3.973 J-1.921 F762
G3 X37.277 Y-38.079 Z1.532 I-3.973 J1.921 F762
G3 X45.223 Y-41.921 Z1.048 I3.973 J-1.921 F762
G3 X37.277 Y-38.079 Z0.564 I-3.973 J1.921 F762
G3 X45.223 Y-41.921 Z0.080 I3.973 J-1.921 F762
G3 X37.277 Y-38.079 Z-0.404 I-3.973 J1.921 F762
G3 X45.223 Y-41.921 Z-0.889 I3.973 J-1.921 F762
G3 X41.250 Y-35.588 Z-1.200 I-3.973 J1.921 F762
G3 X41.250 Y-44.412 Z-1.200 I0.000 J-4.412 F2540
G3 X41.250 Y-35.588 Z-1.200 I0.000 J4.412 F2540
G3 X41.250 Y-44.412 Z-1.684 I0.000 J-4.412 F762
G3 X41.250 Y-35.588 Z-2.168 I0.000 J4.412 F762
G3 X36.847 Y-39.708 Z-2.400 I0.000 J-4.412 F762
G3 X45.653 Y-40.292 Z-2.400 I4.403 J-0.292 F2540
G3 X36.847 Y-39.708 Z-2.400 I-4.403 J0.292 F2540
G3 X45.653 Y-40.292 Z-2.884 I4.403 J-0.292 F762
G3 X36.847 Y-39.708 Z-3.368 I-4.403 J0.292 F762
G3 X40.667 Y-44.374 Z-3.600 I4.403 J-0.292 F762
G3 X41.833 Y-35.626 Z-3.600 I0.583 J4.374 F2540
G3 X40.667 Y-44.374 Z-3.600 I-0.583 J-4.374 F2540
G3 X41.833 Y-35.626 Z-4.084 I0.583 J4.374 F762
G3 X38.851 Y-43.703 Z-4.500 I-0.583 J-4.374 F762
G3 X43.649 Y-36.297 Z-4.500 I2.399 J3.703 F2540
G3 X38.851 Y-43.703 Z-4.500 I-2.399 J-3.703 F2540
G1 X38.851 Y-43.703 Z5.000 F2540
G1 X131.939 Y-47.477 Z5.000 F2540
G1 X131.939 Y-47.477 Z2.500 F762
G3 X132.261 Y-47.523 Z2.482 I0.161 J-0.023 F762
G3 X131.939 Y-47.477 Z2.464 I-0.161 J0.023 F762
G3 X132.261 Y-47.523 Z2.447 I0.161 J-0.023 F762
G3 X131.939 Y-47.477 Z2.429 I-0.161 J0.023 F762
G3 X132.261 Y-47.523 Z2.411 I0.161 J-0.023 F762
G3 X131.939 Y-47.477 Z2.393 I-0.161 J0.023 F762
G3 X132.261 Y-47.523 Z2.375 I0.161 J-0.023 F762
G3 X131.939 Y-47.477 Z2.357 I-0.161 J0.023 F762
G3 X132.261 Y-47.523 Z2.340 I0.161 J-0.023 F762
G3 X131.939 Y-47.477 Z2.322 I-0.161 J0.023 F762
G3 X132.261 Y-47.523 Z2.304 I0.161 J-0.023 F762
G3 X131.939 Y-47.477 Z2.286 I-0.161 J0.023 F762
G3 X132.261 Y-47.523 Z2.268 I0.161 J-0.023 F762
G3 X131.939 Y-47.477 Z2.250 I-0.161 J0.023 F762
G3 X132.261 Y-47.523 Z2.233 I0.161 J-0.023 F762
G3 X131.939 Y-47.477 Z2.215 I-0.161 J0.023 F762
G3 X132.261 Y-47.523 Z2.197 I0.161 J-0.023 F762
G3 X131.939 Y-47.477 Z2.179 I-0.161 J0.023 F762
G3 X132.261 Y-47.523 Z2.161 I0.161 J-0.023 F762
G3 X131.939 Y-47.477 Z2.143 I-0.161 J0.023 F762
G3 X132.261 Y-47.523 Z2.126 I0.161 J-0.023 F762
G3 X131.939 Y-47.477 Z2.108 I-0.161 J0.023 F762
G3 X132.261 Y-47.523 Z2.090 I0.161 J-0.023 F762
G3 X131.939 Y-47.477 Z2.072 I-0.161 J0.023 F762
G3 X132.261 Y-47.523 Z2.054 I0.161 J-0.023 F762
G3 X131.939 Y-47.477 Z2.036 I-0.161 J0.023 F762
G3 X132.261 Y-47.523 Z2.019 I0.161 J-0.023 F762
G3 X131.939 Y-47.477 Z2.001 I-0.161 J0.023 F762
G3 X132.261 Y-47.523 Z1.983 I0.161 J-0.023 F762
G3 X131.939 Y-47.477 Z1.965 I-0.161 J0.023 F762
G3 X132.261 Y-47.523 Z1.947 I0.161 J-0.023 F762
G3 X131.939 Y-47.477 Z1.930 I-0.161 J0.023 F762
G3 X132.261 Y-47.523 Z1.912 I0.161 J-0.023 F762
G3 X131.939 Y-47.477 Z1.894 I-0.161 J0.023 F762
G3 X132.261 Y-47.523 Z1.876 I0.161 J-0.023 F762
G3 X131.939 Y-47.477 Z1.858 I-0.161 J0.023 F762
G3 X132.261 Y-47.523 Z1.840 I0.161 J-0.023 F762
G3 X131.939 Y-47.477 Z1.823 I-0.161 J0.023 F762
G3 X132.261 Y-47.523 Z1.805 I0.161 J-0.023 F762
G3 X131.939 Y-47.477 Z1.787 I-0.161 J0.023 F762
G3 X132.261 Y-47.523 Z1.769 I0.161 J-0.023 F762
G3 X131.939 Y-47.477 Z1.751 I-0.161 J0.023 F762
G3 X132.261 Y-47.523 Z1.733 I0.161 J-0.023 F762
G3 X131.939 Y-47.477 Z1.716 I-0.161 J0.023 F762
G3 X132.261 Y-47.523 Z1.698 I0.161 J-0.023 F762
G3 X131.939 Y-47.477 Z1.680 I-0.161 J0.023 F762
G3 X132.261 Y-47.523 Z1.662 I0.161 J-0.023 F762
G3 X131.939 Y-47.477 Z1.644 I-0.161 J0.023 F762
G3 X132.261 Y-47.523 Z1.626 I0.161 J-0.023 F762
G3 X131.939 Y-47.477 Z1.609 I-0.161 J0.023 F762
G3 X132.261 Y-47.523 Z1.591 I0.161 J-0.023 F762
G3 X131.939 Y-47.477 Z1.573 I-0.161 J0.023 F762
G3 X132.261 Y-47.523 Z1.555 I0.161 J-0.023 F762
G3 X131.939 Y-47.477 Z1.537 I-0.161 J0.023 F762
G3 X132.261 Y-47.523 Z1.519 I0.161 J-0.023 F762
G3 X131.939 Y-47.477 Z1.502 I-0.161 J0.023 F762
G3 X132.261 Y-47.523 Z1.484 I0.161 J-0.023 F762
G3 X131.939 Y-47.477 Z1.466 I-0.161 J0.023 F762
G3 X132.261 Y-47.523 Z1.448 I0.161 J-0.023 F762
G3 X131.939 Y-47.477 Z1.430 I-0.161 J0.023 F762
G3 X132.261 Y-47.523 Z1.413 I0.161 J-0.023 F762
G3 X131.939 Y-47.477 Z1.395 I-0.161 J0.023 F762
G3 X132.261 Y-47.523 Z1.377 I0.161 J-0.023 F762
G3 X131.939 Y-47.477 Z1.359 I-0.161 J0.023 F762
G3 X132.261 Y-47.523 Z1.341 I0.161 J-0.023 F762
G3 X131.939 Y-47.477 Z1.323 I-0.161 J0.023 F762
G3 X132.261 Y-47.523 Z1.306 I0.161 J-0.023 F762
G3 X131.939 Y-47.477 Z1.288 I-0.161 J0.023 F762
G3 X132.261 Y-47.523 Z1.270 I0.161 J-0.023 F762
G3 X131.939 Y-47.477 Z1.252 I-0.161 J0.023 F762
G3 X132.261 Y-47.523 Z1.234 I0.161 J-0.023 F762
G3 X131.939 Y-47.477 Z1.216 I-0.161 J0.023 F762
G3 X132.261 Y-47.523 Z1.199 I0.161 J-0.023 F762
G3 X131.939 Y-47.477 Z1.181 I-0.161 J0.023 F762
G3 X132.261 Y-47.523 Z1.163 I0.161 J-0.023 F762
G3 X131.939 Y-47.477 Z1.145 I-0.161 J0.023 F762
G3 X132.261 Y-47.523 Z1.127 I0.161 J-0.023 F762
G3 X131.939 Y-47.477 Z1.109 I-0.161 J0.023 F762
G3 X132.261 Y-47.523 Z1.092 I0.161 J-0.023 F762
G3 X131.939 Y-47.477 Z1.074 I-0.161 J0.023 F762
G3 X132.261 Y-47.523 Z1.056 I0.161 J-0.023 F762
G3 X131.939 Y-47.477 Z1.038 I-0.161 J0.023 F762
G3 X132.261 Y-47.523 Z1.020 I0.161 J-0.023 F762
G3 X131.939 Y-47.477 Z1.003 I-0.161 J0.023 F762
G3 X132.261 Y-47.523 Z0.985 I0.161 J-0.023 F762
G3 X131.939 Y-47.477 Z0.967 I-0.161 J0.023 F762
G3 X132.261 Y-47.523 Z0.949 I0.161 J-0.023 F762
G3 X131.939 Y-47.477 Z0.931 I-0.161 J0.023 F762
G3 X132.261 Y-47.523 Z0.913 I0.161 J-0.023 F762
G3 X131.939 Y-47.477 Z0.896 I-0.161 J0.023 F762
G3 X132.261 Y-47.523 Z0.878 I0.161 J-0.023 F762
G3 X131.939 Y-47.477 Z0.860 I-0.161 J0.023 F762
G3 X132.261 Y-47.523 Z0.842 I0.161 J-0.023 F762
G3 X131.939 Y-47.477 Z0.824 I-0.161 J0.023 F762
G3 X132.261 Y-47.523 Z0.806 I0.161 J-0.023 F762
G3 X131.939 Y-47.477 Z0.789 I-0.161 J0.023 F762
G3 X132.261 Y-47.523 Z0.771 I0.161 J-0.023 F762
G3 X131.939 Y-47.477 Z0.753 I-0.161 J0.023 F762
G3 X132.261 Y-47.523 Z0.735 I0.161 J-0.023 F762
G3 X131.939 Y-47.477 Z0.717 I-0.161 J0.023 F762
G3 X132.261 Y-47.523 Z0.699 I0.161 J-0.023 F762
G3 X131.939 Y-47.477 Z0.682 I-0.161 J0.023 F762
G3 X132.261 Y-47.523 Z0.664 I0.161 J-0.023 F762
G3 X131.939 Y-47.477 Z0.646 I-0.161 J0.023 F762
G3 X132.261 Y-47.523 Z0.628 I0.161 J-0.023 F762
G3 X131.939 Y-47.477 Z0.610 I-0.161 J0.023 F762
G3 X132.261 Y-47.523 Z0.592 I0.161 J-0.023 F762
G3 X131.939 Y-47.477 Z0.575 I-0.161 J0.023 F762
G3 X132.261 Y-47.523 Z0.557 I0.161 J-0.023 F762
G3 X131.939 Y-47.477 Z0.539 I-0.161 J0.023 F762
G3 X132.261 Y-47.523 Z0.521 I0.161 J-0.023 F762
G3 X131.939 Y-47.477 Z0.503 I-0.161 J0.023 F762
G3 X132.261 Y-47.523 Z0.486 I0.161 J-0.023 F762
G3 X131.939 Y-47.477 Z0.468 I-0.161 J0.023 F762
G3 X132.261 Y-47.523 Z0.450 I0.161 J-0.023 F762
G3 X131.939 Y-47.477 Z0.432 I-0.161 J0.023 F762
G3 X132.261 Y-47.523 Z0.414 I0.161 J-0.023 F762
G3 X131.939 Y-47.477 Z0.396 I-0.161 J0.023 F762
G3 X132.261 Y-47.523 Z0.379 I0.161 J-0.023 F762
G3 X131.939 Y-47.477 Z0.361 I-0.161 J0.023 F762
G3 X132.261 Y-47.523 Z0.343 I0.161 J-0.023 F762
G3 X131.939 Y-47.477 Z0.325 I-0.161 J0.023 F762
G3 X132.261 Y-47.523 Z0.307 I0.161 J-0.023 F762
G3 X131.939 Y-47.477 Z0.289 I-0.161 J0.023 F762
G3 X132.261 Y-47.523 Z0.272 I0.161 J-0.023 F762
G3 X131.939 Y-47.477 Z0.254 I-0.161 J0.023 F762
G3 X132.261 Y-47.523 Z0.236 I0.161 J-0.023 F762
G3 X131.939 Y-47.477 Z0.218 I-0.161 J0.023 F762
G3 X132.261 Y-47.523 Z0.200 I0.161 J-0.023 F762
G3 X131.939 Y-47.477 Z0.182 I-0.161 J0.023 F762
G3 X132.261 Y-47.523 Z0.165 I0.161 J-0.023 F762
G3 X131.939 Y-47.477 Z0.147 I-0.161 J0.023 F762
G3 X132.261 Y-47.523 Z0.129 I0.161 J-0.023 F762
G3 X131.939 Y-47.477 Z0.111 I-0.161 J0.023 F762
G3 X132.261 Y-47.523 Z0.093 I0.161 J-0.023 F762
G3 X131.939 Y-47.477 Z0.075 I-0.161 J0.023 F762
G3 X132.261 Y-47.523 Z0.058 I0.161 J-0.023 F762
G3 X131.939 Y-47.477 Z0.040 I-0.161 J0.023 F762
G3 X132.261 Y-47.523 Z0.022 I0.161 J-0.023 F762
G3 X131.939 Y-47.477 Z0.004 I-0.161 J0.023 F762
G3 X132.261 Y-47.523 Z-0.014 I0.161 J-0.023 F762
G3 X131.939 Y-47.477 Z-0.031 I-0.161 J0.023 F762
G3 X132.261 Y-47.523 Z-0.049 I0.161 J-0.023 F762
G3 X131.939 Y-47.477 Z-0.067 I-0.161 J0.023 F762
G3 X132.261 Y-47.523 Z-0.085 I0.161 J-0.023 F762
G3 X131.939 Y-47.477 Z-0.103 I-0.161 J0.023 F762
G3 X132.261 Y-47.523 Z-0.121 I0.161 J-0.023 F762
G3 X131.939 Y-47.477 Z-0.138 I-0.161 J0.023 F762
G3 X132.261 Y-47.523 Z-0.156 I0.161 J-0.023 F762
G3 X131.939 Y-47.477 Z-0.174 I-0.161 J0.023 F762
G3 X132.261 Y-47.523 Z-0.192 I0.161 J-0.023 F762
G3 X131.939 Y-47.477 Z-0.210 I-0.161 J0.023 F762
G3 X132.261 Y-47.523 Z-0.228 I0.161 J-0.023 F762
G3 X131.939 Y-47.477 Z-0.245 I-0.161 J0.023 F762
G3 X132.261 Y-47.523 Z-0.263 I0.161 J-0.023 F762
G3 X131.939 Y-47.477 Z-0.281 I-0.161 J0.023 F762
G3 X132.261 Y-47.523 Z-0.299 I0.161 J-0.023 F762
G3 X131.939 Y-47.477 Z-0.317 I-0.161 J0.023 F762
G3 X132.261 Y-47.523 Z-0.335 I0.161 J-0.023 F762
G3 X131.939 Y-47.477 Z-0.352 I-0.161 J0.023 F762
G3 X132.261 Y-47.523 Z-0.370 I0.161 J-0.023 F762
G3 X131.939 Y-47.477 Z-0.388 I-0.161 J0.023 F762
G3 X132.261 Y-47.523 Z-0.406 I0.161 J-0.023 F762
G3 X131.939 Y-47.477 Z-0.424 I-0.161 J0.023 F762
G3 X132.261 Y-47.523 Z-0.442 I0.161 J-0.023 F762
G3 X131.939 Y-47.477 Z-0.459 I-0.161 J0.023 F762
G3 X132.261 Y-47.523 Z-0.477 I0.161 J-0.023 F762
G3 X131.939 Y-47.477 Z-0.495 I-0.161 J0.023 F762
G3 X132.261 Y-47.523 Z-0.513 I0.161 J-0.023 F762
G3 X131.939 Y-47.477 Z-0.531 I-0.161 J0.023 F762
G3 X132.261 Y-47.523 Z-0.548 I0.161 J-0.023 F762
G3 X131.939 Y-47.477 Z-0.566 I-0.161 J0.023 F762
G3 X132.261 Y-47.523 Z-0.584 I0.161 J-0.023 F762
G3 X131.939 Y-47.477 Z-0.602 I-0.161 J0.023 F762
G3 X132.261 Y-47.523 Z-0.620 I0.161 J-0.023 F762
G3 X131.939 Y-47.477 Z-0.638 I-0.161 J0.023 F762
G3 X132.261 Y-47.523 Z-0.655 I0.161 J-0.023 F762
G3 X131.939 Y-47.477 Z-0.673 I-0.161 J0.023 F762
G3 X132.261 Y-47.523 Z-0.691 I0.161 J-0.023 F762
G3 X131.939 Y-47.477 Z-0.709 I-0.161 J0.023 F762
G3 X132.261 Y-47.523 Z-0.727 I0.161 J-0.023 F762
G3 X131.939 Y-47.477 Z-0.745 I-0.161 J0.023 F762
G3 X132.261 Y-47.523 Z-0.762 I0.161 J-0.023 F762
G3 X131.939 Y-47.477 Z-0.780 I-0.161 J0.023 F762
G3 X132.261 Y-47.523 Z-0.798 I0.161 J-0.023 F762
G3 X131.939 Y-47.477 Z-0.816 I-0.161 J0.023 F762
G3 X132.261 Y-47.523 Z-0.834 I0.161 J-0.023 F762
G3 X131.939 Y-47.477 Z-0.852 I-0.161 J0.023 F762
G3 X132.261 Y-47.523 Z-0.869 I0.161 J-0.023 F762
G3 X131.939 Y-47.477 Z-0.887 I-0.161 J0.023 F762
G3 X132.261 Y-47.523 Z-0.905 I0.161 J-0.023 F762
G3 X131.939 Y-47.477 Z-0.923 I-0.161 J0.023 F762
G3 X132.261 Y-47.523 Z-0.941 I0.161 J-0.023 F762
G3 X131.939 Y-47.477 Z-0.959 I-0.161 J0.023 F762
G3 X132.261 Y-47.523 Z-0.976 I0.161 J-0.023 F762
G3 X131.939 Y-47.477 Z-0.994 I-0.161 J0.023 F762
G3 X132.261 Y-47.523 Z-1.012 I0.161 J-0.023 F762
G3 X131.939 Y-47.477 Z-1.030 I-0.161 J0.023 F762
G3 X132.261 Y-47.523 Z-1.048 I0.161 J-0.023 F762
G3 X131.939 Y-47.477 Z-1.065 I-0.161 J0.023 F762
G3 X132.261 Y-47.523 Z-1.083 I0.161 J-0.023 F762
G3 X131.939 Y-47.477 Z-1.101 I-0.161 J0.023 F762
G3 X132.261 Y-47.523 Z-1.119 I0.161 J-0.023 F762
G3 X131.939 Y-47.477 Z-1.137 I-0.161 J0.023 F762
G3 X132.261 Y-47.523 Z-1.155 I0.161 J-0.023 F762
G3 X131.939 Y-47.477 Z-1.172 I-0.161 J0.023 F762
G3 X132.261 Y-47.523 Z-1.190 I0.161 J-0.023 F762
G3 X132.100 Y-47.338 Z-1.200 I-0.161 J0.023 F762
G3 X132.100 Y-47.662 Z-1.200 I0.000 J-0.162 F2540
G3 X132.100 Y-47.338 Z-1.200 I0.000 J0.162 F2540
G3 X132.100 Y-47.662 Z-1.218 I0.000 J-0.162 F762
G3 X132.100 Y-47.338 Z-1.236 I0.000 J0.162 F762
G3 X132.100 Y-47.662 Z-1.253 I0.000 J-0.162 F762
G3 X132.100 Y-47.338 Z-1.271 I0.000 J0.162 F762
G3 X132.100 Y-47.662 Z-1.289 I0.000 J-0.162 F762
G3 X132.100 Y-47.338 Z-1.307 I0.000 J0.162 F762
G3 X132.100 Y-47.662 Z-1.325 I0.000 J-0.162 F762
G3 X132.100 Y-47.338 Z-1.343 I0.000 J0.162 F762
G3 X132.100 Y-47.662 Z-1.360 I0.000 J-0.162 F762
G3 X132.100 Y-47.338 Z-1.378 I0.000 J0.162 F762
G3 X132.100 Y-47.662 Z-1.396 I0.000 J-0.162 F762
G3 X132.100 Y-47.338 Z-1.414 I0.000 J0.162 F762
G3 X132.100 Y-47.662 Z-1.432 I0.000 J-0.162 F762
G3 X132.100 Y-47.338 Z-1.450 I0.000 J0.162 F762
G3 X132.100 Y-47.662 Z-1.467 I0.000 J-0.162 F762
G3 X132.100 Y-47.338 Z-1.485 I0.000 J0.162 F762
G3 X132.100 Y-47.662 Z-1.503 I0.000 J-0.162 F762
G3 X132.100 Y-47.338 Z-1.521 I0.000 J0.162 F762
G3 X132.100 Y-47.662 Z-1.539 I0.000 J-0.162 F762
G3 X132.100 Y-47.338 Z-1.557 I0.000 J0.162 F762
G3 X132.100 Y-47.662 Z-1.574 I0.000 J-0.162 F762
G3 X132.100 Y-47.338 Z-1.592 I0.000 J0.162 F762
G3 X132.100 Y-47.662 Z-1.610 I0.000 J-0.162 F762
G3 X132.100 Y-47.338 Z-1.628 I0.000 J0.162 F762
G3 X132.100 Y-47.662 Z-1.646 I0.000 J-0.162 F762
G3 X132.100 Y-47.338 Z-1.664 I0.000 J0.162 F762
G3 X132.100 Y-47.662 Z-1.681 I0.000 J-0.162 F762
G3 X132.100 Y-47.338 Z-1.699 I0.000 J0.162 F762
G3 X132.100 Y-47.662 Z-1.717 I0.000 J-0.162 F762
G3 X132.100 Y-47.338 Z-1.735 I0.000 J0.162 F762
G3 X132.100 Y-47.662 Z-1.753 I0.000 J-0.162 F762
G3 X132.100 Y-47.338 Z-1.770 I0.000 J0.162 F762
G3 X132.100 Y-47.662 Z-1.788 I0.000 J-0.162 F762
G3 X132.100 Y-47.338 Z-1.806 I0.000 J0.162 F762
G3 X132.100 Y-47.662 Z-1.824 I0.000 J-0.162 F762
G3 X132.100 Y-47.338 Z-1.842 I0.000 J0.162 F762
G3 X132.100 Y-47.662 Z-1.860 I0.000 J-0.162 F762
G3 X132.100 Y-47.338 Z-1.877 I0.000 J0.162 F762
G3 X132.100 Y-47.662 Z-1.895 I0.000 J-0.162 F762
G3 X132.100 Y-47.338 Z-1.913 I0.000 J0.162 F762
G3 X132.100 Y-47.662 Z-1.931 I0.000 J-0.162 F762
G3 X132.100 Y-47.338 Z-1.949 I0.000 J0.162 F762
G3 X132.100 Y-47.662 Z-1.967 I0.000 J-0.162 F762
G3 X132.100 Y-47.338 Z-1.984 I0.000 J0.162 F762
G3 X132.100 Y-47.662 Z-2.002 I0.000 J-0.162 F762
G3 X132.100 Y-47.338 Z-2.020 I0.000 J0.162 F762
G3 X132.100 Y-47.662 Z-2.038 I0.000 J-0.162 F762
G3 X132.100 Y-47.338 Z-2.056 I0.000 J0.162 F762
G3 X132.100 Y-47.662 Z-2.074 I0.000 J-0.162 F762
G3 X132.100 Y-47.338 Z-2.091 I0.000 J0.162 F762
G3 X132.100 Y-47.662 Z-2.109 I0.000 J-0.162 F762
G3 X132.100 Y-47.338 Z-2.127 I0.000 J0.162 F762
G3 X132.100 Y-47.662 Z-2.145 I0.000 J-0.162 F762
G3 X132.100 Y-47.338 Z-2.163 I0.000 J0.162 F762
G3 X132.100 Y-47.662 Z-2.181 I0.000 J-0.162 F762
G3 X132.100 Y-47.338 Z-2.198 I0.000 J0.162 F762
G3 X132.100 Y-47.662 Z-2.216 I0.000 J-0.162 F762
G3 X132.100 Y-47.338 Z-2.234 I0.000 J0.162 F762
G3 X132.100 Y-47.662 Z-2.252 I0.000 J-0.162 F762
G3 X132.100 Y-47.338 Z-2.270 I0.000 J0.162 F762
G3 X132.100 Y-47.662 Z-2.287 I0.000 J-0.162 F762
G3 X132.100 Y-47.338 Z-2.305 I0.000 J0.162 F762
G3 X132.100 Y-47.662 Z-2.323 I0.000 J-0.162 F762
G3 X132.100 Y-47.338 Z-2.341 I0.000 J0.162 F762
G3 X132.100 Y-47.662 Z-2.359 I0.000 J-0.162 F762
G3 X132.100 Y-47.338 Z-2.377 I0.000 J0.162 F762
G3 X132.100 Y-47.662 Z-2.394 I0.000 J-0.162 F762
G3 X132.235 Y-47.590 Z-2.400 I0.000 J0.162 F762
G3 X131.965 Y-47.410 Z-2.400 I-0.135 J0.090 F2540
G3 X132.235 Y-47.590 Z-2.400 I0.135 J-0.090 F2540
G3 X131.965 Y-47.410 Z-2.418 I-0.135 J0.090 F762
G3 X132.235 Y-47.590 Z-2.436 I0.135 J-0.090 F762
G3 X131.965 Y-47.410 Z-2.453 I-0.135 J0.090 F762
G3 X132.235 Y-47.590 Z-2.471 I0.135 J-0.090 F762
G3 X131.965 Y-47.410 Z-2.489 I-0.135 J0.090 F762
G3 X132.235 Y-47.590 Z-2.507 I0.135 J-0.090 F762
G3 X131.965 Y-47.410 Z-2.525 I-0.135 J0.090 F762
G3 X132.235 Y-47.590 Z-2.543 I0.135 J-0.090 F762
G3 X131.965 Y-47.410 Z-2.560 I-0.135 J0.090 F762
G3 X132.235 Y-47.590 Z-2.578 I0.135 J-0.090 F762
G3 X131.965 Y-47.410 Z-2.596 I-0.135 J0.090 F762
G3 X132.235 Y-47.590 Z-2.614 I0.135 J-0.090 F762
G3 X131.965 Y-47.410 Z-2.632 I-0.135 J0.090 F762
G3 X132.235 Y-47.590 Z-2.650 I0.135 J-0.090 F762
G3 X131.965 Y-47.410 Z-2.667 I-0.135 J0.090 F762
G3 X132.235 Y-47.590 Z-2.685 I0.135 J-0.090 F762
G3 X131.965 Y-47.410 Z-2.703 I-0.135 J0.090 F762
G3 X132.235 Y-47.590 Z-2.721 I0.135 J-0.090 F762
G3 X131.965 Y-47.410 Z-2.739 I-0.135 J0.090 F762
G3 X132.235 Y-47.590 Z-2.757 I0.135 J-0.090 F762
G3 X131.965 Y-47.410 Z-2.774 I-0.135 J0.090 F762
G3 X132.235 Y-47.590 Z-2.792 I0.135 J-0.090 F762
G3 X131.965 Y-47.410 Z-2.810 I-0.135 J0.090 F762
G3 X132.235 Y-47.590 Z-2.828 I0.135 J-0.090 F762
G3 X131.965 Y-47.410 Z-2.846 I-0.135 J0.090 F762
G3 X132.235 Y-47.590 Z-2.864 I0.135 J-0.090 F762
G3 X131.965 Y-47.410 Z-2.881 I-0.135 J0.090 F762
G3 X132.235 Y-47.590 Z-2.899 I0.135 J-0.090 F762
G3 X131.965 Y-47.410 Z-2.917 I-0.135 J0.090 F762
G3 X132.235 Y-47.590 Z-2.935 I0.135 J-0.090 F762
G3 X131.965 Y-47.410 Z-2.953 I-0.135 J0.090 F762
G3 X132.235 Y-47.590 Z-2.970 I0.135 J-0.090 F762
G3 X131.965 Y-47.410 Z-2.988 I-0.135 J0.090 F762
G3 X132.235 Y-47.590 Z-3.006 I0.135 J-0.090 F762
G3 X131.965 Y-47.410 Z-3.024 I-0.135 J0.090 F762
G3 X132.235 Y-47.590 Z-3.042 I0.135 J-0.090 F762
G3 X131.965 Y-47.410 Z-3.060 I-0.135 J0.090 F762
G3 X132.235 Y-47.590 Z-3.077 I0.135 J-0.090 F762
G3 X131.965 Y-47.410 Z-3.095 I-0.135 J0.090 F762
G3 X132.235 Y-47.590 Z-3.113 I0.135 J-0.090 F762
G3 X131.965 Y-47.410 Z-3.131 I-0.135 J0.090 F762
G3 X132.235 Y-47.590 Z-3.149 I0.135 J-0.090 F762
G3 X131.965 Y-47.410 Z-3.167 I-0.135 J0.090 F762
G3 X132.235 Y-47.590 Z-3.184 I0.135 J-0.090 F762
G3 X131.965 Y-47.410 Z-3.202 I-0.135 J0.090 F762
G3 X132.235 Y-47.590 Z-3.220 I0.135 J-0.090 F762
G3 X131.965 Y-47.410 Z-3.238 I-0.135 J0.090 F762
G3 X132.235 Y-47.590 Z-3.256 I0.135 J-0.090 F762
G3 X131.965 Y-47.410 Z-3.274 I-0.135 J0.090 F762
G3 X132.235 Y-47.590 Z-3.291 I0.135 J-0.090 F762
G3 X131.965 Y-47.410 Z-3.309 I-0.135 J0.090 F762
G3 X132.235 Y-47.590 Z-3.327 I0.135 J-0.090 F762
G3 X131.965 Y-47.410 Z-3.345 I-0.135 J0.090 F762
G3 X132.235 Y-47.590 Z-3.363 I0.135 J-0.090 F762
G3 X131.965 Y-47.410 Z-3.381 I-0.135 J0.090 F762
G3 X132.235 Y-47.590 Z-3.398 I0.135 J-0.090 F762
G3 X131.965 Y-47.410 Z-3.416 I-0.135 J0.090 F762
G3 X132.235 Y-47.590 Z-3.434 I0.135 J-0.090 F762
G3 X131.965 Y-47.410 Z-3.452 I-0.135 J0.090 F762
G3 X132.235 Y-47.590 Z-3.470 I0.135 J-0.090 F762
G3 X131.965 Y-47.410 Z-3.487 I-0.135 J0.090 F762
G3 X132.235 Y-47.590 Z-3.505 I0.135 J-0.090 F762
G3 X131.965 Y-47.410 Z-3.523 I-0.135 J0.090 F762
G3 X132.235 Y-47.590 Z-3.541 I0.135 J-0.090 F762
G3 X131.965 Y-47.410 Z-3.559 I-0.135 J0.090 F762
G3 X132.235 Y-47.590 Z-3.577 I0.135 J-0.090 F762
G3 X131.965 Y-47.410 Z-3.594 I-0.135 J0.090 F762
G3 X131.950 Y-47.562 Z-3.600 I0.135 J-0.090 F762
G3 X132.250 Y-47.438 Z-3.600 I0.150 J0.062 F2540
G3 X131.950 Y-47.562 Z-3.600 I-0.150 J-0.062 F2540
G3 X132.250 Y-47.438 Z-3.618 I0.150 J0.062 F762
G3 X131.950 Y-47.562 Z-3.636 I-0.150 J-0.062 F762
G3 X132.250 Y-47.438 Z-3.653 I0.150 J0.062 F762
G3 X131.950 Y-47.562 Z-3.671 I-0.150 J-0.062 F762
G3 X132.250 Y-47.438 Z-3.689 I0.150 J0.062 F762
G3 X131.950 Y-47.562 Z-3.707 I-0.150 J-0.062 F762
G3 X132.250 Y-47.438 Z-3.725 I0.150 J0.062 F762
G3 X131.950 Y-47.562 Z-3.743 I-0.150 J-0.062 F762
G3 X132.250 Y-47.438 Z-3.760 I0.150 J0.062 F762
G3 X131.950 Y-47.562 Z-3.778 I-0.150 J-0.062 F762
G3 X132.250 Y-47.438 Z-3.796 I0.150 J0.062 F762
G3 X131.950 Y-47.562 Z-3.814 I-0.150 J-0.062 F762
G3 X132.250 Y-47.438 Z-3.832 I0.150 J0.062 F762
G3 X131.950 Y-47.562 Z-3.850 I-0.150 J-0.062 F762
G3 X132.250 Y-47.438 Z-3.867 I0.150 J0.062 F762
G3 X131.950 Y-47.562 Z-3.885 I-0.150 J-0.062 F762
G3 X132.250 Y-47.438 Z-3.903 I0.150 J0.062 F762
G3 X131.950 Y-47.562 Z-3.921 I-0.150 J-0.062 F762
G3 X132.250 Y-47.438 Z-3.939 I0.150 J0.062 F762
G3 X131.950 Y-47.562 Z-3.957 I-0.150 J-0.062 F762
G3 X132.250 Y-47.438 Z-3.974 I0.150 J0.062 F762
G3 X131.950 Y-47.562 Z-3.992 I-0.150 J-0.062 F762
G3 X132.250 Y-47.438 Z-4.010 I0.150 J0.062 F762
G3 X131.950 Y-47.562 Z-4.028 I-0.150 J-0.062 F762
G3 X132.250 Y-47.438 Z-4.046 I0.150 J0.062 F762
G3 X131.950 Y-47.562 Z-4.064 I-0.150 J-0.062 F762
G3 X132.250 Y-47.438 Z-4.081 I0.150 J0.062 F762
G3 X131.950 Y-47.562 Z-4.099 I-0.150 J-0.062 F762
G3 X132.250 Y-47.438 Z-4.117 I0.150 J0.062 F762
G3 X131.950 Y-47.562 Z-4.135 I-0.150 J-0.062 F762
G3 X132.250 Y-47.438 Z-4.153 I0.150 J0.062 F762
G3 X131.950 Y-47.562 Z-4.170 I-0.150 J-0.062 F762
G3 X132.250 Y-47.438 Z-4.188 I0.150 J0.062 F762
G3 X131.950 Y-47.562 Z-4.206 I-0.150 J-0.062 F762
G3 X132.250 Y-47.438 Z-4.224 I0.150 J0.062 F762
G3 X131.950 Y-47.562 Z-4.242 I-0.150 J-0.062 F762
G3 X132.250 Y-47.438 Z-4.260 I0.150 J0.062 F762
G3 X131.950 Y-47.562 Z-4.277 I-0.150 J-0.062 F762
G3 X132.250 Y-47.438 Z-4.295 I0.150 J0.062 F762
G3 X131.950 Y-47.562 Z-4.313 I-0.150 J-0.062 F762
G3 X132.250 Y-47.438 Z-4.331 I0.150 J0.062 F762
G3 X131.950 Y-47.562 Z-4.349 I-0.150 J-0.062 F762
G3 X132.250 Y-47.438 Z-4.367 I0.150 J0.062 F762
G3 X131.950 Y-47.562 Z-4.384 I-0.150 J-0.062 F762
G3 X132.250 Y-47.438 Z-4.402 I0.150 J0.062 F762
G3 X131.950 Y-47.562 Z-4.420 I-0.150 J-0.062 F762
G3 X132.250 Y-47.438 Z-4.438 I0.150 J0.062 F762
G3 X131.950 Y-47.562 Z-4.456 I-0.150 J-0.062 F762
G3 X132.250 Y-47.438 Z-4.474 I0.150 J0.062 F762
G3 X131.950 Y-47.562 Z-4.491 I-0.150 J-0.062 F762
G3 X132.154 Y-47.653 Z-4.500 I0.150 J0.062 F762
G3 X132.046 Y-47.347 Z-4.500 I-0.054 J0.153 F2540
G3 X132.154 Y-47.653 Z-4.500 I0.054 J-0.153 F2540
G1 X132.154 Y-47.653 Z5.000 F2540
G1 X158.758 Y-33.537 Z5.000 F2540
G1 X158.758 Y-33.537 Z2.500 F762
G1 X138.087 Y-33.537 Z2.261 F762
G1 X138.087 Y-61.463 Z1.939 F762
G1 X162.113 Y-61.463 Z1.661 F762
G1 X162.113 Y-33.537 Z1.339 F762
G1 X138.087 Y-33.537 Z1.061 F762
G1 X138.087 Y-61.463 Z0.739 F762
G1 X162.113 Y-61.463 Z0.461 F762
G1 X162.113 Y-33.537 Z0.139 F762
G1 X138.087 Y-33.537 Z-0.139 F762
G1 X138.087 Y-61.463 Z-0.461 F762
G1 X162.113 Y-61.463 Z-0.739 F762
G1 X162.113 Y-33.537 Z-1.061 F762
G1 X150.100 Y-33.537 Z-1.200 F762
G1 X138.087 Y-33.537 Z-1.200 F2540
G1 X138.087 Y-61.463 Z-1.200 F2540
G1 X162.113 Y-61.463 Z-1.200 F2540
G1 X162.113 Y-33.537 Z-1.200 F2540
G1 X150.100 Y-33.537 Z-1.200 F2540
G1 X138.087 Y-33.537 Z-1.339 F762
G1 X138.087 Y-61.463 Z-1.661 F762
G1 X162.113 Y-61.463 Z-1.939 F762
G1 X162.113 Y-33.537 Z-2.261 F762
G1 X150.100 Y-33.537 Z-2.400 F762
G1 X138.087 Y-33.537 Z-2.400 F2540
G1 X138.087 Y-61.463 Z-2.400 F2540
G1 X162.113 Y-61.463 Z-2.400 F2540
G1 X162.113 Y-33.537 Z-2.400 F2540
G1 X150.100 Y-33.537 Z-2.400 F2540
G1 X138.087 Y-33.537 Z-2.539 F762
G1 X138.087 Y-61.463 Z-2.861 F762
G1 X162.113 Y-61.463 Z-3.139 F762
G1 X162.113 Y-33.537 Z-3.461 F762
G1 X150.100 Y-33.537 Z-3.600 F762
G1 X138.087 Y-33.537 Z-3.600 F2540
G1 X138.087 Y-61.463 Z-3.600 F2540
G1 X162.113 Y-61.463 Z-3.600 F2540
G1 X162.113 Y-33.537 Z-3.600 F2540
G1 X150.100 Y-33.537 Z-3.600 F2540
G1 X138.087 Y-33.537 Z-3.739 F762
G1 X138.087 Y-61.463 Z-4.061 F762
G1 X162.113 Y-61.463 Z-4.339 F762
G1 X162.113 Y-47.500 Z-4.500 F762
G1 X162.113 Y-33.537 Z-4.500 F2540
G1 X138.087 Y-33.537 Z-4.500 F2540
G1 X138.087 Y-61.463 Z-4.500 F2540
G1 X162.113 Y-61.463 Z-4.500 F2540
G1 X162.113 Y-47.500 Z-4.500 F2540
G1 X162.113 Y-47.500 Z5.000 F2540
G1 X167.939 Y-47.477 Z5.000 F2540
G1 X167.939 Y-47.477 Z2.500 F762
G3 X168.261 Y-47.523 Z2.482 I0.161 J-0.023 F762
G3 X167.939 Y-47.477 Z2.464 I-0.161 J0.023 F762
G3 X168.261 Y-47.523 Z2.447 I0.161 J-0.023 F762
G3 X167.939 Y-47.477 Z2.429 I-0.161 J0.023 F762
G3 X168.261 Y-47.523 Z2.411 I0.161 J-0.023 F762
G3 X167.939 Y-47.477 Z2.393 I-0.161 J0.023 F762
G3 X168.261 Y-47.523 Z2.375 I0.161 J-0.023 F762
G3 X167.939 Y-47.477 Z2.357 I-0.161 J0.023 F762
G3 X168.261 Y-47.523 Z2.340 I0.161 J-0.023 F762
G3 X167.939 Y-47.477 Z2.322 I-0.161 J0.023 F762
G3 X168.261 Y-47.523 Z2.304 I0.161 J-0.023 F762
G3 X167.939 Y-47.477 Z2.286 I-0.161 J0.023 F762
G3 X168.261 Y-47.523 Z2.268 I0.161 J-0.023 F762
G3 X167.939 Y-47.477 Z2.250 I-0.161 J0.023 F762
G3 X168.261 Y-47.523 Z2.233 I0.161 J-0.023 F762
G3 X167.939 Y-47.477 Z2.215 I-0.161 J0.023 F762
G3 X168.261 Y-47.523 Z2.197 I0.161 J-0.023 F762
G3 X167.939 Y-47.477 Z2.179 I-0.161 J0.023 F762
G3 X168.261 Y-47.523 Z2.161 I0.161 J-0.023 F762
G3 X167.939 Y-47.477 Z2.143 I-0.161 J0.023 F762
G3 X168.261 Y-47.523 Z2.126 I0.161 J-0.023 F762
G3 X167.939 Y-47.477 Z2.108 I-0.161 J0.023 F762
G3 X168.261 Y-47.523 Z2.090 I0.161 J-0.023 F762
G3 X167.939 Y-47.477 Z2.072 I-0.161 J0.023 F762
G3 X168.261 Y-47.523 Z2.054 I0.161 J-0.023 F762
G3 X167.939 Y-47.477 Z2.036 I-0.161 J0.023 F762
G3 X168.261 Y-47.523 Z2.019 I0.161 J-0.023 F762
G3 X167.939 Y-47.477 Z2.001 I-0.161 J0.023 F762
G3 X168.261 Y-47.523 Z1.983 I0.161 J-0.023 F762
G3 X167.939 Y-47.477 Z1.965 I-0.161 J0.023 F762
G3 X168.261 Y-47.523 Z1.947 I0.161 J-0.023 F762
G3 X167.939 Y-47.477 Z1.930 I-0.161 J0.023 F762
G3 X168.261 Y-47.523 Z1.912 I0.161 J-0.023 F762
G3 X167.939 Y-47.477 Z1.894 I-0.161 J0.023 F762
G3 X168.261 Y-47.523 Z1.876 I0.161 J-0.023 F762
G3 X167.939 Y-47.477 Z1.858 I-0.161 J0.023 F762
G3 X168.261 Y-47.523 Z1.840 I0.161 J-0.023 F762
G3 X167.939 Y-47.477 Z1.823 I-0.161 J0.023 F762
G3 X168.261 Y-47.523 Z1.805 I0.161 J-0.023 F762
G3 X167.939 Y-47.477 Z1.787 I-0.161 J0.023 F762
G3 X168.261 Y-47.523 Z1.769 I0.161 J-0.023 F762
G3 X167.939 Y-47.477 Z1.751 I-0.161 J0.023 F762
G3 X168.261 Y-47.523 Z1.733 I0.161 J-0.023 F762
G3 X167.939 Y-47.477 Z1.716 I-0.161 J0.023 F762
G3 X168.261 Y-47.523 Z1.698 I0.161 J-0.023 F762
G3 X167.939 Y-47.477 Z1.680 I-0.161 J0.023 F762
G3 X168.261 Y-47.523 Z1.662 I0.161 J-0.023 F762
G3 X167.939 Y-47.477 Z1.644 I-0.161 J0.023 F762
G3 X168.261 Y-47.523 Z1.626 I0.161 J-0.023 F762
G3 X167.939 Y-47.477 Z1.609 I-0.161 J0.023 F762
G3 X168.261 Y-47.523 Z1.591 I0.161 J-0.023 F762
G3 X167.939 Y-47.477 Z1.573 I-0.161 J0.023 F762
G3 X168.261 Y-47.523 Z1.555 I0.161 J-0.023 F762
G3 X167.939 Y-47.477 Z1.537 I-0.161 J0.023 F762
G3 X168.261 Y-47.523 Z1.519 I0.161 J-0.023 F762
G3 X167.939 Y-47.477 Z1.502 I-0.161 J0.023 F762
G3 X168.261 Y-47.523 Z1.484 I0.161 J-0.023 F762
G3 X167.939 Y-47.477 Z1.466 I-0.161 J0.023 F762
G3 X168.261 Y-47.523 Z1.448 I0.161 J-0.023 F762
G3 X167.939 Y-47.477 Z1.430 I-0.161 J0.023 F762
G3 X168.261 Y-47.523 Z1.413 I0.161 J-0.023 F762
G3 X167.939 Y-47.477 Z1.395 I-0.161 J0.023 F762
G3 X168.261 Y-47.523 Z1.377 I0.161 J-0.023 F762
G3 X167.939 Y-47.477 Z1.359 I-0.161 J0.023 F762
G3 X168.261 Y-47.523 Z1.341 I0.161 J-0.023 F762
G3 X167.939 Y-47.477 Z1.323 I-0.161 J0.023 F762
G3 X168.261 Y-47.523 Z1.306 I0.161 J-0.023 F762
G3 X167.939 Y-47.477 Z1.288 I-0.161 J0.023 F762
G3 X168.261 Y-47.523 Z1.270 I0.161 J-0.023 F762
G3 X167.939 Y-47.477 Z1.252 I-0.161 J0.023 F762
G3 X168.261 Y-47.523 Z1.234 I0.161 J-0.023 F762
G3 X167.939 Y-47.477 Z1.216 I-0.161 J0.023 F762
G3 X168.261 Y-47.523 Z1.199 I0.161 J-0.023 F762
G3 X167.939 Y-47.477 Z1.181 I-0.161 J0.023 F762
G3 X168.261 Y-47.523 Z1.163 I0.161 J-0.023 F762
G3 X167.939 Y-47.477 Z1.145 I-0.161 J0.023 F762
G3 X168.261 Y-47.523 Z1.127 I0.161 J-0.023 F762
G3 X167.939 Y-47.477 Z1.109 I-0.161 J0.023 F762
G3 X168.261 Y-47.523 Z1.092 I0.161 J-0.023 F762
G3 X167.939 Y-47.477 Z1.074 I-0.161 J0.023 F762
G3 X168.261 Y-47.523 Z1.056 I0.161 J-0.023 F762
G3 X167.939 Y-47.477 Z1.038 I-0.161 J0.023 F762
G3 X168.261 Y-47.523 Z1.020 I0.161 J-0.023 F762
G3 X167.939 Y-47.477 Z1.003 I-0.161 J0.023 F762
G3 X168.261 Y-47.523 Z0.985 I0.161 J-0.023 F762
G3 X167.939 Y-47.477 Z0.967 I-0.161 J0.023 F762
G3 X168.261 Y-47.523 Z0.949 I0.161 J-0.023 F762
G3 X167.939 Y-47.477 Z0.931 I-0.161 J0.023 F762
G3 X168.261 Y-47.523 Z0.913 I0.161 J-0.023 F762
G3 X167.939 Y-47.477 Z0.896 I-0.161 J0.023 F762
G3 X168.261 Y-47.523 Z0.878 I0.161 J-0.023 F762
G3 X167.939 Y-47.477 Z0.860 I-0.161 J0.023 F762
G3 X168.261 Y-47.523 Z0.842 I0.161 J-0.023 F762
G3 X167.939 Y-47.477 Z0.824 I-0.161 J0.023 F762
G3 X168.261 Y-47.523 Z0.806 I0.161 J-0.023 F762
G3 X167.939 Y-47.477 Z0.789 I-0.161 J0.023 F762
G3 X168.261 Y-47.523 Z0.771 I0.161 J-0.023 F762
G3 X167.939 Y-47.477 Z0.753 I-0.161 J0.023 F762
G3 X168.261 Y-47.523 Z0.735 I0.161 J-0.023 F762
G3 X167.939 Y-47.477 Z0.717 I-0.161 J0.023 F762
G3 X168.261 Y-47.523 Z0.699 I0.161 J-0.023 F762
G3 X167.939 Y-47.477 Z0.682 I-0.161 J0.023 F762
G3 X168.261 Y-47.523 Z0.664 I0.161 J-0.023 F762
G3 X167.939 Y-47.477 Z0.646 I-0.161 J0.023 F762
G3 X168.261 Y-47.523 Z0.628 I0.161 J-0.023 F762
G3 X167.939 Y-47.477 Z0.610 I-0.161 J0.023 F762
G3 X168.261 Y-47.523 Z0.592 I0.161 J-0.023 F762
G3 X167.939 Y-47.477 Z0.575 I-0.161 J0.023 F762
G3 X168.261 Y-47.523 Z0.557 I0.161 J-0.023 F762
G3 X167.939 Y-47.477 Z0.539 I-0.161 J0.023 F762
G3 X168.261 Y-47.523 Z0.521 I0.161 J-0.023 F762
G3 X167.939 Y-47.477 Z0.503 I-0.161 J0.023 F762
G3 X168.261 Y-47.523 Z0.486 I0.161 J-0.023 F762
G3 X167.939 Y-47.477 Z0.468 I-0.161 J0.023 F762
G3 X168.261 Y-47.523 Z0.450 I0.161 J-0.023 F762
G3 X167.939 Y-47.477 Z0.432 I-0.161 J0.023 F762
G3 X168.261 Y-47.523 Z0.414 I0.161 J-0.023 F762
G3 X167.939 Y-47.477 Z0.396 I-0.161 J0.023 F762
G3 X168.261 Y-47.523 Z0.379 I0.161 J-0.023 F762
G3 X167.939 Y-47.477 Z0.361 I-0.161 J0.023 F762
G3 X168.261 Y-47.523 Z0.343 I0.161 J-0.023 F762
G3 X167.939 Y-47.477 Z0.325 I-0.161 J0.023 F762
G3 X168.261 Y-47.523 Z0.307 I0.161 J-0.023 F762
G3 X167.939 Y-47.477 Z0.289 I-0.161 J0.023 F762
G3 X168.261 Y-47.523 Z0.272 I0.161 J-0.023 F762
G3 X167.939 Y-47.477 Z0.254 I-0.161 J0.023 F762
G3 X168.261 Y-47.523 Z0.236 I0.161 J-0.023 F762
G3 X167.939 Y-47.477 Z0.218 I-0.161 J0.023 F762
G3 X168.261 Y-47.523 Z0.200 I0.161 J-0.023 F762
G3 X167.939 Y-47.477 Z0.182 I-0.161 J0.023 F762
G3 X168.261 Y-47.523 Z0.165 I0.161 J-0.023 F762
G3 X167.939 Y-47.477 Z0.147 I-0.161 J0.023 F762
G3 X168.261 Y-47.523 Z0.129 I0.161 J-0.023 F762
G3 X167.939 Y-47.477 Z0.111 I-0.161 J0.023 F762
G3 X168.261 Y-47.523 Z0.093 I0.161 J-0.023 F762
G3 X167.939 Y-47.477 Z0.075 I-0.161 J0.023 F762
G3 X168.261 Y-47.523 Z0.058 I0.161 J-0.023 F762
G3 X167.939 Y-47.477 Z0.040 I-0.161 J0.023 F762
G3 X168.261 Y-47.523 Z0.022 I0.161 J-0.023 F762
G3 X167.939 Y-47.477 Z0.004 I-0.161 J0.023 F762
G3 X168.261 Y-47.523 Z-0.014 I0.161 J-0.023 F762
G3 X167.939 Y-47.477 Z-0.031 I-0.161 J0.023 F762
G3 X168.261 Y-47.523 Z-0.049 I0.161 J-0.023 F762
G3 X167.939 Y-47.477 Z-0.067 I-0.161 J0.023 F762
G3 X168.261 Y-47.523 Z-0.085 I0.161 J-0.023 F762
G3 X167.939 Y-47.477 Z-0.103 I-0.161 J0.023 F762
G3 X168.261 Y-47.523 Z-0.121 I0.161 J-0.023 F762
G3 X167.939 Y-47.477 Z-0.138 I-0.161 J0.023 F762
G3 X168.261 Y-47.523 Z-0.156 I0.161 J-0.023 F762
G3 X167.939 Y-47.477 Z-0.174 I-0.161 J0.023 F762
G3 X168.261 Y-47.523 Z-0.192 I0.161 J-0.023 F762
G3 X167.939 Y-47.477 Z-0.210 I-0.161 J0.023 F762
G3 X168.261 Y-47.523 Z-0.228 I0.161 J-0.023 F762
G3 X167.939 Y-47.477 Z-0.245 I-0.161 J0.023 F762
G3 X168.261 Y-47.523 Z-0.263 I0.161 J-0.023 F762
G3 X167.939 Y-47.477 Z-0.281 I-0.161 J0.023 F762
G3 X168.261 Y-47.523 Z-0.299 I0.161 J-0.023 F762
G3 X167.939 Y-47.477 Z-0.317 I-0.161 J0.023 F762
G3 X168.261 Y-47.523 Z-0.335 I0.161 J-0.023 F762
G3 X167.939 Y-47.477 Z-0.352 I-0.161 J0.023 F762
G3 X168.261 Y-47.523 Z-0.370 I0.161 J-0.023 F762
G3 X167.939 Y-47.477 Z-0.388 I-0.161 J0.023 F762
G3 X168.261 Y-47.523 Z-0.406 I0.161 J-0.023 F762
G3 X167.939 Y-47.477 Z-0.424 I-0.161 J0.023 F762
G3 X168.261 Y-47.523 Z-0.442 I0.161 J-0.023 F762
G3 X167.939 Y-47.477 Z-0.459 I-0.161 J0.023 F762
G3 X168.261 Y-47.523 Z-0.477 I0.161 J-0.023 F762
G3 X167.939 Y-47.477 Z-0.495 I-0.161 J0.023 F762
G3 X168.261 Y-47.523 Z-0.513 I0.161 J-0.023 F762
G3 X167.939 Y-47.477 Z-0.531 I-0.161 J0.023 F762
G3 X168.261 Y-47.523 Z-0.548 I0.161 J-0.023 F762
G3 X167.939 Y-47.477 Z-0.566 I-0.161 J0.023 F762
G3 X168.261 Y-47.523 Z-0.584 I0.161 J-0.023 F762
G3 X167.939 Y-47.477 Z-0.602 I-0.161 J0.023 F762
G3 X168.261 Y-47.523 Z-0.620 I0.161 J-0.023 F762
G3 X167.939 Y-47.477 Z-0.638 I-0.161 J0.023 F762
G3 X168.261 Y-47.523 Z-0.655 I0.161 J-0.023 F762
G3 X167.939 Y-47.477 Z-0.673 I-0.161 J0.023 F762
G3 X168.261 Y-47.523 Z-0.691 I0.161 J-0.023 F762
G3 X167.939 Y-47.477 Z-0.709 I-0.161 J0.023 F762
G3 X168.261 Y-47.523 Z-0.727 I0.161 J-0.023 F762
G3 X167.939 Y-47.477 Z-0.745 I-0.161 J0.023 F762
G3 X168.261 Y-47.523 Z-0.762 I0.161 J-0.023 F762
G3 X167.939 Y-47.477 Z-0.780 I-0.161 J0.023 F762
G3 X168.261 Y-47.523 Z-0.798 I0.161 J-0.023 F762
G3 X167.939 Y-47.477 Z-0.816 I-0.161 J0.023 F762
G3 X168.261 Y-47.523 Z-0.834 I0.161 J-0.023 F762
G3 X167.939 Y-47.477 Z-0.852 I-0.161 J0.023 F762
G3 X168.261 Y-47.523 Z-0.869 I0.161 J-0.023 F762
G3 X167.939 Y-47.477 Z-0.887 I-0.161 J0.023 F762
G3 X168.261 Y-47.523 Z-0.905 I0.161 J-0.023 F762
G3 X167.939 Y-47.477 Z-0.923 I-0.161 J0.023 F762
G3 X168.261 Y-47.523 Z-0.941 I0.161 J-0.023 F762
G3 X167.939 Y-47.477 Z-0.959 I-0.161 J0.023 F762
G3 X168.261 Y-47.523 Z-0.976 I0.161 J-0.023 F762
G3 X167.939 Y-47.477 Z-0.994 I-0.161 J0.023 F762
G3 X168.261 Y-47.523 Z-1.012 I0.161 J-0.023 F762
G3 X167.939 Y-47.477 Z-1.030 I-0.161 J0.023 F762
G3 X168.261 Y-47.523 Z-1.048 I0.161 J-0.023 F762
G3 X167.939 Y-47.477 Z-1.065 I-0.161 J0.023 F762
G3 X168.261 Y-47.523 Z-1.083 I0.161 J-0.023 F762
G3 X167.939 Y-47.477 Z-1.101 I-0.161 J0.023 F762
G3 X168.261 Y-47.523 Z-1.119 I0.161 J-0.023 F762
G3 X167.939 Y-47.477 Z-1.137 I-0.161 J0.023 F762
G3 X168.261 Y-47.523 Z-1.155 I0.161 J-0.023 F762
G3 X167.939 Y-47.477 Z-1.172 I-0.161 J0.023 F762
G3 X168.261 Y-47.523 Z-1.190 I0.161 J-0.023 F762
G3 X168.100 Y-47.338 Z-1.200 I-0.161 J0.023 F762
G3 X168.100 Y-47.662 Z-1.200 I0.000 J-0.162 F2540
G3 X168.100 Y-47.338 Z-1.200 I0.000 J0.162 F2540
G3 X168.100 Y-47.662 Z-1.218 I0.000 J-0.162 F762
G3 X168.100 Y-47.338 Z-1.236 I0.000 J0.162 F762
G3 X168.100 Y-47.662 Z-1.253 I0.000 J-0.162 F762
G3 X168.100 Y-47.338 Z-1.271 I0.000 J0.162 F762
G3 X168.100 Y-47.662 Z-1.289 I0.000 J-0.162 F762
G3 X168.100 Y-47.338 Z-1.307 I0.000 J0.162 F762
G3 X168.100 Y-47.662 Z-1.325 I0.000 J-0.162 F762
G3 X168.100 Y-47.338 Z-1.343 I0.000 J0.162 F762
G3 X168.100 Y-47.662 Z-1.360 I0.000 J-0.162 F762
G3 X168.100 Y-47.338 Z-1.378 I0.000 J0.162 F762
G3 X168.100 Y-47.662 Z-1.396 I0.000 J-0.162 F762
G3 X168.100 Y-47.338 Z-1.414 I0.000 J0.162 F762
G3 X168.100 Y-47.662 Z-1.432 I0.000 J-0.162 F762
G3 X168.100 Y-47.338 Z-1.450 I0.000 J0.162 F762
G3 X168.100 Y-47.662 Z-1.467 I0.000 J-0.162 F762
G3 X168.100 Y-47.338 Z-1.485 I0.000 J0.162 F762
G3 X168.100 Y-47.662 Z-1.503 I0.000 J-0.162 F762
G3 X168.100 Y-47.338 Z-1.521 I0.000 J0.162 F762
G3 X168.100 Y-47.662 Z-1.539 I0.000 J-0.162 F762
G3 X168.100 Y-47.338 Z-1.557 I0.000 J0.162 F762
G3 X168.100 Y-47.662 Z-1.574 I0.000 J-0.162 F762
G3 X168.100 Y-47.338 Z-1.592 I0.000 J0.162 F762
G3 X168.100 Y-47.662 Z-1.610 I0.000 J-0.162 F762
G3 X168.100 Y-47.338 Z-1.628 I0.000 J0.162 F762
G3 X168.100 Y-47.662 Z-1.646 I0.000 J-0.162 F762
G3 X168.100 Y-47.338 Z-1.664 I0.000 J0.162 F762
G3 X168.100 Y-47.662 Z-1.681 I0.000 J-0.162 F762
G3 X168.100 Y-47.338 Z-1.699 I0.000 J0.162 F762
G3 X168.100 Y-47.662 Z-1.717 I0.000 J-0.162 F762
G3 X168.100 Y-47.338 Z-1.735 I0.000 J0.162 F762
G3 X168.100 Y-47.662 Z-1.753 I0.000 J-0.162 F762
G3 X168.100 Y-47.338 Z-1.770 I0.000 J0.162 F762
G3 X168.100 Y-47.662 Z-1.788 I0.000 J-0.162 F762
G3 X168.100 Y-47.338 Z-1.806 I0.000 J0.162 F762
G3 X168.100 Y-47.662 Z-1.824 I0.000 J-0.162 F762
G3 X168.100 Y-47.338 Z-1.842 I0.000 J0.162 F762
G3 X168.100 Y-47.662 Z-1.860 I0.000 J-0.162 F762
G3 X168.100 Y-47.338 Z-1.877 I0.000 J0.162 F762
G3 X168.100 Y-47.662 Z-1.895 I0.000 J-0.162 F762
G3 X168.100 Y-47.338 Z-1.913 I0.000 J0.162 F762
G3 X168.100 Y-47.662 Z-1.931 I0.000 J-0.162 F762
G3 X168.100 Y-47.338 Z-1.949 I0.000 J0.162 F762
G3 X168.100 Y-47.662 Z-1.967 I0.000 J-0.162 F762
G3 X168.100 Y-47.338 Z-1.984 I0.000 J0.162 F762
G3 X168.100 Y-47.662 Z-2.002 I0.000 J-0.162 F762
G3 X168.100 Y-47.338 Z-2.020 I0.000 J0.162 F762
G3 X168.100 Y-47.662 Z-2.038 I0.000 J-0.162 F762
G3 X168.100 Y-47.338 Z-2.056 I0.000 J0.162 F762
G3 X168.100 Y-47.662 Z-2.074 I0.000 J-0.162 F762
G3 X168.100 Y-47.338 Z-2.091 I0.000 J0.162 F762
G3 X168.100 Y-47.662 Z-2.109 I0.000 J-0.162 F762
G3 X168.100 Y-47.338 Z-2.127 I0.000 J0.162 F762
G3 X168.100 Y-47.662 Z-2.145 I0.000 J-0.162 F762
G3 X168.100 Y-47.338 Z-2.163 I0.000 J0.162 F762
G3 X168.100 Y-47.662 Z-2.181 I0.000 J-0.162 F762
G3 X168.100 Y-47.338 Z-2.198 I0.000 J0.162 F762
G3 X168.100 Y-47.662 Z-2.216 I0.000 J-0.162 F762
G3 X168.100 Y-47.338 Z-2.234 I0.000 J0.162 F762
G3 X168.100 Y-47.662 Z-2.252 I0.000 J-0.162 F762
G3 X168.100 Y-47.338 Z-2.270 I0.000 J0.162 F762
G3 X168.100 Y-47.662 Z-2.287 I0.000 J-0.162 F762
G3 X168.100 Y-47.338 Z-2.305 I0.000 J0.162 F762
G3 X168.100 Y-47.662 Z-2.323 I0.000 J-0.162 F762
G3 X168.100 Y-47.338 Z-2.341 I0.000 J0.162 F762
G3 X168.100 Y-47.662 Z-2.359 I0.000 J-0.162 F762
G3 X168.100 Y-47.338 Z-2.377 I0.000 J0.162 F762
G3 X168.100 Y-47.662 Z-2.394 I0.000 J-0.162 F762
G3 X168.235 Y-47.590 Z-2.400 I0.000 J0.162 F762
G3 X167.965 Y-47.410 Z-2.400 I-0.135 J0.090 F2540
G3 X168.235 Y-47.590 Z-2.400 I0.135 J-0.090 F2540
G3 X167.965 Y-47.410 Z-2.418 I-0.135 J0.090 F762
G3 X168.235 Y-47.590 Z-2.436 I0.135 J-0.090 F762
G3 X167.965 Y-47.410 Z-2.453 I-0.135 J0.090 F762
G3 X168.235 Y-47.590 Z-2.471 I0.135 J-0.090 F762
G3 X167.965 Y-47.410 Z-2.489 I-0.135 J0.090 F762
G3 X168.235 Y-47.590 Z-2.507 I0.135 J-0.090 F762
G3 X167.965 Y-47.410 Z-2.525 I-0.135 J0.090 F762
G3 X168.235 Y-47.590 Z-2.543 I0.135 J-0.090 F762
G3 X167.965 Y-47.410 Z-2.560 I-0.135 J0.090 F762
G3 X168.235 Y-47.590 Z-2.578 I0.135 J-0.090 F762
G3 X167.965 Y-47.410 Z-2.596 I-0.135 J0.090 F762
G3 X168.235 Y-47.590 Z-2.614 I0.135 J-0.090 F762
G3 X167.965 Y-47.410 Z-2.632 I-0.135 J0.090 F762
G3 X168.235 Y-47.590 Z-2.650 I0.135 J-0.090 F762
G3 X167.965 Y-47.410 Z-2.667 I-0.135 J0.090 F762
G3 X168.235 Y-47.590 Z-2.685 I0.135 J-0.090 F762
G3 X167.965 Y-47.410 Z-2.703 I-0.135 J0.090 F762
G3 X168.235 Y-47.590 Z-2.721 I0.135 J-0.090 F762
G3 X167.965 Y-47.410 Z-2.739 I-0.135 J0.090 F762
G3 X168.235 Y-47.590 Z-2.757 I0.135 J-0.090 F762
G3 X167.965 Y-47.410 Z-2.774 I-0.135 J0.090 F762
G3 X168.235 Y-47.590 Z-2.792 I0.135 J-0.090 F762
G3 X167.965 Y-47.410 Z-2.810 I-0.135 J0.090 F762
G3 X168.235 Y-47.590 Z-2.828 I0.135 J-0.090 F762
G3 X167.965 Y-47.410 Z-2.846 I-0.135 J0.090 F762
G3 X168.235 Y-47.590 Z-2.864 I0.135 J-0.090 F762
G3 X167.965 Y-47.410 Z-2.881 I-0.135 J0.090 F762
G3 X168.235 Y-47.590 Z-2.899 I0.135 J-0.090 F762
G3 X167.965 Y-47.410 Z-2.917 I-0.135 J0.090 F762
G3 X168.235 Y-47.590 Z-2.935 I0.135 J-0.090 F762
G3 X167.965 Y-47.410 Z-2.953 I-0.135 J0.090 F762
G3 X168.235 Y-47.590 Z-2.970 I0.135 J-0.090 F762
G3 X167.965 Y-47.410 Z-2.988 I-0.135 J0.090 F762
G3 X168.235 Y-47.590 Z-3.006 I0.135 J-0.090 F762
G3 X167.965 Y-47.410 Z-3.024 I-0.135 J0.090 F762
G3 X168.235 Y-47.590 Z-3.042 I0.135 J-0.090 F762
G3 X167.965 Y-47.410 Z-3.060 I-0.135 J0.090 F762
G3 X168.235 Y-47.590 Z-3.077 I0.135 J-0.090 F762
G3 X167.965 Y-47.410 Z-3.095 I-0.135 J0.090 F762
G3 X168.235 Y-47.590 Z-3.113 I0.135 J-0.090 F762
G3 X167.965 Y-47.410 Z-3.131 I-0.135 J0.090 F762
G3 X168.235 Y-47.590 Z-3.149 I0.135 J-0.090 F762
G3 X167.965 Y-47.410 Z-3.167 I-0.135 J0.090 F762
G3 X168.235 Y-47.590 Z-3.184 I0.135 J-0.090 F762
G3 X167.965 Y-47.410 Z-3.202 I-0.135 J0.090 F762
G3 X168.235 Y-47.590 Z-3.220 I0.135 J-0.090 F762
G3 X167.965 Y-47.410 Z-3.238 I-0.135 J0.090 F762
G3 X168.235 Y-47.590 Z-3.256 I0.135 J-0.090 F762
G3 X167.965 Y-47.410 Z-3.274 I-0.135 J0.090 F762
G3 X168.235 Y-47.590 Z-3.291 I0.135 J-0.090 F762
G3 X167.965 Y-47.410 Z-3.309 I-0.135 J0.090 F762
G3 X168.235 Y-47.590 Z-3.327 I0.135 J-0.090 F762
G3 X167.965 Y-47.410 Z-3.345 I-0.135 J0.090 F762
G3 X168.235 Y-47.590 Z-3.363 I0.135 J-0.090 F762
G3 X167.965 Y-47.410 Z-3.381 I-0.135 J0.090 F762
G3 X168.235 Y-47.590 Z-3.398 I0.135 J-0.090 F762
G3 X167.965 Y-47.410 Z-3.416 I-0.135 J0.090 F762
G3 X168.235 Y-47.590 Z-3.434 I0.135 J-0.090 F762
G3 X167.965 Y-47.410 Z-3.452 I-0.135 J0.090 F762
G3 X168.235 Y-47.590 Z-3.470 I0.135 J-0.090 F762
G3 X167.965 Y-47.410 Z-3.487 I-0.135 J0.090 F762
G3 X168.235 Y-47.590 Z-3.505 I0.135 J-0.090 F762
G3 X167.965 Y-47.410 Z-3.523 I-0.135 J0.090 F762
G3 X168.235 Y-47.590 Z-3.541 I0.135 J-0.090 F762
G3 X167.965 Y-47.410 Z-3.559 I-0.135 J0.090 F762
G3 X168.235 Y-47.590 Z-3.577 I0.135 J-0.090 F762
G3 X167.965 Y-47.410 Z-3.594 I-0.135 J0.090 F762
G3 X167.950 Y-47.562 Z-3.600 I0.135 J-0.090 F762
G3 X168.250 Y-47.438 Z-3.600 I0.150 J0.062 F2540
G3 X167.950 Y-47.562 Z-3.600 I-0.150 J-0.062 F2540
G3 X168.250 Y-47.438 Z-3.618 I0.150 J0.062 F762
G3 X167.950 Y-47.562 Z-3.636 I-0.150 J-0.062 F762
G3 X168.250 Y-47.438 Z-3.653 I0.150 J0.062 F762
G3 X167.950 Y-47.562 Z-3.671 I-0.150 J-0.062 F762
G3 X168.250 Y-47.438 Z-3.689 I0.150 J0.062 F762
G3 X167.950 Y-47.562 Z-3.707 I-0.150 J-0.062 F762
G3 X168.250 Y-47.438 Z-3.725 I0.150 J0.062 F762
G3 X167.950 Y-47.562 Z-3.743 I-0.150 J-0.062 F762
G3 X168.250 Y-47.438 Z-3.760 I0.150 J0.062 F762
G3 X167.950 Y-47.562 Z-3.778 I-0.150 J-0.062 F762
G3 X168.250 Y-47.438 Z-3.796 I0.150 J0.062 F762
G3 X167.950 Y-47.562 Z-3.814 I-0.150 J-0.062 F762
G3 X168.250 Y-47.438 Z-3.832 I0.150 J0.062 F762
G3 X167.950 Y-47.562 Z-3.850 I-0.150 J-0.062 F762
G3 X168.250 Y-47.438 Z-3.867 I0.150 J0.062 F762
G3 X167.950 Y-47.562 Z-3.885 I-0.150 J-0.062 F762
G3 X168.250 Y-47.438 Z-3.903 I0.150 J0.062 F762
G3 X167.950 Y-47.562 Z-3.921 I-0.150 J-0.062 F762
G3 X168.250 Y-47.438 Z-3.939 I0.150 J0.062 F762
G3 X167.950 Y-47.562 Z-3.957 I-0.150 J-0.062 F762
G3 X168.250 Y-47.438 Z-3.974 I0.150 J0.062 F762
G3 X167.950 Y-47.562 Z-3.992 I-0.150 J-0.062 F762
G3 X168.250 Y-47.438 Z-4.010 I0.150 J0.062 F762
G3 X167.950 Y-47.562 Z-4.028 I-0.150 J-0.062 F762
G3 X168.250 Y-47.438 Z-4.046 I0.150 J0.062 F762
G3 X167.950 Y-47.562 Z-4.064 I-0.150 J-0.062 F762
G3 X168.250 Y-47.438 Z-4.081 I0.150 J0.062 F762
G3 X167.950 Y-47.562 Z-4.099 I-0.150 J-0.062 F762
G3 X168.250 Y-47.438 Z-4.117 I0.150 J0.062 F762
G3 X167.950 Y-47.562 Z-4.135 I-0.150 J-0.062 F762
G3 X168.250 Y-47.438 Z-4.153 I0.150 J0.062 F762
G3 X167.950 Y-47.562 Z-4.170 I-0.150 J-0.062 F762
G3 X168.250 Y-47.438 Z-4.188 I0.150 J0.062 F762
G3 X167.950 Y-47.562 Z-4.206 I-0.150 J-0.062 F762
G3 X168.250 Y-47.438 Z-4.224 I0.150 J0.062 F762
G3 X167.950 Y-47.562 Z-4.242 I-0.150 J-0.062 F762
G3 X168.250 Y-47.438 Z-4.260 I0.150 J0.062 F762
G3 X167.950 Y-47.562 Z-4.277 I-0.150 J-0.062 F762
G3 X168.250 Y-47.438 Z-4.295 I0.150 J0.062 F762
G3 X167.950 Y-47.562 Z-4.313 I-0.150 J-0.062 F762
G3 X168.250 Y-47.438 Z-4.331 I0.150 J0.062 F762
G3 X167.950 Y-47.562 Z-4.349 I-0.150 J-0.062 F762
G3 X168.250 Y-47.438 Z-4.367 I0.150 J0.062 F762
G3 X167.950 Y-47.562 Z-4.384 I-0.150 J-0.062 F762
G3 X168.250 Y-47.438 Z-4.402 I0.150 J0.062 F762
G3 X167.950 Y-47.562 Z-4.420 I-0.150 J-0.062 F762
G3 X168.250 Y-47.438 Z-4.438 I0.150 J0.062 F762
G3 X167.950 Y-47.562 Z-4.456 I-0.150 J-0.062 F762
G3 X168.250 Y-47.438 Z-4.474 I0.150 J0.062 F762
G3 X167.950 Y-47.562 Z-4.491 I-0.150 J-0.062 F762
G3 X168.154 Y-47.653 Z-4.500 I0.150 J0.062 F762
G3 X168.046 Y-47.347 Z-4.500 I-0.054 J0.153 F2540
G3 X168.154 Y-47.653 Z-4.500 I0.054 J-0.153 F2540
G1 X168.154 Y-47.653 Z15.000 F2540
