(back_engraving)
(Machine)
(  vendor: Ooznest)
(  model: Workbee 1000x1500)
(  description: This machine has YXZ axis on the Head)
G21
G90
(When using Fusion 360 for Personal Use, the feedrate of)
(rapid moves is reduced to match the feedrate of cutting)
(moves, which can increase machining time. Unrestricted rapid)
(moves are available with a Fusion 360 Subscription.)

(Trace2)
G0 X34.025 Y-56.908 Z15.000
G1 X34.025 Y-56.908 Z15.000 F1000
G1 X34.025 Y-56.908 Z5.000 F1000
G1 X34.025 Y-56.908 Z-0.300 F333.3
G1 X32.465 Y-56.908 Z-0.300 F1000
G1 X32.465 Y-53.397 Z-0.300 F1000
G1 X32.465 Y-53.397 Z5.000 F1000
G1 X35.195 Y-53.397 Z5.000 F1000
G1 X35.195 Y-53.397 Z-0.300 F333.3
G1 X35.195 Y-56.908 Z-0.300 F1000
G1 X35.195 Y-56.908 Z5.000 F1000
G1 X39.485 Y-55.542 Z5.000 F1000
G1 X39.485 Y-55.542 Z-0.300 F333.3
G1 X41.435 Y-53.397 Z-0.300 F1000
G1 X41.435 Y-53.397 Z5.000 F1000
G1 X39.485 Y-53.397 Z5.000 F1000
G1 X39.485 Y-53.397 Z-0.300 F333.3
G1 X39.485 Y-56.908 Z-0.300 F1000
G1 X39.485 Y-56.908 Z5.000 F1000
G1 X41.455 Y-56.908 Z5.000 F1000
G1 X41.455 Y-56.908 Z-0.300 F333.3
G1 X40.236 Y-54.714 Z-0.300 F1000
G1 X40.236 Y-54.714 Z5.000 F1000
G1 X38.315 Y-53.397 Z5.000 F1000
G1 X38.315 Y-53.397 Z-0.300 F333.3
G1 X38.315 Y-56.908 Z-0.300 F1000
G1 X36.365 Y-53.397 Z-0.300 F1000
G1 X36.365 Y-56.908 Z-0.300 F1000
G1 X36.365 Y-56.908 Z5.000 F1000
G1 X42.625 Y-56.908 Z5.000 F1000
G1 X42.625 Y-56.908 Z-0.300 F333.3
G1 X43.795 Y-53.397 Z-0.300 F1000
G1 X44.965 Y-56.908 Z-0.300 F1000
G1 X44.965 Y-56.908 Z5.000 F1000
G1 X42.966 Y-55.932 Z5.000 F1000
G1 X42.966 Y-55.932 Z-0.300 F333.3
G1 X44.624 Y-55.932 Z-0.300 F1000
G1 X44.624 Y-55.932 Z5.000 F1000
G1 X47.695 Y-56.908 Z5.000 F1000
G1 X47.695 Y-56.908 Z-0.300 F333.3
G1 X48.865 Y-53.397 Z-0.300 F1000
G1 X50.035 Y-56.908 Z-0.300 F1000
G1 X50.035 Y-56.908 Z5.000 F1000
G1 X48.036 Y-55.932 Z5.000 F1000
G1 X48.036 Y-55.932 Z-0.300 F333.3
G1 X49.694 Y-55.932 Z-0.300 F1000
G1 X49.694 Y-55.932 Z5.000 F1000
G1 X23.000 Y-75.000 Z5.000 F1000
G1 X23.000 Y-75.000 Z-0.300 F333.3
G1 X22.664 Y-74.981 Z-0.300 F1000
G1 X22.332 Y-74.925 Z-0.300 F1000
G1 X22.009 Y-74.832 Z-0.300 F1000
G1 X21.698 Y-74.703 Z-0.300 F1000
G1 X21.404 Y-74.540 Z-0.300 F1000
G1 X21.129 Y-74.345 Z-0.300 F1000
G1 X20.879 Y-74.121 Z-0.300 F1000
G1 X20.654 Y-73.870 Z-0.300 F1000
G1 X20.460 Y-73.596 Z-0.300 F1000
G1 X20.297 Y-73.302 Z-0.300 F1000
G1 X20.168 Y-72.991 Z-0.300 F1000
G1 X20.075 Y-72.668 Z-0.300 F1000
G1 X20.019 Y-72.336 Z-0.300 F1000
G1 X20.000 Y-72.000 Z-0.300 F1000
G1 X20.000 Y-23.000 Z-0.300 F1000
G1 X20.019 Y-22.664 Z-0.300 F1000
G1 X20.075 Y-22.332 Z-0.300 F1000
G1 X20.168 Y-22.009 Z-0.300 F1000
G1 X20.297 Y-21.698 Z-0.300 F1000
G1 X20.460 Y-21.404 Z-0.300 F1000
G1 X20.654 Y-21.129 Z-0.300 F1000
G1 X20.879 Y-20.879 Z-0.300 F1000
G1 X21.129 Y-20.654 Z-0.300 F1000
G1 X21.404 Y-20.460 Z-0.300 F1000
G1 X21.698 Y-20.297 Z-0.300 F1000
G1 X22.009 Y-20.168 Z-0.300 F1000
G1 X22.332 Y-20.075 Z-0.300 F1000
G1 X22.664 Y-20.019 Z-0.300 F1000
G1 X23.000 Y-20.000 Z-0.300 F1000
G1 X107.500 Y-20.000 Z-0.300 F1000
G1 X107.836 Y-20.019 Z-0.300 F1000
G1 X108.168 Y-20.075 Z-0.300 F1000
G1 X108.491 Y-20.168 Z-0.300 F1000
G1 X108.802 Y-20.297 Z-0.300 F1000
G1 X109.096 Y-20.460 Z-0.300 F1000
G1 X109.370 Y-20.654 Z-0.300 F1000
G1 X109.621 Y-20.879 Z-0.300 F1000
G1 X109.845 Y-21.129 Z-0.300 F1000
G1 X110.040 Y-21.404 Z-0.300 F1000
G1 X110.203 Y-21.698 Z-0.300 F1000
G1 X110.332 Y-22.009 Z-0.300 F1000
G1 X110.425 Y-22.332 Z-0.300 F1000
G1 X110.481 Y-22.664 Z-0.300 F1000
G1 X110.500 Y-23.000 Z-0.300 F1000
G1 X110.500 Y-72.000 Z-0.300 F1000
G1 X110.481 Y-72.336 Z-0.300 F1000
G1 X110.425 Y-72.668 Z-0.300 F1000
G1 X110.332 Y-72.991 Z-0.300 F1000
G1 X110.203 Y-73.302 Z-0.300 F1000
G1 X110.040 Y-73.596 Z-0.300 F1000
G1 X109.845 Y-73.870 Z-0.300 F1000
G1 X109.621 Y-74.121 Z-0.300 F1000
G1 X109.370 Y-74.345 Z-0.300 F1000
G1 X109.096 Y-74.540 Z-0.300 F1000
G1 X108.802 Y-74.703 Z-0.300 F1000
G1 X108.491 Y-74.832 Z-0.300 F1000
G1 X108.168 Y-74.925 Z-0.300 F1000
G1 X107.836 Y-74.981 Z-0.300 F1000
G1 X107.500 Y-75.000 Z-0.300 F1000
G1 X23.000 Y-75.000 Z-0.300 F1000
G1 X23.000 Y-75.000 Z5.000 F1000
G1 X82.220 Y-56.908 Z5.000 F1000
G1 X82.220 Y-56.908 Z-0.300 F333.3
G1 X80.660 Y-56.908 Z-0.300 F1000
G1 X80.660 Y-53.397 Z-0.300 F1000
G1 X80.660 Y-53.397 Z5.000 F1000
G1 X83.390 Y-53.397 Z5.000 F1000
G1 X83.390 Y-53.397 Z-0.300 F333.3
G1 X83.390 Y-56.908 Z-0.300 F1000
G1 X83.390 Y-56.908 Z5.000 F1000
G1 X87.680 Y-55.542 Z5.000 F1000
G1 X87.680 Y-55.542 Z-0.300 F333.3
G1 X89.630 Y-53.397 Z-0.300 F1000
G1 X89.630 Y-53.397 Z5.000 F1000
G1 X87.680 Y-53.397 Z5.000 F1000
G1 X87.680 Y-53.397 Z-0.300 F333.3
G1 X87.680 Y-56.908 Z-0.300 F1000
G1 X87.680 Y-56.908 Z5.000 F1000
G1 X89.650 Y-56.908 Z5.000 F1000
G1 X89.650 Y-56.908 Z-0.300 F333.3
G1 X88.431 Y-54.714 Z-0.300 F1000
G1 X88.431 Y-54.714 Z5.000 F1000
G1 X86.510 Y-53.397 Z5.000 F1000
G1 X86.510 Y-53.397 Z-0.300 F333.3
G1 X86.510 Y-56.908 Z-0.300 F1000
G1 X84.560 Y-53.397 Z-0.300 F1000
G1 X84.560 Y-56.908 Z-0.300 F1000
G1 X84.560 Y-56.908 Z5.000 F1000
G1 X90.820 Y-56.908 Z5.000 F1000
G1 X90.820 Y-56.908 Z-0.300 F333.3
G1 X91.990 Y-53.397 Z-0.300 F1000
G1 X93.160 Y-56.908 Z-0.300 F1000
G1 X93.160 Y-56.908 Z5.000 F1000
G1 X91.161 Y-55.932 Z5.000 F1000
G1 X91.161 Y-55.932 Z-0.300 F333.3
G1 X92.818 Y-55.932 Z-0.300 F1000
G1 X92.818 Y-55.932 Z5.000 F1000
G1 X95.890 Y-54.958 Z5.000 F1000
G1 X95.890 Y-54.958 Z-0.300 F333.3
G1 X96.865 Y-54.958 Z-0.300 F1000
G1 X97.055 Y-54.976 Z-0.300 F1000
G1 X97.238 Y-55.032 Z-0.300 F1000
G1 X97.406 Y-55.122 Z-0.300 F1000
G1 X97.554 Y-55.243 Z-0.300 F1000
G1 X97.675 Y-55.391 Z-0.300 F1000
G1 X97.766 Y-55.559 Z-0.300 F1000
G1 X97.821 Y-55.742 Z-0.300 F1000
G1 X97.840 Y-55.932 Z-0.300 F1000
G1 X97.821 Y-56.123 Z-0.300 F1000
G1 X97.766 Y-56.306 Z-0.300 F1000
G1 X97.675 Y-56.474 Z-0.300 F1000
G1 X97.554 Y-56.622 Z-0.300 F1000
G1 X97.406 Y-56.743 Z-0.300 F1000
G1 X97.238 Y-56.833 Z-0.300 F1000
G1 X97.055 Y-56.889 Z-0.300 F1000
G1 X96.865 Y-56.908 Z-0.300 F1000
G1 X95.890 Y-56.908 Z-0.300 F1000
G1 X95.890 Y-53.397 Z-0.300 F1000
G1 X96.865 Y-53.397 Z-0.300 F1000
G1 X97.038 Y-53.417 Z-0.300 F1000
G1 X97.203 Y-53.475 Z-0.300 F1000
G1 X97.351 Y-53.568 Z-0.300 F1000
G1 X97.475 Y-53.691 Z-0.300 F1000
G1 X97.567 Y-53.839 Z-0.300 F1000
G1 X97.625 Y-54.004 Z-0.300 F1000
G1 X97.645 Y-54.178 Z-0.300 F1000
G1 X97.625 Y-54.351 Z-0.300 F1000
G1 X97.567 Y-54.516 Z-0.300 F1000
G1 X97.475 Y-54.664 Z-0.300 F1000
G1 X97.351 Y-54.787 Z-0.300 F1000
G1 X97.203 Y-54.880 Z-0.300 F1000
G1 X97.038 Y-54.938 Z-0.300 F1000
G1 X96.865 Y-54.958 Z-0.300 F1000
G1 X96.865 Y-54.958 Z5.000 F1000
G1 X120.500 Y-72.000 Z5.000 F1000
G1 X120.500 Y-72.000 Z-0.300 F333.3
G1 X120.519 Y-72.336 Z-0.300 F1000
G1 X120.575 Y-72.668 Z-0.300 F1000
G1 X120.668 Y-72.991 Z-0.300 F1000
G1 X120.797 Y-73.302 Z-0.300 F1000
G1 X120.960 Y-73.596 Z-0.300 F1000
G1 X121.155 Y-73.870 Z-0.300 F1000
G1 X121.379 Y-74.121 Z-0.300 F1000
G1 X121.630 Y-74.345 Z-0.300 F1000
G1 X121.904 Y-74.540 Z-0.300 F1000
G1 X122.198 Y-74.703 Z-0.300 F1000
G1 X122.509 Y-74.832 Z-0.300 F1000
G1 X122.832 Y-74.925 Z-0.300 F1000
G1 X123.164 Y-74.981 Z-0.300 F1000
G1 X123.500 Y-75.000 Z-0.300 F1000
G1 X208.000 Y-75.000 Z-0.300 F1000
G1 X208.336 Y-74.981 Z-0.300 F1000
G1 X208.668 Y-74.925 Z-0.300 F1000
G1 X208.991 Y-74.832 Z-0.300 F1000
G1 X209.302 Y-74.703 Z-0.300 F1000
G1 X209.596 Y-74.540 Z-0.300 F1000
G1 X209.870 Y-74.345 Z-0.300 F1000
G1 X210.121 Y-74.121 Z-0.300 F1000
G1 X210.345 Y-73.870 Z-0.300 F1000
G1 X210.540 Y-73.596 Z-0.300 F1000
G1 X210.703 Y-73.302 Z-0.300 F1000
G1 X210.832 Y-72.991 Z-0.300 F1000
G1 X210.925 Y-72.668 Z-0.300 F1000
G1 X210.981 Y-72.336 Z-0.300 F1000
G1 X211.000 Y-72.000 Z-0.300 F1000
G1 X211.000 Y-23.000 Z-0.300 F1000
G1 X210.981 Y-22.664 Z-0.300 F1000
G1 X210.925 Y-22.332 Z-0.300 F1000
G1 X210.832 Y-22.009 Z-0.300 F1000
G1 X210.703 Y-21.698 Z-0.300 F1000
G1 X210.540 Y-21.404 Z-0.300 F1000
G1 X210.345 Y-21.129 Z-0.300 F1000
G1 X210.121 Y-20.879 Z-0.300 F1000
G1 X209.870 Y-20.654 Z-0.300 F1000
G1 X209.596 Y-20.460 Z-0.300 F1000
G1 X209.302 Y-20.297 Z-0.300 F1000
G1 X208.991 Y-20.168 Z-0.300 F1000
G1 X208.668 Y-20.075 Z-0.300 F1000
G1 X208.336 Y-20.019 Z-0.300 F1000
G1 X208.000 Y-20.000 Z-0.300 F1000
G1 X123.500 Y-20.000 Z-0.300 F1000
G1 X123.164 Y-20.019 Z-0.300 F1000
G1 X122.832 Y-20.075 Z-0.300 F1000
G1 X122.509 Y-20.168 Z-0.300 F1000
G1 X122.198 Y-20.297 Z-0.300 F1000
G1 X121.904 Y-20.460 Z-0.300 F1000
G1 X121.630 Y-20.654 Z-0.300 F1000
G1 X121.379 Y-20.879 Z-0.300 F1000
G1 X121.155 Y-21.129 Z-0.300 F1000
G1 X120.960 Y-21.404 Z-0.300 F1000
G1 X120.797 Y-21.698 Z-0.300 F1000
G1 X120.668 Y-22.009 Z-0.300 F1000
G1 X120.575 Y-22.332 Z-0.300 F1000
G1 X120.519 Y-22.664 Z-0.300 F1000
G1 X120.500 Y-23.000 Z-0.300 F1000
G1 X120.500 Y-72.000 Z-0.300 F1000
G1 X120.500 Y-72.000 Z5.000 F1000
G1 X178.185 Y-33.330 Z5.000 F1000
G1 X178.185 Y-33.330 Z-0.300 F333.3
G1 X178.250 Y-33.169 Z-0.300 F1000
G1 X178.349 Y-33.025 Z-0.300 F1000
G1 X178.476 Y-32.906 Z-0.300 F1000
G1 X178.626 Y-32.817 Z-0.300 F1000
G1 X178.792 Y-32.763 Z-0.300 F1000
G1 X178.965 Y-32.745 Z-0.300 F1000
G1 X179.130 Y-32.762 Z-0.300 F1000
G1 X179.287 Y-32.814 Z-0.300 F1000
G1 X179.430 Y-32.897 Z-0.300 F1000
G1 X179.552 Y-33.009 Z-0.300 F1000
G1 X179.648 Y-33.144 Z-0.300 F1000
G1 X179.712 Y-33.297 Z-0.300 F1000
G1 X179.744 Y-33.459 Z-0.300 F1000
G1 X179.739 Y-33.625 Z-0.300 F1000
G1 X179.700 Y-33.786 Z-0.300 F1000
G1 X179.628 Y-33.935 Z-0.300 F1000
G1 X178.185 Y-36.255 Z-0.300 F1000
G1 X179.745 Y-36.255 Z-0.300 F1000
G1 X179.745 Y-36.255 Z5.000 F1000
G1 X181.695 Y-34.305 Z5.000 F1000
G1 X181.695 Y-34.305 Z-0.300 F333.3
G1 X181.869 Y-34.325 Z-0.300 F1000
G1 X182.033 Y-34.383 Z-0.300 F1000
G1 X182.181 Y-34.476 Z-0.300 F1000
G1 X182.305 Y-34.599 Z-0.300 F1000
G1 X182.398 Y-34.747 Z-0.300 F1000
G1 X182.455 Y-34.912 Z-0.300 F1000
G1 X182.475 Y-35.085 Z-0.300 F1000
G1 X182.475 Y-35.475 Z-0.300 F1000
G1 X182.455 Y-35.649 Z-0.300 F1000
G1 X182.398 Y-35.814 Z-0.300 F1000
G1 X182.305 Y-35.962 Z-0.300 F1000
G1 X182.181 Y-36.085 Z-0.300 F1000
G1 X182.033 Y-36.178 Z-0.300 F1000
G1 X181.869 Y-36.236 Z-0.300 F1000
G1 X181.695 Y-36.255 Z-0.300 F1000
G1 X180.915 Y-36.255 Z-0.300 F1000
G1 X180.915 Y-36.255 Z5.000 F1000
G1 X182.865 Y-37.945 Z5.000 F1000
G1 X182.865 Y-37.945 Z-0.300 F333.3
G1 X181.500 Y-37.945 Z-0.300 F1000
G1 X181.500 Y-39.505 Z-0.300 F1000
G1 X182.280 Y-39.505 Z-0.300 F1000
G1 X182.454 Y-39.525 Z-0.300 F1000
G1 X182.618 Y-39.583 Z-0.300 F1000
G1 X182.766 Y-39.676 Z-0.300 F1000
G1 X182.890 Y-39.799 Z-0.300 F1000
G1 X182.983 Y-39.947 Z-0.300 F1000
G1 X183.040 Y-40.112 Z-0.300 F1000
G1 X183.060 Y-40.285 Z-0.300 F1000
G1 X183.060 Y-40.675 Z-0.300 F1000
G1 X183.040 Y-40.849 Z-0.300 F1000
G1 X182.983 Y-41.014 Z-0.300 F1000
G1 X182.890 Y-41.162 Z-0.300 F1000
G1 X182.766 Y-41.285 Z-0.300 F1000
G1 X182.618 Y-41.378 Z-0.300 F1000
G1 X182.454 Y-41.436 Z-0.300 F1000
G1 X182.280 Y-41.455 Z-0.300 F1000
G1 X181.500 Y-41.455 Z-0.300 F1000
G1 X181.500 Y-41.455 Z5.000 F1000
G1 X184.350 Y-40.592 Z5.000 F1000
G1 X184.350 Y-40.592 Z-0.300 F333.3
G1 X184.271 Y-40.240 Z-0.300 F1000
G1 X184.232 Y-39.881 Z-0.300 F1000
G1 X184.232 Y-39.520 Z-0.300 F1000
G1 X184.271 Y-39.161 Z-0.300 F1000
G1 X184.350 Y-38.809 Z-0.300 F1000
G1 X184.467 Y-38.467 Z-0.300 F1000
G1 X184.620 Y-38.140 Z-0.300 F1000
G1 X184.710 Y-38.048 Z-0.300 F1000
G1 X184.821 Y-37.982 Z-0.300 F1000
G1 X184.945 Y-37.948 Z-0.300 F1000
G1 X185.075 Y-37.948 Z-0.300 F1000
G1 X185.199 Y-37.982 Z-0.300 F1000
G1 X185.310 Y-38.048 Z-0.300 F1000
G1 X185.400 Y-38.140 Z-0.300 F1000
G1 X185.553 Y-38.467 Z-0.300 F1000
G1 X185.670 Y-38.809 Z-0.300 F1000
G1 X185.749 Y-39.161 Z-0.300 F1000
G1 X185.788 Y-39.520 Z-0.300 F1000
G1 X185.788 Y-39.881 Z-0.300 F1000
G1 X185.749 Y-40.240 Z-0.300 F1000
G1 X185.670 Y-40.592 Z-0.300 F1000
G1 X185.553 Y-40.934 Z-0.300 F1000
G1 X185.400 Y-41.260 Z-0.300 F1000
G1 X185.310 Y-41.353 Z-0.300 F1000
G1 X185.199 Y-41.419 Z-0.300 F1000
G1 X185.075 Y-41.453 Z-0.300 F1000
G1 X184.945 Y-41.453 Z-0.300 F1000
G1 X184.821 Y-41.419 Z-0.300 F1000
G1 X184.710 Y-41.353 Z-0.300 F1000
G1 X184.620 Y-41.260 Z-0.300 F1000
G1 X184.467 Y-40.934 Z-0.300 F1000
G1 X184.350 Y-40.592 Z-0.300 F1000
G1 X184.350 Y-40.592 Z5.000 F1000
G1 X188.520 Y-37.945 Z5.000 F1000
G1 X188.520 Y-37.945 Z-0.300 F333.3
G1 X188.520 Y-41.455 Z-0.300 F1000
G1 X188.520 Y-41.455 Z5.000 F1000
G1 X190.470 Y-41.455 Z5.000 F1000
G1 X190.470 Y-41.455 Z-0.300 F333.3
G1 X190.470 Y-37.945 Z-0.300 F1000
G1 X190.470 Y-37.945 Z5.000 F1000
G1 X190.470 Y-39.505 Z5.000 F1000
G1 X190.470 Y-39.505 Z-0.300 F333.3
G1 X188.520 Y-39.505 Z-0.300 F1000
G1 X188.520 Y-39.505 Z5.000 F1000
G1 X191.445 Y-36.255 Z5.000 F1000
G1 X191.445 Y-36.255 Z-0.300 F333.3
G1 X192.615 Y-32.745 Z-0.300 F1000
G1 X193.785 Y-36.255 Z-0.300 F1000
G1 X193.785 Y-36.255 Z5.000 F1000
G1 X191.786 Y-35.280 Z5.000 F1000
G1 X191.786 Y-35.280 Z-0.300 F333.3
G1 X193.444 Y-35.280 Z-0.300 F1000
G1 X193.444 Y-35.280 Z5.000 F1000
G1 X196.515 Y-36.255 Z5.000 F1000
G1 X196.515 Y-36.255 Z-0.300 F333.3
G1 X195.832 Y-36.255 Z-0.300 F1000
G1 X195.661 Y-36.238 Z-0.300 F1000
G1 X195.497 Y-36.189 Z-0.300 F1000
G1 X195.345 Y-36.107 Z-0.300 F1000
G1 X195.212 Y-35.998 Z-0.300 F1000
G1 X195.103 Y-35.865 Z-0.300 F1000
G1 X195.022 Y-35.714 Z-0.300 F1000
G1 X194.972 Y-35.549 Z-0.300 F1000
G1 X194.955 Y-35.378 Z-0.300 F1000
G1 X194.955 Y-33.623 Z-0.300 F1000
G1 X194.972 Y-33.452 Z-0.300 F1000
G1 X195.022 Y-33.287 Z-0.300 F1000
G1 X195.103 Y-33.135 Z-0.300 F1000
G1 X195.212 Y-33.002 Z-0.300 F1000
G1 X195.345 Y-32.893 Z-0.300 F1000
G1 X195.497 Y-32.812 Z-0.300 F1000
G1 X195.661 Y-32.762 Z-0.300 F1000
G1 X195.832 Y-32.745 Z-0.300 F1000
G1 X196.515 Y-32.745 Z-0.300 F1000
G1 X196.515 Y-32.745 Z5.000 F1000
G1 X190.275 Y-32.745 Z5.000 F1000
G1 X190.275 Y-32.745 Z-0.300 F333.3
G1 X189.105 Y-36.255 Z-0.300 F1000
G1 X187.935 Y-32.745 Z-0.300 F1000
G1 X187.935 Y-32.745 Z5.000 F1000
G1 X185.085 Y-33.609 Z5.000 F1000
G1 X185.085 Y-33.609 Z-0.300 F333.3
G1 X185.164 Y-33.961 Z-0.300 F1000
G1 X185.203 Y-34.320 Z-0.300 F1000
G1 X185.203 Y-34.681 Z-0.300 F1000
G1 X185.164 Y-35.040 Z-0.300 F1000
G1 X185.085 Y-35.392 Z-0.300 F1000
G1 X184.968 Y-35.734 Z-0.300 F1000
G1 X184.815 Y-36.060 Z-0.300 F1000
G1 X184.725 Y-36.153 Z-0.300 F1000
G1 X184.614 Y-36.219 Z-0.300 F1000
G1 X184.490 Y-36.253 Z-0.300 F1000
G1 X184.360 Y-36.253 Z-0.300 F1000
G1 X184.236 Y-36.219 Z-0.300 F1000
G1 X184.125 Y-36.153 Z-0.300 F1000
G1 X184.035 Y-36.060 Z-0.300 F1000
G1 X183.882 Y-35.734 Z-0.300 F1000
G1 X183.765 Y-35.392 Z-0.300 F1000
G1 X183.686 Y-35.040 Z-0.300 F1000
G1 X183.647 Y-34.681 Z-0.300 F1000
G1 X183.647 Y-34.320 Z-0.300 F1000
G1 X183.686 Y-33.961 Z-0.300 F1000
G1 X183.765 Y-33.609 Z-0.300 F1000
G1 X183.882 Y-33.267 Z-0.300 F1000
G1 X184.035 Y-32.940 Z-0.300 F1000
G1 X184.125 Y-32.848 Z-0.300 F1000
G1 X184.236 Y-32.782 Z-0.300 F1000
G1 X184.360 Y-32.748 Z-0.300 F1000
G1 X184.490 Y-32.748 Z-0.300 F1000
G1 X184.614 Y-32.782 Z-0.300 F1000
G1 X184.725 Y-32.848 Z-0.300 F1000
G1 X184.815 Y-32.940 Z-0.300 F1000
G1 X184.968 Y-33.267 Z-0.300 F1000
G1 X185.085 Y-33.609 Z-0.300 F1000
G1 X185.085 Y-33.609 Z5.000 F1000
G1 X180.915 Y-32.745 Z5.000 F1000
G1 X180.915 Y-32.745 Z-0.300 F333.3
G1 X181.695 Y-32.745 Z-0.300 F1000
G1 X181.869 Y-32.765 Z-0.300 F1000
G1 X182.033 Y-32.823 Z-0.300 F1000
G1 X182.181 Y-32.916 Z-0.300 F1000
G1 X182.305 Y-33.039 Z-0.300 F1000
G1 X182.398 Y-33.187 Z-0.300 F1000
G1 X182.455 Y-33.352 Z-0.300 F1000
G1 X182.475 Y-33.525 Z-0.300 F1000
G1 X182.455 Y-33.699 Z-0.300 F1000
G1 X182.398 Y-33.864 Z-0.300 F1000
G1 X182.305 Y-34.012 Z-0.300 F1000
G1 X182.181 Y-34.135 Z-0.300 F1000
G1 X182.033 Y-34.228 Z-0.300 F1000
G1 X181.869 Y-34.286 Z-0.300 F1000
G1 X181.695 Y-34.305 Z-0.300 F1000
G1 X181.305 Y-34.305 Z-0.300 F1000
G1 X181.305 Y-34.305 Z5.000 F1000
G1 X193.200 Y-41.455 Z5.000 F1000
G1 X193.200 Y-41.455 Z-0.300 F333.3
G1 X191.640 Y-41.455 Z-0.300 F1000
G1 X193.200 Y-39.115 Z-0.300 F1000
G1 X191.640 Y-39.115 Z-0.300 F1000
G1 X191.640 Y-39.115 Z5.000 F1000
G1 X191.435 Y-48.345 Z5.000 F1000
G1 X191.435 Y-48.345 Z-0.300 F333.3
G1 X189.485 Y-48.345 Z-0.300 F1000
G1 X189.485 Y-48.345 Z5.000 F1000
G1 X190.460 Y-48.345 Z5.000 F1000
G1 X190.460 Y-48.345 Z-0.300 F333.3
G1 X190.460 Y-51.855 Z-0.300 F1000
G1 X190.460 Y-51.855 Z5.000 F1000
G1 X192.605 Y-50.490 Z5.000 F1000
G1 X192.605 Y-50.490 Z-0.300 F333.3
G1 X194.555 Y-48.345 Z-0.300 F1000
G1 X194.555 Y-48.345 Z5.000 F1000
G1 X192.605 Y-48.345 Z5.000 F1000
G1 X192.605 Y-48.345 Z-0.300 F333.3
G1 X192.605 Y-51.855 Z-0.300 F1000
G1 X192.605 Y-51.855 Z5.000 F1000
G1 X194.575 Y-51.855 Z5.000 F1000
G1 X194.575 Y-51.855 Z-0.300 F333.3
G1 X193.356 Y-49.662 Z-0.300 F1000
G1 X193.356 Y-49.662 Z5.000 F1000
G1 X196.086 Y-50.880 Z5.000 F1000
G1 X196.086 Y-50.880 Z-0.300 F333.3
G1 X197.743 Y-50.880 Z-0.300 F1000
G1 X197.743 Y-50.880 Z5.000 F1000
G1 X195.745 Y-51.855 Z5.000 F1000
G1 X195.745 Y-51.855 Z-0.300 F333.3
G1 X196.915 Y-48.345 Z-0.300 F1000
G1 X198.085 Y-51.855 Z-0.300 F1000
G1 X198.085 Y-51.855 Z5.000 F1000
G1 X195.345 Y-57.185 Z5.000 F1000
G1 X195.345 Y-57.185 Z-0.300 F333.3
G1 X194.565 Y-57.770 Z-0.300 F1000
G1 X194.565 Y-57.770 Z5.000 F1000
G1 X192.810 Y-57.055 Z5.000 F1000
G1 X192.810 Y-57.055 Z-0.300 F333.3
G1 X193.980 Y-53.545 Z-0.300 F1000
G1 X195.150 Y-57.055 Z-0.300 F1000
G1 X195.150 Y-57.055 Z5.000 F1000
G1 X193.151 Y-56.080 Z5.000 F1000
G1 X193.151 Y-56.080 Z-0.300 F333.3
G1 X194.809 Y-56.080 Z-0.300 F1000
G1 X194.809 Y-56.080 Z5.000 F1000
G1 X190.470 Y-54.715 Z5.000 F1000
G1 X190.470 Y-54.715 Z-0.300 F333.3
G1 X190.470 Y-57.055 Z-0.300 F1000
G1 X190.470 Y-57.055 Z5.000 F1000
G1 X189.300 Y-57.055 Z5.000 F1000
G1 X189.300 Y-57.055 Z-0.300 F333.3
G1 X189.300 Y-54.715 Z-0.300 F1000
G1 X190.957 Y-54.715 Z-0.300 F1000
G1 X191.109 Y-54.732 Z-0.300 F1000
G1 X191.254 Y-54.783 Z-0.300 F1000
G1 X191.383 Y-54.864 Z-0.300 F1000
G1 X191.491 Y-54.972 Z-0.300 F1000
G1 X191.572 Y-55.102 Z-0.300 F1000
G1 X191.623 Y-55.246 Z-0.300 F1000
G1 X191.640 Y-55.398 Z-0.300 F1000
G1 X191.640 Y-57.055 Z-0.300 F1000
G1 X191.640 Y-57.055 Z5.000 F1000
G1 X189.885 Y-60.305 Z5.000 F1000
G1 X189.885 Y-60.305 Z-0.300 F333.3
G1 X187.935 Y-60.305 Z-0.300 F1000
G1 X187.935 Y-60.305 Z5.000 F1000
G1 X187.935 Y-58.745 Z5.000 F1000
G1 X187.935 Y-58.745 Z-0.300 F333.3
G1 X187.935 Y-62.255 Z-0.300 F1000
G1 X187.935 Y-62.255 Z5.000 F1000
G1 X186.765 Y-62.255 Z5.000 F1000
G1 X186.765 Y-62.255 Z-0.300 F333.3
G1 X186.083 Y-62.255 Z-0.300 F1000
G1 X185.911 Y-62.238 Z-0.300 F1000
G1 X185.747 Y-62.189 Z-0.300 F1000
G1 X185.595 Y-62.107 Z-0.300 F1000
G1 X185.462 Y-61.998 Z-0.300 F1000
G1 X185.353 Y-61.865 Z-0.300 F1000
G1 X185.272 Y-61.714 Z-0.300 F1000
G1 X185.222 Y-61.549 Z-0.300 F1000
G1 X185.205 Y-61.378 Z-0.300 F1000
G1 X185.205 Y-59.623 Z-0.300 F1000
G1 X185.222 Y-59.452 Z-0.300 F1000
G1 X185.272 Y-59.287 Z-0.300 F1000
G1 X185.353 Y-59.135 Z-0.300 F1000
G1 X185.462 Y-59.002 Z-0.300 F1000
G1 X185.595 Y-58.893 Z-0.300 F1000
G1 X185.747 Y-58.812 Z-0.300 F1000
G1 X185.911 Y-58.762 Z-0.300 F1000
G1 X186.083 Y-58.745 Z-0.300 F1000
G1 X186.765 Y-58.745 Z-0.300 F1000
G1 X186.765 Y-58.745 Z5.000 F1000
G1 X185.979 Y-57.019 Z5.000 F1000
G1 X185.979 Y-57.019 Z-0.300 F333.3
G1 X185.855 Y-57.053 Z-0.300 F1000
G1 X185.725 Y-57.053 Z-0.300 F1000
G1 X185.601 Y-57.019 Z-0.300 F1000
G1 X185.490 Y-56.953 Z-0.300 F1000
G1 X185.400 Y-56.860 Z-0.300 F1000
G1 X185.247 Y-56.534 Z-0.300 F1000
G1 X185.130 Y-56.192 Z-0.300 F1000
G1 X185.051 Y-55.840 Z-0.300 F1000
G1 X185.012 Y-55.481 Z-0.300 F1000
G1 X185.012 Y-55.120 Z-0.300 F1000
G1 X185.051 Y-54.761 Z-0.300 F1000
G1 X185.130 Y-54.409 Z-0.300 F1000
G1 X185.247 Y-54.067 Z-0.300 F1000
G1 X185.400 Y-53.740 Z-0.300 F1000
G1 X185.490 Y-53.648 Z-0.300 F1000
G1 X185.601 Y-53.582 Z-0.300 F1000
G1 X185.725 Y-53.548 Z-0.300 F1000
G1 X185.855 Y-53.548 Z-0.300 F1000
G1 X185.979 Y-53.582 Z-0.300 F1000
G1 X186.090 Y-53.648 Z-0.300 F1000
G1 X186.180 Y-53.740 Z-0.300 F1000
G1 X186.333 Y-54.067 Z-0.300 F1000
G1 X186.450 Y-54.409 Z-0.300 F1000
G1 X186.529 Y-54.761 Z-0.300 F1000
G1 X186.568 Y-55.120 Z-0.300 F1000
G1 X186.568 Y-55.481 Z-0.300 F1000
G1 X186.529 Y-55.840 Z-0.300 F1000
G1 X186.450 Y-56.192 Z-0.300 F1000
G1 X186.333 Y-56.534 Z-0.300 F1000
G1 X186.180 Y-56.860 Z-0.300 F1000
G1 X186.090 Y-56.953 Z-0.300 F1000
G1 X185.979 Y-57.019 Z-0.300 F1000
G1 X185.979 Y-57.019 Z5.000 F1000
G1 X183.720 Y-56.192 Z5.000 F1000
G1 X183.720 Y-56.192 Z-0.300 F333.3
G1 X183.603 Y-56.534 Z-0.300 F1000
G1 X183.450 Y-56.860 Z-0.300 F1000
G1 X183.360 Y-56.953 Z-0.300 F1000
G1 X183.249 Y-57.019 Z-0.300 F1000
G1 X183.125 Y-57.053 Z-0.300 F1000
G1 X182.995 Y-57.053 Z-0.300 F1000
G1 X182.871 Y-57.019 Z-0.300 F1000
G1 X182.760 Y-56.953 Z-0.300 F1000
G1 X182.670 Y-56.860 Z-0.300 F1000
G1 X182.517 Y-56.534 Z-0.300 F1000
G1 X182.400 Y-56.192 Z-0.300 F1000
G1 X182.321 Y-55.840 Z-0.300 F1000
G1 X182.282 Y-55.481 Z-0.300 F1000
G1 X182.282 Y-55.120 Z-0.300 F1000
G1 X182.321 Y-54.761 Z-0.300 F1000
G1 X182.400 Y-54.409 Z-0.300 F1000
G1 X182.517 Y-54.067 Z-0.300 F1000
G1 X182.670 Y-53.740 Z-0.300 F1000
G1 X182.760 Y-53.648 Z-0.300 F1000
G1 X182.871 Y-53.582 Z-0.300 F1000
G1 X182.995 Y-53.548 Z-0.300 F1000
G1 X183.125 Y-53.548 Z-0.300 F1000
G1 X183.249 Y-53.582 Z-0.300 F1000
G1 X183.360 Y-53.648 Z-0.300 F1000
G1 X183.450 Y-53.740 Z-0.300 F1000
G1 X183.603 Y-54.067 Z-0.300 F1000
G1 X183.720 Y-54.409 Z-0.300 F1000
G1 X183.799 Y-54.761 Z-0.300 F1000
G1 X183.838 Y-55.120 Z-0.300 F1000
G1 X183.838 Y-55.481 Z-0.300 F1000
G1 X183.799 Y-55.840 Z-0.300 F1000
G1 X183.720 Y-56.192 Z-0.300 F1000
G1 X183.720 Y-56.192 Z5.000 F1000
G1 X184.035 Y-58.745 Z5.000 F1000
G1 X184.035 Y-58.745 Z-0.300 F333.3
G1 X182.865 Y-60.500 Z-0.300 F1000
G1 X181.695 Y-58.745 Z-0.300 F1000
G1 X181.695 Y-58.745 Z5.000 F1000
G1 X180.525 Y-62.255 Z5.000 F1000
G1 X180.525 Y-62.255 Z-0.300 F333.3
G1 X179.745 Y-60.695 Z-0.300 F1000
G1 X179.745 Y-60.695 Z5.000 F1000
G1 X178.575 Y-62.255 Z5.000 F1000
G1 X178.575 Y-62.255 Z-0.300 F333.3
G1 X178.575 Y-58.745 Z-0.300 F1000
G1 X179.550 Y-58.745 Z-0.300 F1000
G1 X179.740 Y-58.764 Z-0.300 F1000
G1 X179.923 Y-58.820 Z-0.300 F1000
G1 X180.092 Y-58.910 Z-0.300 F1000
G1 X180.239 Y-59.031 Z-0.300 F1000
G1 X180.361 Y-59.179 Z-0.300 F1000
G1 X180.451 Y-59.347 Z-0.300 F1000
G1 X180.506 Y-59.530 Z-0.300 F1000
G1 X180.525 Y-59.720 Z-0.300 F1000
G1 X180.506 Y-59.911 Z-0.300 F1000
G1 X180.451 Y-60.093 Z-0.300 F1000
G1 X180.361 Y-60.262 Z-0.300 F1000
G1 X180.239 Y-60.410 Z-0.300 F1000
G1 X180.092 Y-60.531 Z-0.300 F1000
G1 X179.923 Y-60.621 Z-0.300 F1000
G1 X179.740 Y-60.677 Z-0.300 F1000
G1 X179.550 Y-60.695 Z-0.300 F1000
G1 X178.575 Y-60.695 Z-0.300 F1000
G1 X178.575 Y-60.695 Z5.000 F1000
G1 X182.865 Y-62.255 Z5.000 F1000
G1 X182.865 Y-62.255 Z-0.300 F333.3
G1 X182.865 Y-60.500 Z-0.300 F1000
G1 X182.865 Y-60.500 Z5.000 F1000
G1 X180.915 Y-53.545 Z5.000 F1000
G1 X180.915 Y-53.545 Z-0.300 F333.3
G1 X179.550 Y-53.545 Z-0.300 F1000
G1 X179.550 Y-55.105 Z-0.300 F1000
G1 X180.330 Y-55.105 Z-0.300 F1000
G1 X180.504 Y-55.125 Z-0.300 F1000
G1 X180.668 Y-55.183 Z-0.300 F1000
G1 X180.816 Y-55.276 Z-0.300 F1000
G1 X180.940 Y-55.399 Z-0.300 F1000
G1 X181.033 Y-55.547 Z-0.300 F1000
G1 X181.090 Y-55.712 Z-0.300 F1000
G1 X181.110 Y-55.885 Z-0.300 F1000
G1 X181.110 Y-56.275 Z-0.300 F1000
G1 X181.090 Y-56.449 Z-0.300 F1000
G1 X181.033 Y-56.614 Z-0.300 F1000
G1 X180.940 Y-56.762 Z-0.300 F1000
G1 X180.816 Y-56.885 Z-0.300 F1000
G1 X180.668 Y-56.978 Z-0.300 F1000
G1 X180.504 Y-57.036 Z-0.300 F1000
G1 X180.330 Y-57.055 Z-0.300 F1000
G1 X179.550 Y-57.055 Z-0.300 F1000
G1 X179.550 Y-57.055 Z5.000 F1000
G1 X180.520 Y-51.837 Z5.000 F1000
G1 X180.520 Y-51.837 Z-0.300 F333.3
G1 X180.337 Y-51.781 Z-0.300 F1000
G1 X180.169 Y-51.691 Z-0.300 F1000
G1 X180.021 Y-51.570 Z-0.300 F1000
G1 X179.900 Y-51.422 Z-0.300 F1000
G1 X179.809 Y-51.254 Z-0.300 F1000
G1 X179.754 Y-51.071 Z-0.300 F1000
G1 X179.735 Y-50.880 Z-0.300 F1000
G1 X179.735 Y-49.320 Z-0.300 F1000
G1 X179.754 Y-49.130 Z-0.300 F1000
G1 X179.809 Y-48.947 Z-0.300 F1000
G1 X179.900 Y-48.779 Z-0.300 F1000
G1 X180.021 Y-48.631 Z-0.300 F1000
G1 X180.169 Y-48.510 Z-0.300 F1000
G1 X180.337 Y-48.420 Z-0.300 F1000
G1 X180.520 Y-48.364 Z-0.300 F1000
G1 X180.710 Y-48.345 Z-0.300 F1000
G1 X180.900 Y-48.364 Z-0.300 F1000
G1 X181.083 Y-48.420 Z-0.300 F1000
G1 X181.252 Y-48.510 Z-0.300 F1000
G1 X181.400 Y-48.631 Z-0.300 F1000
G1 X181.521 Y-48.779 Z-0.300 F1000
G1 X181.611 Y-48.947 Z-0.300 F1000
G1 X181.667 Y-49.130 Z-0.300 F1000
G1 X181.685 Y-49.320 Z-0.300 F1000
G1 X181.685 Y-50.880 Z-0.300 F1000
G1 X181.667 Y-51.071 Z-0.300 F1000
G1 X181.611 Y-51.254 Z-0.300 F1000
G1 X181.521 Y-51.422 Z-0.300 F1000
G1 X181.400 Y-51.570 Z-0.300 F1000
G1 X181.252 Y-51.691 Z-0.300 F1000
G1 X181.083 Y-51.781 Z-0.300 F1000
G1 X180.900 Y-51.837 Z-0.300 F1000
G1 X180.710 Y-51.855 Z-0.300 F1000
G1 X180.520 Y-51.837 Z-0.300 F1000
G1 X180.520 Y-51.837 Z5.000 F1000
G1 X176.615 Y-51.855 Z5.000 F1000
G1 X176.615 Y-51.855 Z-0.300 F333.3
G1 X176.615 Y-48.345 Z-0.300 F1000
G1 X177.590 Y-48.345 Z-0.300 F1000
G1 X177.780 Y-48.364 Z-0.300 F1000
G1 X177.963 Y-48.420 Z-0.300 F1000
G1 X178.132 Y-48.510 Z-0.300 F1000
G1 X178.280 Y-48.631 Z-0.300 F1000
G1 X178.401 Y-48.779 Z-0.300 F1000
G1 X178.491 Y-48.947 Z-0.300 F1000
G1 X178.547 Y-49.130 Z-0.300 F1000
G1 X178.565 Y-49.320 Z-0.300 F1000
G1 X178.547 Y-49.511 Z-0.300 F1000
G1 X178.491 Y-49.694 Z-0.300 F1000
G1 X178.401 Y-49.862 Z-0.300 F1000
G1 X178.280 Y-50.010 Z-0.300 F1000
G1 X178.132 Y-50.131 Z-0.300 F1000
G1 X177.963 Y-50.221 Z-0.300 F1000
G1 X177.780 Y-50.277 Z-0.300 F1000
G1 X177.590 Y-50.295 Z-0.300 F1000
G1 X176.615 Y-50.295 Z-0.300 F1000
G1 X176.615 Y-50.295 Z5.000 F1000
G1 X184.025 Y-48.345 Z5.000 F1000
G1 X184.025 Y-48.345 Z-0.300 F333.3
G1 X184.025 Y-51.075 Z-0.300 F1000
G1 X184.006 Y-51.249 Z-0.300 F1000
G1 X183.948 Y-51.414 Z-0.300 F1000
G1 X183.855 Y-51.562 Z-0.300 F1000
G1 X183.732 Y-51.685 Z-0.300 F1000
G1 X183.584 Y-51.778 Z-0.300 F1000
G1 X183.419 Y-51.836 Z-0.300 F1000
G1 X183.245 Y-51.855 Z-0.300 F1000
G1 X182.855 Y-51.855 Z-0.300 F1000
G1 X182.855 Y-51.855 Z5.000 F1000
G1 X185.195 Y-48.345 Z5.000 F1000
G1 X185.195 Y-48.345 Z-0.300 F333.3
G1 X185.195 Y-51.855 Z-0.300 F1000
G1 X185.195 Y-51.855 Z5.000 F1000
G1 X188.120 Y-48.540 Z5.000 F1000
G1 X188.120 Y-48.540 Z-0.300 F333.3
G1 X187.884 Y-48.457 Z-0.300 F1000
G1 X187.642 Y-48.397 Z-0.300 F1000
G1 X187.395 Y-48.359 Z-0.300 F1000
G1 X187.145 Y-48.345 Z-0.300 F1000
G1 X186.973 Y-48.365 Z-0.300 F1000
G1 X186.809 Y-48.423 Z-0.300 F1000
G1 X186.661 Y-48.515 Z-0.300 F1000
G1 X186.538 Y-48.638 Z-0.300 F1000
G1 X186.445 Y-48.785 Z-0.300 F1000
G1 X186.386 Y-48.948 Z-0.300 F1000
G1 X186.365 Y-49.121 Z-0.300 F1000
G1 X186.383 Y-49.294 Z-0.300 F1000
G1 X186.438 Y-49.458 Z-0.300 F1000
G1 X186.528 Y-49.607 Z-0.300 F1000
G1 X186.649 Y-49.732 Z-0.300 F1000
G1 X186.794 Y-49.827 Z-0.300 F1000
G1 X187.886 Y-50.373 Z-0.300 F1000
G1 X188.032 Y-50.469 Z-0.300 F1000
G1 X188.152 Y-50.594 Z-0.300 F1000
G1 X188.243 Y-50.742 Z-0.300 F1000
G1 X188.298 Y-50.907 Z-0.300 F1000
G1 X188.315 Y-51.080 Z-0.300 F1000
G1 X188.294 Y-51.253 Z-0.300 F1000
G1 X188.236 Y-51.416 Z-0.300 F1000
G1 X188.142 Y-51.563 Z-0.300 F1000
G1 X188.019 Y-51.685 Z-0.300 F1000
G1 X187.872 Y-51.778 Z-0.300 F1000
G1 X187.708 Y-51.835 Z-0.300 F1000
G1 X187.535 Y-51.855 Z-0.300 F1000
G1 X187.287 Y-51.831 Z-0.300 F1000
G1 X187.042 Y-51.779 Z-0.300 F1000
G1 X186.805 Y-51.701 Z-0.300 F1000
G1 X186.579 Y-51.595 Z-0.300 F1000
G1 X186.365 Y-51.465 Z-0.300 F1000
G1 X186.365 Y-51.465 Z5.000 F1000
G1 X189.885 Y-62.255 Z5.000 F1000
G1 X189.885 Y-62.255 Z-0.300 F333.3
G1 X189.885 Y-58.745 Z-0.300 F1000
G1 X189.885 Y-58.745 Z5.000 F1000
G1 X192.615 Y-62.255 Z5.000 F1000
G1 X192.615 Y-62.255 Z-0.300 F333.3
G1 X191.055 Y-62.255 Z-0.300 F1000
G1 X191.055 Y-58.745 Z-0.300 F1000
G1 X191.055 Y-58.745 Z5.000 F1000
G1 X194.126 Y-61.280 Z5.000 F1000
G1 X194.126 Y-61.280 Z-0.300 F333.3
G1 X195.784 Y-61.280 Z-0.300 F1000
G1 X195.784 Y-61.280 Z5.000 F1000
G1 X193.785 Y-62.255 Z5.000 F1000
G1 X193.785 Y-62.255 Z-0.300 F333.3
G1 X194.955 Y-58.745 Z-0.300 F1000
G1 X196.125 Y-62.255 Z-0.300 F1000
G1 X196.125 Y-62.255 Z5.000 F1000
G1 X196.125 Y-62.255 Z15.000 F1000
