(front_pockets)
(Machine)
(  vendor: Ooznest)
(  model: Workbee 1000x1500)
(  description: This machine has YXZ axis on the Head)
G21
G90
(When using Fusion 360 for Personal Use, the feedrate of)
(rapid moves is reduced to match the feedrate of cutting)
(moves, which can increase machining time. Unrestricted rapid)
(moves are available with a Fusion 360 Subscription.)

(2D Contour1)
G0 X101.734 Y-89.341 Z15.000
G1 X101.734 Y-89.341 Z15.000 F1240
G1 X101.734 Y-89.341 Z5.000 F1240
G1 X101.734 Y-89.341 Z2.818 F762
G1 X101.727 Y-89.343 Z2.747 F1240
G1 X101.704 Y-89.352 Z2.680 F1240
G1 X101.669 Y-89.365 Z2.620 F1240
G1 X101.622 Y-89.382 Z2.569 F1240
G1 X101.565 Y-89.403 Z2.531 F1240
G1 X101.503 Y-89.427 Z2.508 F1240
G1 X101.436 Y-89.451 Z2.500 F1240
G1 X101.139 Y-89.562 Z2.500 F1240
G3 X100.952 Y-89.970 Z2.500 I0.111 J-0.298 F1240
G3 X104.173 Y-89.391 Z2.338 I1.558 J0.579 F762
G3 X100.848 Y-89.391 Z2.156 I-1.662 J0.000 F762
G3 X104.173 Y-89.391 Z1.974 I1.662 J0.000 F762
G3 X100.848 Y-89.391 Z1.791 I-1.662 J0.000 F762
G3 X104.173 Y-89.391 Z1.609 I1.662 J0.000 F762
G3 X100.848 Y-89.391 Z1.426 I-1.662 J0.000 F762
G3 X104.173 Y-89.391 Z1.244 I1.662 J0.000 F762
G3 X100.848 Y-89.391 Z1.062 I-1.662 J0.000 F762
G3 X104.173 Y-89.391 Z0.879 I1.662 J0.000 F762
G3 X100.848 Y-89.391 Z0.697 I-1.662 J0.000 F762
G3 X104.173 Y-89.391 Z0.514 I1.662 J0.000 F762
G3 X100.848 Y-89.391 Z0.332 I-1.662 J0.000 F762
G3 X104.173 Y-89.391 Z0.150 I1.662 J0.000 F762
G3 X100.848 Y-89.391 Z-0.033 I-1.662 J0.000 F762
G3 X104.173 Y-89.391 Z-0.215 I1.662 J0.000 F762
G3 X100.848 Y-89.391 Z-0.397 I-1.662 J0.000 F762
G3 X104.173 Y-89.391 Z-0.580 I1.662 J0.000 F762
G3 X100.848 Y-89.391 Z-0.762 I-1.662 J0.000 F762
G3 X104.173 Y-89.391 Z-0.945 I1.662 J0.000 F762
G3 X100.848 Y-89.391 Z-1.127 I-1.662 J0.000 F762
G3 X104.173 Y-89.391 Z-1.309 I1.662 J0.000 F762
G3 X102.524 Y-87.729 Z-1.400 I-1.662 J0.000 F762
G3 X100.848 Y-89.391 Z-1.400 I-0.014 J-1.662 F1240
G3 X104.173 Y-89.391 Z-1.400 I1.662 J0.000 F1240
G3 X102.524 Y-87.729 Z-1.400 I-1.662 J0.000 F1240
G1 X102.510 Y-87.729 Z-1.400 F762
G3 X100.848 Y-89.391 Z-1.492 I0.000 J-1.662 F762
G3 X104.173 Y-89.391 Z-1.674 I1.662 J0.000 F762
G3 X100.848 Y-89.391 Z-1.856 I-1.662 J0.000 F762
G3 X104.173 Y-89.391 Z-2.039 I1.662 J0.000 F762
G3 X100.848 Y-89.391 Z-2.221 I-1.662 J0.000 F762
G3 X104.173 Y-89.391 Z-2.404 I1.662 J0.000 F762
G3 X100.848 Y-89.391 Z-2.586 I-1.662 J0.000 F762
G3 X104.173 Y-89.391 Z-2.768 I1.662 J0.000 F762
G3 X103.931 Y-88.528 Z-2.800 I-1.662 J0.000 F762
G3 X100.848 Y-89.391 Z-2.800 I-1.421 J-0.863 F1240
G3 X104.173 Y-89.391 Z-2.800 I1.662 J0.000 F1240
G3 X103.931 Y-88.528 Z-2.800 I-1.662 J0.000 F1240
G3 X100.848 Y-89.391 Z-2.951 I-1.421 J-0.863 F762
G3 X104.173 Y-89.391 Z-3.133 I1.662 J0.000 F762
G3 X100.848 Y-89.391 Z-3.315 I-1.662 J0.000 F762
G3 X104.173 Y-89.391 Z-3.498 I1.662 J0.000 F762
G3 X101.068 Y-88.564 Z-3.650 I-1.662 J0.000 F762
G3 X100.848 Y-89.391 Z-3.650 I1.442 J-0.827 F1240
G3 X104.173 Y-89.391 Z-3.650 I1.662 J0.000 F1240
G3 X101.068 Y-88.564 Z-3.650 I-1.662 J0.000 F1240
G3 X100.848 Y-89.391 Z-3.680 I1.442 J-0.827 F762
G3 X104.173 Y-89.391 Z-3.863 I1.662 J0.000 F762
G3 X100.848 Y-89.391 Z-4.045 I-1.662 J0.000 F762
G3 X104.173 Y-89.391 Z-4.227 I1.662 J0.000 F762
G3 X100.848 Y-89.391 Z-4.410 I-1.662 J0.000 F762
G3 X102.483 Y-91.053 Z-4.500 I1.662 J0.000 F762
G3 X104.173 Y-89.391 Z-4.500 I0.027 J1.662 F1240
G3 X100.848 Y-89.391 Z-4.500 I-1.662 J0.000 F1240
G3 X102.483 Y-91.053 Z-4.500 I1.662 J0.000 F1240
G3 X102.806 Y-90.741 Z-4.500 I0.005 J0.317 F1240
G1 X102.811 Y-90.423 Z-4.500 F1240
G1 X102.812 Y-90.353 Z-4.492 F1240
G1 X102.813 Y-90.286 Z-4.469 F1240
G1 X102.814 Y-90.225 Z-4.431 F1240
G1 X102.815 Y-90.175 Z-4.380 F1240
G1 X102.816 Y-90.137 Z-4.320 F1240
G1 X102.816 Y-90.114 Z-4.253 F1240
G1 X102.816 Y-90.106 Z-4.183 F1240
G1 X102.816 Y-90.106 Z5.000 F1240
G1 X78.400 Y-89.350 Z5.000 F1240
G1 X78.400 Y-89.350 Z2.818 F762
G1 X78.393 Y-89.353 Z2.747 F1240
G1 X78.371 Y-89.361 Z2.680 F1240
G1 X78.335 Y-89.375 Z2.620 F1240
G1 X78.289 Y-89.393 Z2.569 F1240
G1 X78.232 Y-89.414 Z2.531 F1240
G1 X78.170 Y-89.438 Z2.508 F1240
G1 X78.104 Y-89.464 Z2.500 F1240
G1 X77.808 Y-89.578 Z2.500 F1240
G3 X77.625 Y-89.988 Z2.500 I0.114 J-0.296 F1240
G3 X80.728 Y-88.794 Z2.318 I1.552 J0.597 F762
G3 X77.625 Y-89.988 Z2.135 I-1.552 J-0.597 F762
G3 X80.728 Y-88.794 Z1.953 I1.552 J0.597 F762
G3 X77.625 Y-89.988 Z1.770 I-1.552 J-0.597 F762
G3 X80.728 Y-88.794 Z1.588 I1.552 J0.597 F762
G3 X77.625 Y-89.988 Z1.406 I-1.552 J-0.597 F762
G3 X80.728 Y-88.794 Z1.223 I1.552 J0.597 F762
G3 X77.625 Y-89.988 Z1.041 I-1.552 J-0.597 F762
G3 X80.728 Y-88.794 Z0.859 I1.552 J0.597 F762
G3 X77.625 Y-89.988 Z0.676 I-1.552 J-0.597 F762
G3 X80.728 Y-88.794 Z0.494 I1.552 J0.597 F762
G3 X77.625 Y-89.988 Z0.311 I-1.552 J-0.597 F762
G3 X80.728 Y-88.794 Z0.129 I1.552 J0.597 F762
G3 X77.625 Y-89.988 Z-0.053 I-1.552 J-0.597 F762
G3 X80.728 Y-88.794 Z-0.236 I1.552 J0.597 F762
G3 X77.625 Y-89.988 Z-0.418 I-1.552 J-0.597 F762
G3 X80.728 Y-88.794 Z-0.601 I1.552 J0.597 F762
G3 X77.625 Y-89.988 Z-0.783 I-1.552 J-0.597 F762
G3 X80.728 Y-88.794 Z-0.965 I1.552 J0.597 F762
G3 X77.625 Y-89.988 Z-1.148 I-1.552 J-0.597 F762
G3 X80.728 Y-88.794 Z-1.330 I1.552 J0.597 F762
G3 X79.177 Y-87.729 Z-1.400 I-1.552 J-0.597 F762
G3 X79.177 Y-91.053 Z-1.400 I0.000 J-1.662 F1240
G3 X79.177 Y-87.729 Z-1.400 I0.000 J1.662 F1240
G3 X79.177 Y-91.053 Z-1.582 I0.000 J-1.662 F762
G3 X79.177 Y-87.729 Z-1.765 I0.000 J1.662 F762
G3 X79.177 Y-91.053 Z-1.947 I0.000 J-1.662 F762
G3 X79.177 Y-87.729 Z-2.130 I0.000 J1.662 F762
G3 X79.177 Y-91.053 Z-2.312 I0.000 J-1.662 F762
G3 X79.177 Y-87.729 Z-2.494 I0.000 J1.662 F762
G3 X79.177 Y-91.053 Z-2.677 I0.000 J-1.662 F762
G3 X80.592 Y-88.518 Z-2.800 I0.000 J1.662 F762
G3 X77.762 Y-90.264 Z-2.800 I-1.415 J-0.873 F1240
G3 X80.592 Y-88.518 Z-2.800 I1.415 J0.873 F1240
G3 X77.762 Y-90.264 Z-2.982 I-1.415 J-0.873 F762
G3 X80.592 Y-88.518 Z-3.165 I1.415 J0.873 F762
G3 X77.762 Y-90.264 Z-3.347 I-1.415 J-0.873 F762
G3 X80.592 Y-88.518 Z-3.530 I1.415 J0.873 F762
G3 X77.729 Y-88.573 Z-3.650 I-1.415 J-0.873 F762
G3 X80.624 Y-90.209 Z-3.650 I1.448 J-0.818 F1240
G3 X77.729 Y-88.573 Z-3.650 I-1.448 J0.818 F1240
G3 X80.624 Y-90.209 Z-3.832 I1.448 J-0.818 F762
G3 X77.729 Y-88.573 Z-4.015 I-1.448 J0.818 F762
G3 X80.624 Y-90.209 Z-4.197 I1.448 J-0.818 F762
G3 X77.729 Y-88.573 Z-4.380 I-1.448 J0.818 F762
G3 X79.160 Y-91.053 Z-4.500 I1.448 J-0.818 F762
G3 X79.194 Y-87.729 Z-4.500 I0.017 J1.662 F1240
G3 X79.160 Y-91.053 Z-4.500 I-0.017 J-1.662 F1240
G3 X79.481 Y-90.739 Z-4.500 I0.003 J0.317 F1240
G1 X79.484 Y-90.422 Z-4.500 F1240
G1 X79.485 Y-90.351 Z-4.492 F1240
G1 X79.485 Y-90.284 Z-4.469 F1240
G1 X79.486 Y-90.224 Z-4.431 F1240
G1 X79.486 Y-90.173 Z-4.380 F1240
G1 X79.487 Y-90.136 Z-4.320 F1240
G1 X79.487 Y-90.112 Z-4.253 F1240
G1 X79.487 Y-90.104 Z-4.183 F1240
G1 X79.487 Y-90.104 Z5.000 F1240
G1 X55.067 Y-89.350 Z5.000 F1240
G1 X55.067 Y-89.350 Z2.818 F762
G1 X55.059 Y-89.353 Z2.747 F1240
G1 X55.037 Y-89.361 Z2.680 F1240
G1 X55.002 Y-89.375 Z2.620 F1240
G1 X54.955 Y-89.393 Z2.569 F1240
G1 X54.899 Y-89.414 Z2.531 F1240
G1 X54.836 Y-89.438 Z2.508 F1240
G1 X54.770 Y-89.464 Z2.500 F1240
G1 X54.474 Y-89.578 Z2.500 F1240
G3 X54.292 Y-89.988 Z2.500 I0.114 J-0.296 F1240
G3 X57.395 Y-88.794 Z2.318 I1.552 J0.597 F762
G3 X54.292 Y-89.988 Z2.135 I-1.552 J-0.597 F762
G3 X57.395 Y-88.794 Z1.953 I1.552 J0.597 F762
G3 X54.292 Y-89.988 Z1.770 I-1.552 J-0.597 F762
G3 X57.395 Y-88.794 Z1.588 I1.552 J0.597 F762
G3 X54.292 Y-89.988 Z1.406 I-1.552 J-0.597 F762
G3 X57.395 Y-88.794 Z1.223 I1.552 J0.597 F762
G3 X54.292 Y-89.988 Z1.041 I-1.552 J-0.597 F762
G3 X57.395 Y-88.794 Z0.859 I1.552 J0.597 F762
G3 X54.292 Y-89.988 Z0.676 I-1.552 J-0.597 F762
G3 X57.395 Y-88.794 Z0.494 I1.552 J0.597 F762
G3 X54.292 Y-89.988 Z0.311 I-1.552 J-0.597 F762
G3 X57.395 Y-88.794 Z0.129 I1.552 J0.597 F762
G3 X54.292 Y-89.988 Z-0.053 I-1.552 J-0.597 F762
G3 X57.395 Y-88.794 Z-0.236 I1.552 J0.597 F762
G3 X54.292 Y-89.988 Z-0.418 I-1.552 J-0.597 F762
G3 X57.395 Y-88.794 Z-0.601 I1.552 J0.597 F762
G3 X54.292 Y-89.988 Z-0.783 I-1.552 J-0.597 F762
G3 X57.395 Y-88.794 Z-0.965 I1.552 J0.597 F762
G3 X54.292 Y-89.988 Z-1.148 I-1.552 J-0.597 F762
G3 X57.395 Y-88.794 Z-1.330 I1.552 J0.597 F762
G3 X55.843 Y-87.729 Z-1.400 I-1.552 J-0.597 F762
G3 X55.843 Y-91.053 Z-1.400 I0.000 J-1.662 F1240
G3 X55.843 Y-87.729 Z-1.400 I0.000 J1.662 F1240
G3 X55.843 Y-91.053 Z-1.582 I0.000 J-1.662 F762
G3 X55.843 Y-87.728 Z-1.765 I0.000 J1.662 F762
G3 X55.843 Y-91.053 Z-1.947 I0.000 J-1.662 F762
G3 X55.843 Y-87.728 Z-2.130 I0.000 J1.662 F762
G3 X55.843 Y-91.053 Z-2.312 I0.000 J-1.663 F762
G3 X55.843 Y-87.728 Z-2.494 I0.000 J1.663 F762
G3 X55.843 Y-91.054 Z-2.677 I0.000 J-1.663 F762
G3 X57.258 Y-88.518 Z-2.800 I0.000 J1.663 F762
G3 X54.429 Y-90.264 Z-2.800 I-1.415 J-0.873 F1240
G3 X57.258 Y-88.518 Z-2.800 I1.415 J0.873 F1240
G3 X54.429 Y-90.264 Z-2.982 I-1.415 J-0.873 F762
G3 X57.258 Y-88.518 Z-3.165 I1.415 J0.873 F762
G3 X54.429 Y-90.264 Z-3.347 I-1.415 J-0.873 F762
G3 X57.258 Y-88.518 Z-3.530 I1.415 J0.873 F762
G3 X54.396 Y-88.573 Z-3.650 I-1.415 J-0.873 F762
G3 X57.291 Y-90.209 Z-3.650 I1.448 J-0.818 F1240
G3 X54.396 Y-88.573 Z-3.650 I-1.448 J0.818 F1240
G3 X57.291 Y-90.209 Z-3.832 I1.448 J-0.818 F762
G3 X54.396 Y-88.573 Z-4.015 I-1.448 J0.818 F762
G3 X57.291 Y-90.209 Z-4.197 I1.448 J-0.818 F762
G3 X54.396 Y-88.573 Z-4.380 I-1.448 J0.818 F762
G3 X55.827 Y-91.053 Z-4.500 I1.448 J-0.818 F762
G3 X55.860 Y-87.729 Z-4.500 I0.017 J1.662 F1240
G3 X55.827 Y-91.053 Z-4.500 I-0.017 J-1.662 F1240
G3 X56.147 Y-90.739 Z-4.500 I0.003 J0.317 F1240
G1 X56.150 Y-90.422 Z-4.500 F1240
G1 X56.151 Y-90.351 Z-4.492 F1240
G1 X56.152 Y-90.284 Z-4.469 F1240
G1 X56.152 Y-90.224 Z-4.431 F1240
G1 X56.153 Y-90.173 Z-4.380 F1240
G1 X56.153 Y-90.136 Z-4.320 F1240
G1 X56.154 Y-90.112 Z-4.253 F1240
G1 X56.154 Y-90.104 Z-4.183 F1240
G1 X56.154 Y-90.104 Z5.000 F1240
G1 X31.733 Y-89.350 Z5.000 F1240
G1 X31.733 Y-89.350 Z2.818 F762
G1 X31.726 Y-89.353 Z2.747 F1240
G1 X31.704 Y-89.361 Z2.680 F1240
G1 X31.669 Y-89.375 Z2.620 F1240
G1 X31.622 Y-89.393 Z2.569 F1240
G1 X31.566 Y-89.414 Z2.531 F1240
G1 X31.503 Y-89.438 Z2.508 F1240
G1 X31.437 Y-89.464 Z2.500 F1240
G1 X31.141 Y-89.578 Z2.500 F1240
G3 X30.959 Y-89.988 Z2.500 I0.114 J-0.296 F1240
G3 X34.062 Y-88.794 Z2.318 I1.552 J0.597 F762
G3 X30.959 Y-89.988 Z2.135 I-1.552 J-0.597 F762
G3 X34.062 Y-88.794 Z1.953 I1.552 J0.597 F762
G3 X30.959 Y-89.988 Z1.770 I-1.552 J-0.597 F762
G3 X34.062 Y-88.794 Z1.588 I1.552 J0.597 F762
G3 X30.959 Y-89.988 Z1.406 I-1.552 J-0.597 F762
G3 X34.062 Y-88.794 Z1.223 I1.552 J0.597 F762
G3 X30.959 Y-89.988 Z1.041 I-1.552 J-0.597 F762
G3 X34.062 Y-88.794 Z0.859 I1.552 J0.597 F762
G3 X30.959 Y-89.988 Z0.676 I-1.552 J-0.597 F762
G3 X34.062 Y-88.794 Z0.494 I1.552 J0.597 F762
G3 X30.959 Y-89.988 Z0.311 I-1.552 J-0.597 F762
G3 X34.062 Y-88.794 Z0.129 I1.552 J0.597 F762
G3 X30.959 Y-89.988 Z-0.053 I-1.552 J-0.597 F762
G3 X34.062 Y-88.794 Z-0.236 I1.552 J0.597 F762
G3 X30.959 Y-89.988 Z-0.418 I-1.552 J-0.597 F762
G3 X34.062 Y-88.794 Z-0.601 I1.552 J0.597 F762
G3 X30.959 Y-89.988 Z-0.783 I-1.552 J-0.597 F762
G3 X34.062 Y-88.794 Z-0.965 I1.552 J0.597 F762
G3 X30.959 Y-89.988 Z-1.148 I-1.552 J-0.597 F762
G3 X34.062 Y-88.794 Z-1.330 I1.552 J0.597 F762
G3 X32.510 Y-87.729 Z-1.400 I-1.552 J-0.597 F762
G3 X32.510 Y-91.053 Z-1.400 I0.000 J-1.662 F1240
G3 X32.510 Y-87.729 Z-1.400 I0.000 J1.662 F1240
G3 X32.510 Y-91.053 Z-1.582 I0.000 J-1.662 F762
G3 X32.510 Y-87.729 Z-1.765 I0.000 J1.662 F762
G3 X32.510 Y-91.053 Z-1.947 I0.000 J-1.662 F762
G3 X32.510 Y-87.729 Z-2.130 I0.000 J1.662 F762
G3 X32.510 Y-91.053 Z-2.312 I0.000 J-1.662 F762
G3 X32.510 Y-87.729 Z-2.494 I0.000 J1.662 F762
G3 X32.510 Y-91.053 Z-2.677 I0.000 J-1.662 F762
G3 X33.925 Y-88.518 Z-2.800 I0.000 J1.662 F762
G3 X31.095 Y-90.264 Z-2.800 I-1.415 J-0.873 F1240
G3 X33.925 Y-88.518 Z-2.800 I1.415 J0.873 F1240
G3 X31.095 Y-90.264 Z-2.982 I-1.415 J-0.873 F762
G3 X33.925 Y-88.518 Z-3.165 I1.415 J0.873 F762
G3 X31.095 Y-90.264 Z-3.347 I-1.415 J-0.873 F762
G3 X33.925 Y-88.518 Z-3.530 I1.415 J0.873 F762
G3 X31.062 Y-88.573 Z-3.650 I-1.415 J-0.873 F762
G3 X33.958 Y-90.209 Z-3.650 I1.448 J-0.818 F1240
G3 X31.062 Y-88.573 Z-3.650 I-1.448 J0.818 F1240
G3 X33.958 Y-90.209 Z-3.832 I1.448 J-0.818 F762
G3 X31.062 Y-88.573 Z-4.015 I-1.448 J0.818 F762
G3 X33.958 Y-90.209 Z-4.197 I1.448 J-0.818 F762
G3 X31.062 Y-88.573 Z-4.380 I-1.448 J0.818 F762
G3 X32.493 Y-91.053 Z-4.500 I1.448 J-0.818 F762
G3 X32.527 Y-87.729 Z-4.500 I0.017 J1.662 F1240
G3 X32.493 Y-91.053 Z-4.500 I-0.017 J-1.662 F1240
G3 X32.814 Y-90.739 Z-4.500 I0.003 J0.317 F1240
G1 X32.817 Y-90.422 Z-4.500 F1240
G1 X32.818 Y-90.351 Z-4.492 F1240
G1 X32.819 Y-90.284 Z-4.469 F1240
G1 X32.819 Y-90.224 Z-4.431 F1240
G1 X32.820 Y-90.173 Z-4.380 F1240
G1 X32.820 Y-90.136 Z-4.320 F1240
G1 X32.820 Y-90.112 Z-4.253 F1240
G1 X32.820 Y-90.104 Z-4.183 F1240
G1 X32.820 Y-90.104 Z5.000 F1240
G1 X34.955 Y-126.675 Z5.000 F1240
G1 X34.955 Y-126.675 Z2.818 F762
G1 X34.962 Y-126.673 Z2.747 F1240
G1 X34.985 Y-126.667 Z2.680 F1240
G1 X35.022 Y-126.658 Z2.620 F1240
G1 X35.070 Y-126.645 Z2.569 F1240
G1 X35.128 Y-126.629 Z2.531 F1240
G1 X35.193 Y-126.612 Z2.508 F1240
G1 X35.262 Y-126.594 Z2.500 F1240
G1 X35.568 Y-126.512 Z2.500 F1240
G3 X35.794 Y-126.124 Z2.500 I-0.081 J0.307 F1240
G3 X29.197 Y-127.876 Z2.126 I-3.298 J-0.876 F762
G3 X35.794 Y-126.124 Z1.751 I3.298 J0.876 F762
G3 X29.197 Y-127.876 Z1.377 I-3.298 J-0.876 F762
G3 X35.794 Y-126.124 Z1.003 I3.298 J0.876 F762
G3 X29.197 Y-127.876 Z0.628 I-3.298 J-0.876 F762
G3 X35.794 Y-126.124 Z0.254 I3.298 J0.876 F762
G3 X29.197 Y-127.876 Z-0.121 I-3.298 J-0.876 F762
G3 X35.794 Y-126.124 Z-0.495 I3.298 J0.876 F762
G3 X29.197 Y-127.876 Z-0.869 I-3.298 J-0.876 F762
G3 X35.794 Y-126.124 Z-1.244 I3.298 J0.876 F762
G3 X32.496 Y-123.588 Z-1.400 I-3.298 J-0.876 F762
G3 X32.496 Y-130.412 Z-1.400 I0.000 J-3.412 F1240
G3 X32.496 Y-123.588 Z-1.400 I0.000 J3.412 F1240
G3 X32.496 Y-130.412 Z-1.774 I0.000 J-3.412 F762
G3 X32.496 Y-123.588 Z-2.149 I0.000 J3.412 F762
G3 X32.496 Y-130.412 Z-2.523 I0.000 J-3.412 F762
G3 X34.986 Y-124.667 Z-2.800 I0.000 J3.412 F762
G3 X30.005 Y-129.333 Z-2.800 I-2.491 J-2.333 F1240
G3 X34.986 Y-124.667 Z-2.800 I2.491 J2.333 F1240
G3 X30.005 Y-129.333 Z-3.174 I-2.491 J-2.333 F762
G3 X34.986 Y-124.667 Z-3.549 I2.491 J2.333 F762
G3 X32.388 Y-123.589 Z-3.650 I-2.491 J-2.333 F762
G3 X32.603 Y-130.411 Z-3.650 I0.107 J-3.411 F1240
G3 X32.388 Y-123.589 Z-3.650 I-0.107 J3.411 F1240
G3 X32.603 Y-130.411 Z-4.024 I0.107 J-3.411 F762
G3 X32.388 Y-123.589 Z-4.399 I-0.107 J3.411 F762
G3 X29.863 Y-124.829 Z-4.500 I0.107 J-3.411 F762
G3 X35.128 Y-129.171 Z-4.500 I2.633 J-2.171 F1240
G3 X29.863 Y-124.829 Z-4.500 I-2.633 J2.171 F1240
G3 X29.906 Y-125.276 Z-4.500 I0.245 J-0.202 F1240
G1 X30.151 Y-125.478 Z-4.500 F1240
G1 X30.205 Y-125.523 Z-4.492 F1240
G1 X30.257 Y-125.565 Z-4.469 F1240
G1 X30.304 Y-125.604 Z-4.431 F1240
G1 X30.342 Y-125.636 Z-4.380 F1240
G1 X30.372 Y-125.660 Z-4.320 F1240
G1 X30.390 Y-125.675 Z-4.253 F1240
G1 X30.396 Y-125.680 Z-4.183 F1240
G1 X30.396 Y-125.680 Z5.000 F1240
G1 X58.288 Y-126.675 Z5.000 F1240
G1 X58.288 Y-126.675 Z2.818 F762
G1 X58.296 Y-126.673 Z2.747 F1240
G1 X58.318 Y-126.667 Z2.680 F1240
G1 X58.355 Y-126.658 Z2.620 F1240
G1 X58.404 Y-126.645 Z2.569 F1240
G1 X58.462 Y-126.629 Z2.531 F1240
G1 X58.527 Y-126.612 Z2.508 F1240
G1 X58.595 Y-126.594 Z2.500 F1240
G1 X58.902 Y-126.512 Z2.500 F1240
G3 X59.127 Y-126.124 Z2.500 I-0.081 J0.307 F1240
G3 X52.531 Y-127.876 Z2.126 I-3.298 J-0.876 F762
G3 X59.127 Y-126.124 Z1.751 I3.298 J0.876 F762
G3 X52.531 Y-127.876 Z1.377 I-3.298 J-0.876 F762
G3 X59.127 Y-126.124 Z1.003 I3.298 J0.876 F762
G3 X52.531 Y-127.876 Z0.628 I-3.298 J-0.876 F762
G3 X59.127 Y-126.124 Z0.254 I3.298 J0.876 F762
G3 X52.531 Y-127.876 Z-0.121 I-3.298 J-0.876 F762
G3 X59.127 Y-126.124 Z-0.495 I3.298 J0.876 F762
G3 X52.531 Y-127.876 Z-0.869 I-3.298 J-0.876 F762
G3 X59.127 Y-126.124 Z-1.244 I3.298 J0.876 F762
G3 X55.829 Y-123.588 Z-1.400 I-3.298 J-0.876 F762
G3 X55.829 Y-130.412 Z-1.400 I0.000 J-3.412 F1240
G3 X55.829 Y-123.588 Z-1.400 I0.000 J3.412 F1240
G3 X55.829 Y-130.412 Z-1.774 I0.000 J-3.412 F762
G3 X55.829 Y-123.588 Z-2.149 I0.000 J3.412 F762
G3 X55.829 Y-130.412 Z-2.523 I0.000 J-3.412 F762
G3 X58.320 Y-124.667 Z-2.800 I0.000 J3.412 F762
G3 X53.338 Y-129.333 Z-2.800 I-2.491 J-2.333 F1240
G3 X58.320 Y-124.667 Z-2.800 I2.491 J2.333 F1240
G3 X53.338 Y-129.333 Z-3.174 I-2.491 J-2.333 F762
G3 X58.320 Y-124.667 Z-3.549 I2.491 J2.333 F762
G3 X55.721 Y-123.589 Z-3.650 I-2.491 J-2.333 F762
G3 X55.936 Y-130.411 Z-3.650 I0.107 J-3.411 F1240
G3 X55.721 Y-123.589 Z-3.650 I-0.107 J3.411 F1240
G3 X55.936 Y-130.411 Z-4.024 I0.107 J-3.411 F762
G3 X55.721 Y-123.589 Z-4.399 I-0.107 J3.411 F762
G3 X53.196 Y-124.829 Z-4.500 I0.107 J-3.411 F762
G3 X58.462 Y-129.171 Z-4.500 I2.633 J-2.171 F1240
G3 X53.196 Y-124.829 Z-4.500 I-2.633 J2.171 F1240
G3 X53.239 Y-125.276 Z-4.500 I0.245 J-0.202 F1240
G1 X53.484 Y-125.478 Z-4.500 F1240
G1 X53.539 Y-125.523 Z-4.492 F1240
G1 X53.590 Y-125.565 Z-4.469 F1240
G1 X53.637 Y-125.604 Z-4.431 F1240
G1 X53.676 Y-125.636 Z-4.380 F1240
G1 X53.705 Y-125.660 Z-4.320 F1240
G1 X53.723 Y-125.675 Z-4.253 F1240
G1 X53.729 Y-125.680 Z-4.183 F1240
G1 X53.729 Y-125.680 Z5.000 F1240
G1 X81.621 Y-126.675 Z5.000 F1240
G1 X81.621 Y-126.675 Z2.818 F762
G1 X81.629 Y-126.673 Z2.747 F1240
G1 X81.652 Y-126.667 Z2.680 F1240
G1 X81.688 Y-126.658 Z2.620 F1240
G1 X81.737 Y-126.645 Z2.569 F1240
G1 X81.795 Y-126.629 Z2.531 F1240
G1 X81.860 Y-126.612 Z2.508 F1240
G1 X81.928 Y-126.594 Z2.500 F1240
G1 X82.235 Y-126.512 Z2.500 F1240
G3 X82.460 Y-126.124 Z2.500 I-0.081 J0.307 F1240
G3 X75.864 Y-127.876 Z2.126 I-3.298 J-0.876 F762
G3 X82.460 Y-126.124 Z1.751 I3.298 J0.876 F762
G3 X75.864 Y-127.876 Z1.377 I-3.298 J-0.876 F762
G3 X82.460 Y-126.124 Z1.003 I3.298 J0.876 F762
G3 X75.864 Y-127.876 Z0.628 I-3.298 J-0.876 F762
G3 X82.460 Y-126.124 Z0.254 I3.298 J0.876 F762
G3 X75.864 Y-127.876 Z-0.121 I-3.298 J-0.876 F762
G3 X82.460 Y-126.124 Z-0.495 I3.298 J0.876 F762
G3 X75.864 Y-127.876 Z-0.869 I-3.298 J-0.876 F762
G3 X82.460 Y-126.124 Z-1.244 I3.298 J0.876 F762
G3 X79.162 Y-123.588 Z-1.400 I-3.298 J-0.876 F762
G3 X79.162 Y-130.412 Z-1.400 I0.000 J-3.412 F1240
G3 X79.162 Y-123.588 Z-1.400 I0.000 J3.412 F1240
G3 X79.162 Y-130.412 Z-1.774 I0.000 J-3.412 F762
G3 X79.162 Y-123.588 Z-2.149 I0.000 J3.412 F762
G3 X79.162 Y-130.412 Z-2.523 I0.000 J-3.412 F762
G3 X81.653 Y-124.667 Z-2.800 I0.000 J3.412 F762
G3 X76.672 Y-129.333 Z-2.800 I-2.491 J-2.333 F1240
G3 X81.653 Y-124.667 Z-2.800 I2.491 J2.333 F1240
G3 X76.672 Y-129.333 Z-3.174 I-2.491 J-2.333 F762
G3 X81.653 Y-124.667 Z-3.549 I2.491 J2.333 F762
G3 X79.055 Y-123.589 Z-3.650 I-2.491 J-2.333 F762
G3 X79.270 Y-130.411 Z-3.650 I0.107 J-3.411 F1240
G3 X79.055 Y-123.589 Z-3.650 I-0.107 J3.411 F1240
G3 X79.270 Y-130.411 Z-4.024 I0.107 J-3.411 F762
G3 X79.055 Y-123.589 Z-4.399 I-0.107 J3.411 F762
G3 X76.530 Y-124.829 Z-4.500 I0.107 J-3.411 F762
G3 X81.795 Y-129.171 Z-4.500 I2.633 J-2.171 F1240
G3 X76.530 Y-124.829 Z-4.500 I-2.633 J2.171 F1240
G3 X76.573 Y-125.276 Z-4.500 I0.245 J-0.202 F1240
G1 X76.818 Y-125.478 Z-4.500 F1240
G1 X76.872 Y-125.523 Z-4.492 F1240
G1 X76.924 Y-125.565 Z-4.469 F1240
G1 X76.970 Y-125.604 Z-4.431 F1240
G1 X77.009 Y-125.636 Z-4.380 F1240
G1 X77.038 Y-125.660 Z-4.320 F1240
G1 X77.056 Y-125.675 Z-4.253 F1240
G1 X77.062 Y-125.680 Z-4.183 F1240
G1 X77.062 Y-125.680 Z5.000 F1240
G1 X104.955 Y-126.674 Z5.000 F1240
G1 X104.955 Y-126.674 Z2.818 F762
G1 X104.963 Y-126.672 Z2.747 F1240
G1 X104.985 Y-126.666 Z2.680 F1240
G1 X105.022 Y-126.656 Z2.620 F1240
G1 X105.070 Y-126.643 Z2.569 F1240
G1 X105.129 Y-126.627 Z2.531 F1240
G1 X105.193 Y-126.610 Z2.508 F1240
G1 X105.262 Y-126.592 Z2.500 F1240
G1 X105.568 Y-126.510 Z2.500 F1240
G3 X105.793 Y-126.122 Z2.500 I-0.082 J0.307 F1240
G3 X99.083 Y-127.000 Z2.157 I-3.298 J-0.879 F762
G3 X105.909 Y-127.000 Z1.782 I3.413 J0.000 F762
G3 X99.083 Y-127.000 Z1.408 I-3.413 J0.000 F762
G3 X105.909 Y-127.000 Z1.033 I3.413 J0.000 F762
G3 X99.083 Y-127.000 Z0.659 I-3.413 J0.000 F762
G3 X105.909 Y-127.000 Z0.285 I3.413 J0.000 F762
G3 X99.083 Y-127.000 Z-0.090 I-3.413 J0.000 F762
G3 X105.909 Y-127.000 Z-0.464 I3.413 J0.000 F762
G3 X99.083 Y-127.000 Z-0.838 I-3.413 J0.000 F762
G3 X105.909 Y-127.000 Z-1.213 I3.413 J0.000 F762
G3 X102.496 Y-123.588 Z-1.400 I-3.413 J0.000 F762
G3 X99.083 Y-127.000 Z-1.400 I0.000 J-3.413 F1240
G3 X105.909 Y-127.000 Z-1.400 I3.413 J0.000 F1240
G3 X102.496 Y-123.588 Z-1.400 I-3.413 J0.000 F1240
G3 X99.083 Y-127.000 Z-1.587 I0.000 J-3.413 F762
G3 X105.909 Y-127.000 Z-1.962 I3.413 J0.000 F762
G3 X99.083 Y-127.000 Z-2.336 I-3.413 J0.000 F762
G3 X105.909 Y-127.000 Z-2.710 I3.413 J0.000 F762
G3 X104.987 Y-124.668 Z-2.800 I-3.413 J0.000 F762
G3 X99.083 Y-127.000 Z-2.800 I-2.491 J-2.332 F1240
G3 X105.909 Y-127.000 Z-2.800 I3.413 J0.000 F1240
G3 X104.987 Y-124.668 Z-2.800 I-3.413 J0.000 F1240
G3 X99.083 Y-127.000 Z-3.085 I-2.491 J-2.332 F762
G3 X105.909 Y-127.000 Z-3.459 I3.413 J0.000 F762
G3 X102.390 Y-123.589 Z-3.650 I-3.413 J0.000 F762
G3 X99.083 Y-127.000 Z-3.650 I0.106 J-3.411 F1240
G3 X105.909 Y-127.000 Z-3.650 I3.413 J0.000 F1240
G3 X102.390 Y-123.589 Z-3.650 I-3.413 J0.000 F1240
G3 X99.083 Y-127.000 Z-3.833 I0.106 J-3.411 F762
G3 X105.909 Y-127.000 Z-4.208 I3.413 J0.000 F762
G3 X99.864 Y-124.827 Z-4.500 I-3.413 J0.000 F762
G3 X99.083 Y-127.000 Z-4.500 I2.632 J-2.173 F1240
G3 X105.909 Y-127.000 Z-4.500 I3.413 J0.000 F1240
G3 X99.864 Y-124.827 Z-4.500 I-3.413 J0.000 F1240
G3 X99.907 Y-125.274 Z-4.500 I0.245 J-0.202 F1240
G1 X100.152 Y-125.476 Z-4.500 F1240
G1 X100.206 Y-125.521 Z-4.492 F1240
G1 X100.258 Y-125.564 Z-4.469 F1240
G1 X100.304 Y-125.603 Z-4.431 F1240
G1 X100.343 Y-125.635 Z-4.380 F1240
G1 X100.372 Y-125.659 Z-4.320 F1240
G1 X100.390 Y-125.674 Z-4.253 F1240
G1 X100.397 Y-125.679 Z-4.183 F1240
G1 X100.397 Y-125.679 Z5.000 F1240
G1 X142.800 Y-115.707 Z5.000 F1240
G1 X142.800 Y-115.707 Z2.818 F762
G1 X142.792 Y-115.707 Z2.747 F1240
G1 X142.769 Y-115.707 Z2.680 F1240
G1 X142.731 Y-115.707 Z2.620 F1240
G1 X142.680 Y-115.707 Z2.569 F1240
G1 X142.620 Y-115.707 Z2.531 F1240
G1 X142.553 Y-115.707 Z2.508 F1240
G1 X142.482 Y-115.707 Z2.500 F1240
G1 X142.165 Y-115.707 Z2.500 F1240
G3 X141.848 Y-116.025 Z2.500 I0.000 J-0.318 F1240
G1 X141.848 Y-129.413 Z2.332 F762
G1 X172.673 Y-129.413 Z1.944 F762
G1 X172.673 Y-104.588 Z1.632 F762
G1 X141.848 Y-104.588 Z1.244 F762
G1 X141.848 Y-129.413 Z0.932 F762
G1 X172.673 Y-129.413 Z0.544 F762
G1 X172.673 Y-104.588 Z0.232 F762
G1 X141.848 Y-104.588 Z-0.156 F762
G1 X141.848 Y-129.413 Z-0.468 F762
G1 X172.673 Y-129.413 Z-0.856 F762
G1 X172.673 Y-104.588 Z-1.168 F762
G1 X154.260 Y-104.588 Z-1.400 F762
G1 X141.848 Y-104.588 Z-1.400 F1240
G1 X141.848 Y-129.413 Z-1.400 F1240
G1 X172.673 Y-129.413 Z-1.400 F1240
G1 X172.673 Y-104.588 Z-1.400 F1240
G1 X154.260 Y-104.588 Z-1.400 F1240
G1 X141.848 Y-104.588 Z-1.556 F762
G1 X141.848 Y-129.413 Z-1.868 F762
G1 X172.673 Y-129.413 Z-2.256 F762
G1 X172.673 Y-104.588 Z-2.568 F762
G1 X154.260 Y-104.588 Z-2.800 F762
G1 X141.848 Y-104.588 Z-2.800 F1240
G1 X141.848 Y-129.413 Z-2.800 F1240
G1 X172.673 Y-129.413 Z-2.800 F1240
G1 X172.673 Y-104.588 Z-2.800 F1240
G1 X154.260 Y-104.588 Z-2.800 F1240
G1 X141.848 Y-104.588 Z-2.956 F762
G1 X141.848 Y-129.413 Z-3.268 F762
G1 X172.185 Y-129.413 Z-3.650 F762
G1 X172.673 Y-129.413 Z-3.650 F1240
G1 X172.673 Y-104.588 Z-3.650 F1240
G1 X154.260 Y-104.588 Z-3.650 F1240
G1 X141.848 Y-104.588 Z-3.650 F1240
G1 X141.848 Y-129.413 Z-3.650 F1240
G1 X172.185 Y-129.413 Z-3.650 F1240
G1 X172.673 Y-129.413 Z-3.656 F762
G1 X172.673 Y-104.588 Z-3.968 F762
G1 X141.848 Y-104.588 Z-4.356 F762
G1 X141.848 Y-116.025 Z-4.500 F762
G1 X141.848 Y-129.413 Z-4.500 F1240
G1 X172.185 Y-129.413 Z-4.500 F1240
G1 X172.673 Y-129.413 Z-4.500 F1240
G1 X172.673 Y-104.588 Z-4.500 F1240
G1 X141.848 Y-104.588 Z-4.500 F1240
G1 X141.848 Y-116.025 Z-4.500 F1240
G3 X142.165 Y-116.342 Z-4.500 I0.317 J0.000 F1240
G1 X142.482 Y-116.342 Z-4.500 F1240
G1 X142.553 Y-116.342 Z-4.492 F1240
G1 X142.620 Y-116.342 Z-4.469 F1240
G1 X142.680 Y-116.342 Z-4.431 F1240
G1 X142.731 Y-116.342 Z-4.380 F1240
G1 X142.769 Y-116.342 Z-4.320 F1240
G1 X142.792 Y-116.342 Z-4.253 F1240
G1 X142.800 Y-116.342 Z-4.183 F1240
G1 X142.800 Y-116.342 Z5.000 F1240
G1 X188.666 Y-109.670 Z5.000 F1240
G1 X188.666 Y-109.670 Z2.818 F762
G1 X188.658 Y-109.668 Z2.747 F1240
G1 X188.635 Y-109.663 Z2.680 F1240
G1 X188.598 Y-109.654 Z2.620 F1240
G1 X188.549 Y-109.643 Z2.569 F1240
G1 X188.491 Y-109.630 Z2.531 F1240
G1 X188.425 Y-109.615 Z2.508 F1240
G1 X188.356 Y-109.599 Z2.500 F1240
G1 X188.047 Y-109.529 Z2.500 F1240
G3 X187.667 Y-109.767 Z2.500 I-0.071 J-0.310 F1240
G3 X200.657 Y-112.733 Z1.800 I6.495 J-1.483 F762
G3 X187.667 Y-109.767 Z1.100 I-6.495 J1.483 F762
G3 X200.657 Y-112.733 Z0.400 I6.495 J-1.483 F762
G3 X187.667 Y-109.767 Z-0.300 I-6.495 J1.483 F762
G3 X200.657 Y-112.733 Z-1.000 I6.495 J-1.483 F762
G3 X194.162 Y-104.588 Z-1.400 I-6.495 J1.483 F762
G3 X194.162 Y-117.912 Z-1.400 I0.000 J-6.662 F1240
G3 X194.162 Y-104.588 Z-1.400 I0.000 J6.662 F1240
G3 X194.162 Y-117.912 Z-2.100 I0.000 J-6.662 F762
G3 X194.162 Y-104.588 Z-2.800 I0.000 J6.662 F762
G3 X194.162 Y-117.912 Z-2.800 I0.000 J-6.662 F1240
G3 X194.162 Y-104.588 Z-2.800 I0.000 J6.662 F1240
G3 X194.162 Y-117.912 Z-3.500 I0.000 J-6.662 F762
G3 X198.316 Y-116.459 Z-3.650 I0.000 J6.662 F762
G3 X190.008 Y-106.041 Z-3.650 I-4.154 J5.209 F1240
G3 X198.316 Y-116.459 Z-3.650 I4.154 J-5.209 F1240
G3 X190.008 Y-106.041 Z-4.350 I-4.154 J5.209 F762
G3 X187.667 Y-109.767 Z-4.500 I4.154 J-5.209 F762
G3 X200.657 Y-112.733 Z-4.500 I6.495 J-1.483 F1240
G3 X187.667 Y-109.767 Z-4.500 I-6.495 J1.483 F1240
G3 X187.905 Y-110.148 Z-4.500 I0.310 J-0.071 F1240
G1 X188.215 Y-110.218 Z-4.500 F1240
G1 X188.284 Y-110.234 Z-4.492 F1240
G1 X188.349 Y-110.249 Z-4.469 F1240
G1 X188.408 Y-110.262 Z-4.431 F1240
G1 X188.457 Y-110.274 Z-4.380 F1240
G1 X188.494 Y-110.282 Z-4.320 F1240
G1 X188.517 Y-110.287 Z-4.253 F1240
G1 X188.525 Y-110.289 Z-4.183 F1240
G1 X188.525 Y-110.289 Z5.000 F1240
G1 X90.504 Y-51.615 Z5.000 F1240
G1 X90.504 Y-51.615 Z2.818 F762
G1 X90.496 Y-51.614 Z2.747 F1240
G1 X90.473 Y-51.608 Z2.680 F1240
G1 X90.436 Y-51.600 Z2.620 F1240
G1 X90.387 Y-51.589 Z2.569 F1240
G1 X90.329 Y-51.575 Z2.531 F1240
G1 X90.263 Y-51.560 Z2.508 F1240
G1 X90.194 Y-51.545 Z2.500 F1240
G1 X89.885 Y-51.474 Z2.500 F1240
G3 X89.505 Y-51.713 Z2.500 I-0.071 J-0.310 F1240
G3 X102.495 Y-54.678 Z1.800 I6.495 J-1.483 F762
G3 X89.505 Y-51.713 Z1.100 I-6.495 J1.483 F762
G3 X102.495 Y-54.678 Z0.400 I6.495 J-1.483 F762
G3 X89.505 Y-51.713 Z-0.300 I-6.495 J1.483 F762
G3 X102.495 Y-54.678 Z-1.000 I6.495 J-1.483 F762
G3 X96.000 Y-46.533 Z-1.400 I-6.495 J1.483 F762
G3 X96.000 Y-59.858 Z-1.400 I0.000 J-6.662 F1240
G3 X96.000 Y-46.533 Z-1.400 I0.000 J6.662 F1240
G3 X96.000 Y-59.858 Z-2.100 I0.000 J-6.662 F762
G3 X96.000 Y-46.533 Z-2.800 I0.000 J6.662 F762
G3 X96.000 Y-59.858 Z-2.800 I0.000 J-6.662 F1240
G3 X96.000 Y-46.533 Z-2.800 I0.000 J6.662 F1240
G3 X96.000 Y-59.858 Z-3.500 I0.000 J-6.662 F762
G3 X100.154 Y-58.404 Z-3.650 I0.000 J6.663 F762
G3 X91.846 Y-47.987 Z-3.650 I-4.154 J5.209 F1240
G3 X100.154 Y-58.404 Z-3.650 I4.154 J-5.209 F1240
G3 X91.846 Y-47.987 Z-4.350 I-4.154 J5.209 F762
G3 X89.505 Y-51.713 Z-4.500 I4.154 J-5.209 F762
G3 X102.495 Y-54.678 Z-4.500 I6.495 J-1.483 F1240
G3 X89.505 Y-51.713 Z-4.500 I-6.495 J1.483 F1240
G3 X89.743 Y-52.093 Z-4.500 I0.310 J-0.071 F1240
G1 X90.053 Y-52.164 Z-4.500 F1240
G1 X90.122 Y-52.180 Z-4.492 F1240
G1 X90.187 Y-52.194 Z-4.469 F1240
G1 X90.246 Y-52.208 Z-4.431 F1240
G1 X90.295 Y-52.219 Z-4.380 F1240
G1 X90.332 Y-52.227 Z-4.320 F1240
G1 X90.355 Y-52.233 Z-4.253 F1240
G1 X90.363 Y-52.234 Z-4.183 F1240
G1 X90.363 Y-52.234 Z5.000 F1240
G1 X90.504 Y-27.615 Z5.000 F1240
G1 X90.504 Y-27.615 Z2.818 F762
G1 X90.496 Y-27.614 Z2.747 F1240
G1 X90.473 Y-27.608 Z2.680 F1240
G1 X90.436 Y-27.600 Z2.620 F1240
G1 X90.387 Y-27.589 Z2.569 F1240
G1 X90.329 Y-27.575 Z2.531 F1240
G1 X90.263 Y-27.560 Z2.508 F1240
G1 X90.194 Y-27.545 Z2.500 F1240
G1 X89.885 Y-27.474 Z2.500 F1240
G3 X89.505 Y-27.713 Z2.500 I-0.071 J-0.310 F1240
G3 X102.495 Y-30.678 Z1.800 I6.495 J-1.483 F762
G3 X89.505 Y-27.713 Z1.100 I-6.495 J1.483 F762
G3 X102.495 Y-30.678 Z0.400 I6.495 J-1.483 F762
G3 X89.505 Y-27.713 Z-0.300 I-6.495 J1.483 F762
G3 X102.495 Y-30.678 Z-1.000 I6.495 J-1.483 F762
G3 X96.000 Y-22.533 Z-1.400 I-6.495 J1.483 F762
G3 X96.000 Y-35.858 Z-1.400 I0.000 J-6.662 F1240
G3 X96.000 Y-22.533 Z-1.400 I0.000 J6.662 F1240
G3 X96.000 Y-35.858 Z-2.100 I0.000 J-6.662 F762
G3 X96.000 Y-22.533 Z-2.800 I0.000 J6.662 F762
G3 X96.000 Y-35.858 Z-2.800 I0.000 J-6.662 F1240
G3 X96.000 Y-22.533 Z-2.800 I0.000 J6.662 F1240
G3 X96.000 Y-35.858 Z-3.500 I0.000 J-6.662 F762
G3 X100.154 Y-34.404 Z-3.650 I0.000 J6.663 F762
G3 X91.846 Y-23.987 Z-3.650 I-4.154 J5.209 F1240
G3 X100.154 Y-34.404 Z-3.650 I4.154 J-5.209 F1240
G3 X91.846 Y-23.987 Z-4.350 I-4.154 J5.209 F762
G3 X89.505 Y-27.713 Z-4.500 I4.154 J-5.209 F762
G3 X102.495 Y-30.678 Z-4.500 I6.495 J-1.483 F1240
G3 X89.505 Y-27.713 Z-4.500 I-6.495 J1.483 F1240
G3 X89.743 Y-28.093 Z-4.500 I0.310 J-0.071 F1240
G1 X90.053 Y-28.164 Z-4.500 F1240
G1 X90.122 Y-28.180 Z-4.492 F1240
G1 X90.187 Y-28.194 Z-4.469 F1240
G1 X90.246 Y-28.208 Z-4.431 F1240
G1 X90.295 Y-28.219 Z-4.380 F1240
G1 X90.332 Y-28.227 Z-4.320 F1240
G1 X90.355 Y-28.233 Z-4.253 F1240
G1 X90.363 Y-28.234 Z-4.183 F1240
G1 X90.363 Y-28.234 Z5.000 F1240
G1 X70.494 Y-29.434 Z5.000 F1240
G1 X70.494 Y-29.434 Z2.818 F762
G1 X70.490 Y-29.440 Z2.747 F1240
G1 X70.479 Y-29.461 Z2.680 F1240
G1 X70.459 Y-29.493 Z2.620 F1240
G1 X70.434 Y-29.537 Z2.569 F1240
G1 X70.404 Y-29.589 Z2.531 F1240
G1 X70.370 Y-29.647 Z2.508 F1240
G1 X70.335 Y-29.708 Z2.500 F1240
G1 X70.175 Y-29.983 Z2.500 F1240
G3 X70.290 Y-30.417 Z2.500 I0.274 J-0.160 F1240
G3 X71.710 Y-27.974 Z2.345 I0.710 J1.221 F762
G3 X70.290 Y-30.417 Z2.190 I-0.710 J-1.221 F762
G3 X71.710 Y-27.974 Z2.035 I0.710 J1.221 F762
G3 X70.290 Y-30.417 Z1.880 I-0.710 J-1.221 F762
G3 X71.710 Y-27.974 Z1.725 I0.710 J1.221 F762
G3 X70.290 Y-30.417 Z1.570 I-0.710 J-1.221 F762
G3 X71.710 Y-27.974 Z1.415 I0.710 J1.221 F762
G3 X70.290 Y-30.417 Z1.260 I-0.710 J-1.221 F762
G3 X71.710 Y-27.974 Z1.105 I0.710 J1.221 F762
G3 X70.290 Y-30.417 Z0.950 I-0.710 J-1.221 F762
G3 X71.710 Y-27.974 Z0.795 I0.710 J1.221 F762
G3 X70.290 Y-30.417 Z0.640 I-0.710 J-1.221 F762
G3 X71.710 Y-27.974 Z0.486 I0.710 J1.221 F762
G3 X70.290 Y-30.417 Z0.331 I-0.710 J-1.221 F762
G3 X71.710 Y-27.974 Z0.176 I0.710 J1.221 F762
G3 X70.290 Y-30.417 Z0.021 I-0.710 J-1.221 F762
G3 X71.710 Y-27.974 Z-0.134 I0.710 J1.221 F762
G3 X70.290 Y-30.417 Z-0.289 I-0.710 J-1.221 F762
G3 X71.710 Y-27.974 Z-0.444 I0.710 J1.221 F762
G3 X70.290 Y-30.417 Z-0.599 I-0.710 J-1.221 F762
G3 X71.710 Y-27.974 Z-0.754 I0.710 J1.221 F762
G3 X70.290 Y-30.417 Z-0.909 I-0.710 J-1.221 F762
G3 X71.710 Y-27.974 Z-1.064 I0.710 J1.221 F762
G3 X70.290 Y-30.417 Z-1.219 I-0.710 J-1.221 F762
G3 X71.710 Y-27.974 Z-1.374 I0.710 J1.221 F762
G3 X71.000 Y-27.783 Z-1.400 I-0.710 J-1.221 F762
G3 X71.000 Y-30.608 Z-1.400 I0.000 J-1.412 F1240
G3 X71.000 Y-27.783 Z-1.400 I0.000 J1.412 F1240
G3 X71.000 Y-30.608 Z-1.555 I0.000 J-1.412 F762
G3 X71.000 Y-27.783 Z-1.710 I0.000 J1.412 F762
G3 X71.000 Y-30.608 Z-1.865 I0.000 J-1.412 F762
G3 X71.000 Y-27.783 Z-2.020 I0.000 J1.412 F762
G3 X71.000 Y-30.608 Z-2.175 I0.000 J-1.412 F762
G3 X71.000 Y-27.783 Z-2.330 I0.000 J1.412 F762
G3 X71.000 Y-30.608 Z-2.485 I0.000 J-1.412 F762
G3 X71.000 Y-27.783 Z-2.640 I0.000 J1.412 F762
G3 X69.590 Y-29.272 Z-2.720 I0.000 J-1.412 F762
G3 X71.153 Y-30.600 Z-2.800 I1.410 J0.077 F762
G3 X70.847 Y-27.791 Z-2.800 I-0.153 J1.404 F1240
G3 X71.153 Y-30.600 Z-2.800 I0.153 J-1.404 F1240
G3 X70.847 Y-27.791 Z-2.955 I-0.153 J1.404 F762
G3 X71.153 Y-30.600 Z-3.110 I0.153 J-1.404 F762
G3 X70.847 Y-27.791 Z-3.265 I-0.153 J1.404 F762
G3 X71.153 Y-30.600 Z-3.420 I0.153 J-1.404 F762
G3 X70.847 Y-27.791 Z-3.575 I-0.153 J1.404 F762
G3 X69.590 Y-29.283 Z-3.650 I0.153 J-1.404 F762
G3 X72.410 Y-29.108 Z-3.650 I1.410 J0.088 F1240
G3 X69.590 Y-29.283 Z-3.650 I-1.410 J-0.088 F1240
G3 X72.410 Y-29.108 Z-3.805 I1.410 J0.088 F762
G3 X69.590 Y-29.283 Z-3.960 I-1.410 J-0.088 F762
G3 X72.410 Y-29.108 Z-4.115 I1.410 J0.088 F762
G3 X69.590 Y-29.283 Z-4.270 I-1.410 J-0.088 F762
G3 X72.410 Y-29.108 Z-4.425 I1.410 J0.088 F762
G3 X70.978 Y-27.783 Z-4.500 I-1.410 J-0.088 F762
G3 X71.022 Y-30.608 Z-4.500 I0.022 J-1.412 F1240
G3 X70.978 Y-27.783 Z-4.500 I-0.022 J1.412 F1240
G3 X70.665 Y-28.106 Z-4.500 I0.005 J-0.317 F1240
G1 X70.670 Y-28.423 Z-4.500 F1240
G1 X70.671 Y-28.494 Z-4.492 F1240
G1 X70.672 Y-28.561 Z-4.469 F1240
G1 X70.673 Y-28.621 Z-4.431 F1240
G1 X70.674 Y-28.671 Z-4.380 F1240
G1 X70.675 Y-28.709 Z-4.320 F1240
G1 X70.675 Y-28.733 Z-4.253 F1240
G1 X70.675 Y-28.741 Z-4.183 F1240
G1 X70.675 Y-28.741 Z5.000 F1240
G1 X70.494 Y-53.434 Z5.000 F1240
G1 X70.494 Y-53.434 Z2.818 F762
G1 X70.490 Y-53.440 Z2.747 F1240
G1 X70.479 Y-53.461 Z2.680 F1240
G1 X70.459 Y-53.493 Z2.620 F1240
G1 X70.434 Y-53.537 Z2.569 F1240
G1 X70.404 Y-53.589 Z2.531 F1240
G1 X70.370 Y-53.647 Z2.508 F1240
G1 X70.335 Y-53.708 Z2.500 F1240
G1 X70.175 Y-53.983 Z2.500 F1240
G3 X70.290 Y-54.417 Z2.500 I0.274 J-0.160 F1240
G3 X71.710 Y-51.974 Z2.345 I0.710 J1.221 F762
G3 X70.290 Y-54.417 Z2.190 I-0.710 J-1.221 F762
G3 X71.710 Y-51.974 Z2.035 I0.710 J1.221 F762
G3 X70.290 Y-54.417 Z1.880 I-0.710 J-1.221 F762
G3 X71.710 Y-51.974 Z1.725 I0.710 J1.221 F762
G3 X70.290 Y-54.417 Z1.570 I-0.710 J-1.221 F762
G3 X71.710 Y-51.974 Z1.415 I0.710 J1.221 F762
G3 X70.290 Y-54.417 Z1.260 I-0.710 J-1.221 F762
G3 X71.710 Y-51.974 Z1.105 I0.710 J1.221 F762
G3 X70.290 Y-54.417 Z0.950 I-0.710 J-1.221 F762
G3 X71.710 Y-51.974 Z0.795 I0.710 J1.221 F762
G3 X70.290 Y-54.417 Z0.640 I-0.710 J-1.221 F762
G3 X71.710 Y-51.974 Z0.486 I0.710 J1.221 F762
G3 X70.290 Y-54.417 Z0.331 I-0.710 J-1.221 F762
G3 X71.710 Y-51.974 Z0.176 I0.710 J1.221 F762
G3 X70.290 Y-54.417 Z0.021 I-0.710 J-1.221 F762
G3 X71.710 Y-51.974 Z-0.134 I0.710 J1.221 F762
G3 X70.290 Y-54.417 Z-0.289 I-0.710 J-1.221 F762
G3 X71.710 Y-51.974 Z-0.444 I0.710 J1.221 F762
G3 X70.290 Y-54.417 Z-0.599 I-0.710 J-1.221 F762
G3 X71.710 Y-51.974 Z-0.754 I0.710 J1.221 F762
G3 X70.290 Y-54.417 Z-0.909 I-0.710 J-1.221 F762
G3 X71.710 Y-51.974 Z-1.064 I0.710 J1.221 F762
G3 X70.290 Y-54.417 Z-1.219 I-0.710 J-1.221 F762
G3 X71.710 Y-51.974 Z-1.374 I0.710 J1.221 F762
G3 X71.000 Y-51.783 Z-1.400 I-0.710 J-1.221 F762
G3 X71.000 Y-54.608 Z-1.400 I0.000 J-1.412 F1240
G3 X71.000 Y-51.783 Z-1.400 I0.000 J1.412 F1240
G3 X71.000 Y-54.608 Z-1.555 I0.000 J-1.412 F762
G3 X71.000 Y-51.783 Z-1.710 I0.000 J1.412 F762
G3 X71.000 Y-54.608 Z-1.865 I0.000 J-1.412 F762
G3 X71.000 Y-51.783 Z-2.020 I0.000 J1.412 F762
G3 X71.000 Y-54.608 Z-2.175 I0.000 J-1.412 F762
G3 X71.000 Y-51.783 Z-2.330 I0.000 J1.412 F762
G3 X71.000 Y-54.608 Z-2.485 I0.000 J-1.412 F762
G3 X71.000 Y-51.783 Z-2.640 I0.000 J1.412 F762
G3 X69.590 Y-53.272 Z-2.720 I0.000 J-1.412 F762
G3 X71.153 Y-54.600 Z-2.800 I1.410 J0.077 F762
G3 X70.847 Y-51.791 Z-2.800 I-0.153 J1.404 F1240
G3 X71.153 Y-54.600 Z-2.800 I0.153 J-1.404 F1240
G3 X70.847 Y-51.791 Z-2.955 I-0.153 J1.404 F762
G3 X71.153 Y-54.600 Z-3.110 I0.153 J-1.404 F762
G3 X70.847 Y-51.791 Z-3.265 I-0.153 J1.404 F762
G3 X71.153 Y-54.600 Z-3.420 I0.153 J-1.404 F762
G3 X70.847 Y-51.791 Z-3.575 I-0.153 J1.404 F762
G3 X69.590 Y-53.283 Z-3.650 I0.153 J-1.404 F762
G3 X72.410 Y-53.108 Z-3.650 I1.410 J0.088 F1240
G3 X69.590 Y-53.283 Z-3.650 I-1.410 J-0.088 F1240
G3 X72.410 Y-53.108 Z-3.805 I1.410 J0.088 F762
G3 X69.590 Y-53.283 Z-3.960 I-1.410 J-0.088 F762
G3 X72.410 Y-53.108 Z-4.115 I1.410 J0.088 F762
G3 X69.590 Y-53.283 Z-4.270 I-1.410 J-0.088 F762
G3 X72.410 Y-53.108 Z-4.425 I1.410 J0.088 F762
G3 X70.978 Y-51.783 Z-4.500 I-1.410 J-0.088 F762
G3 X71.022 Y-54.608 Z-4.500 I0.022 J-1.412 F1240
G3 X70.978 Y-51.783 Z-4.500 I-0.022 J1.412 F1240
G3 X70.665 Y-52.106 Z-4.500 I0.005 J-0.317 F1240
G1 X70.670 Y-52.423 Z-4.500 F1240
G1 X70.671 Y-52.494 Z-4.492 F1240
G1 X70.672 Y-52.561 Z-4.469 F1240
G1 X70.673 Y-52.621 Z-4.431 F1240
G1 X70.674 Y-52.671 Z-4.380 F1240
G1 X70.675 Y-52.709 Z-4.320 F1240
G1 X70.675 Y-52.733 Z-4.253 F1240
G1 X70.675 Y-52.741 Z-4.183 F1240
G1 X70.675 Y-52.741 Z15.000 F1240
