(front_engraving)
(Machine)
(  vendor: Ooznest)
(  model: Workbee 1000x1500)
(  description: This machine has YXZ axis on the Head)
G21
G90
(When using Fusion 360 for Personal Use, the feedrate of)
(rapid moves is reduced to match the feedrate of cutting)
(moves, which can increase machining time. Unrestricted rapid)
(moves are available with a Fusion 360 Subscription.)

(Trace1)
G0 X145.094 Y-89.571 Z15.000
G1 X145.094 Y-89.571 Z15.000 F1000
G1 X145.094 Y-89.571 Z5.000 F1000
G1 X145.094 Y-89.571 Z-0.400 F333.3
G1 X147.532 Y-89.571 Z-0.400 F1000
G1 X145.094 Y-93.958 Z-0.400 F1000
G1 X147.532 Y-93.958 Z-0.400 F1000
G1 X147.532 Y-93.958 Z5.000 F1000
G1 X149.969 Y-88.352 Z5.000 F1000
G1 X149.969 Y-88.352 Z-0.400 F333.3
G1 X150.944 Y-87.620 Z-0.400 F1000
G1 X150.944 Y-87.620 Z5.000 F1000
G1 X153.382 Y-89.571 Z5.000 F1000
G1 X153.382 Y-89.571 Z-0.400 F333.3
G1 X155.819 Y-89.571 Z-0.400 F1000
G1 X153.382 Y-93.958 Z-0.400 F1000
G1 X155.819 Y-93.958 Z-0.400 F1000
G1 X155.819 Y-93.958 Z5.000 F1000
G1 X157.282 Y-93.958 Z5.000 F1000
G1 X157.282 Y-93.958 Z-0.400 F333.3
G1 X157.282 Y-89.571 Z-0.400 F1000
G1 X159.719 Y-93.958 Z-0.400 F1000
G1 X159.719 Y-89.571 Z-0.400 F1000
G1 X159.719 Y-89.571 Z5.000 F1000
G1 X161.608 Y-92.739 Z5.000 F1000
G1 X161.608 Y-92.739 Z-0.400 F333.3
G1 X163.680 Y-92.739 Z-0.400 F1000
G1 X163.680 Y-92.739 Z5.000 F1000
G1 X164.107 Y-93.958 Z5.000 F1000
G1 X164.107 Y-93.958 Z-0.400 F333.3
G1 X162.644 Y-89.571 Z-0.400 F1000
G1 X161.182 Y-93.958 Z-0.400 F1000
G1 X161.182 Y-93.958 Z5.000 F1000
G1 X165.569 Y-93.958 Z5.000 F1000
G1 X165.569 Y-93.958 Z-0.400 F333.3
G1 X165.569 Y-89.571 Z-0.400 F1000
G1 X167.032 Y-92.008 Z-0.400 F1000
G1 X168.494 Y-89.571 Z-0.400 F1000
G1 X168.494 Y-93.958 Z-0.400 F1000
G1 X168.494 Y-93.958 Z5.000 F1000
G1 X134.000 Y-77.391 Z5.000 F1000
G1 X134.000 Y-77.391 Z-0.400 F333.3
G1 X213.000 Y-77.391 Z-0.400 F1000
G1 X213.336 Y-77.410 Z-0.400 F1000
G1 X213.668 Y-77.466 Z-0.400 F1000
G1 X213.991 Y-77.559 Z-0.400 F1000
G1 X214.302 Y-77.688 Z-0.400 F1000
G1 X214.596 Y-77.851 Z-0.400 F1000
G1 X214.870 Y-78.046 Z-0.400 F1000
G1 X215.121 Y-78.270 Z-0.400 F1000
G1 X215.345 Y-78.521 Z-0.400 F1000
G1 X215.540 Y-78.795 Z-0.400 F1000
G1 X215.703 Y-79.089 Z-0.400 F1000
G1 X215.832 Y-79.400 Z-0.400 F1000
G1 X215.925 Y-79.723 Z-0.400 F1000
G1 X215.981 Y-80.055 Z-0.400 F1000
G1 X216.000 Y-80.391 Z-0.400 F1000
G1 X216.000 Y-136.000 Z-0.400 F1000
G1 X215.981 Y-136.336 Z-0.400 F1000
G1 X215.925 Y-136.668 Z-0.400 F1000
G1 X215.832 Y-136.991 Z-0.400 F1000
G1 X215.703 Y-137.302 Z-0.400 F1000
G1 X215.540 Y-137.596 Z-0.400 F1000
G1 X215.345 Y-137.870 Z-0.400 F1000
G1 X215.121 Y-138.121 Z-0.400 F1000
G1 X214.870 Y-138.345 Z-0.400 F1000
G1 X214.596 Y-138.540 Z-0.400 F1000
G1 X214.302 Y-138.703 Z-0.400 F1000
G1 X213.991 Y-138.832 Z-0.400 F1000
G1 X213.668 Y-138.925 Z-0.400 F1000
G1 X213.336 Y-138.981 Z-0.400 F1000
G1 X213.000 Y-139.000 Z-0.400 F1000
G1 X134.000 Y-139.000 Z-0.400 F1000
G1 X133.664 Y-138.981 Z-0.400 F1000
G1 X133.332 Y-138.925 Z-0.400 F1000
G1 X133.009 Y-138.832 Z-0.400 F1000
G1 X132.698 Y-138.703 Z-0.400 F1000
G1 X132.404 Y-138.540 Z-0.400 F1000
G1 X132.130 Y-138.345 Z-0.400 F1000
G1 X131.879 Y-138.121 Z-0.400 F1000
G1 X131.655 Y-137.870 Z-0.400 F1000
G1 X131.460 Y-137.596 Z-0.400 F1000
G1 X131.297 Y-137.302 Z-0.400 F1000
G1 X131.168 Y-136.991 Z-0.400 F1000
G1 X131.075 Y-136.668 Z-0.400 F1000
G1 X131.019 Y-136.336 Z-0.400 F1000
G1 X131.000 Y-136.000 Z-0.400 F1000
G1 X131.000 Y-80.391 Z-0.400 F1000
G1 X131.019 Y-80.055 Z-0.400 F1000
G1 X131.075 Y-79.723 Z-0.400 F1000
G1 X131.168 Y-79.400 Z-0.400 F1000
G1 X131.297 Y-79.089 Z-0.400 F1000
G1 X131.460 Y-78.795 Z-0.400 F1000
G1 X131.655 Y-78.521 Z-0.400 F1000
G1 X131.879 Y-78.270 Z-0.400 F1000
G1 X132.130 Y-78.046 Z-0.400 F1000
G1 X132.404 Y-77.851 Z-0.400 F1000
G1 X132.698 Y-77.688 Z-0.400 F1000
G1 X133.009 Y-77.559 Z-0.400 F1000
G1 X133.332 Y-77.466 Z-0.400 F1000
G1 X133.664 Y-77.410 Z-0.400 F1000
G1 X134.000 Y-77.391 Z-0.400 F1000
G1 X134.000 Y-77.391 Z5.000 F1000
G1 X200.091 Y-89.556 Z5.000 F1000
G1 X200.091 Y-89.556 Z-0.400 F333.3
G1 X202.528 Y-89.556 Z-0.400 F1000
G1 X202.528 Y-89.556 Z5.000 F1000
G1 X201.310 Y-89.556 Z5.000 F1000
G1 X201.310 Y-89.556 Z-0.400 F333.3
G1 X201.310 Y-93.944 Z-0.400 F1000
G1 X201.310 Y-93.944 Z5.000 F1000
G1 X198.628 Y-93.944 Z5.000 F1000
G1 X198.628 Y-93.944 Z-0.400 F333.3
G1 X196.678 Y-93.944 Z-0.400 F1000
G1 X196.678 Y-89.556 Z-0.400 F1000
G1 X198.628 Y-89.556 Z-0.400 F1000
G1 X198.628 Y-89.556 Z5.000 F1000
G1 X198.141 Y-91.506 Z5.000 F1000
G1 X198.141 Y-91.506 Z-0.400 F333.3
G1 X196.678 Y-91.506 Z-0.400 F1000
G1 X196.678 Y-91.506 Z5.000 F1000
G1 X194.972 Y-89.800 Z5.000 F1000
G1 X194.972 Y-89.800 Z-0.400 F333.3
G1 X194.677 Y-89.696 Z-0.400 F1000
G1 X194.374 Y-89.621 Z-0.400 F1000
G1 X194.065 Y-89.574 Z-0.400 F1000
G1 X193.753 Y-89.556 Z-0.400 F1000
G1 X193.568 Y-89.575 Z-0.400 F1000
G1 X193.389 Y-89.628 Z-0.400 F1000
G1 X193.224 Y-89.714 Z-0.400 F1000
G1 X193.078 Y-89.830 Z-0.400 F1000
G1 X192.957 Y-89.972 Z-0.400 F1000
G1 X192.865 Y-90.133 Z-0.400 F1000
G1 X192.805 Y-90.310 Z-0.400 F1000
G1 X192.779 Y-90.494 Z-0.400 F1000
G1 X192.789 Y-90.680 Z-0.400 F1000
G1 X192.834 Y-90.861 Z-0.400 F1000
G1 X192.913 Y-91.030 Z-0.400 F1000
G1 X193.022 Y-91.182 Z-0.400 F1000
G1 X193.157 Y-91.309 Z-0.400 F1000
G1 X193.315 Y-91.409 Z-0.400 F1000
G1 X194.680 Y-92.091 Z-0.400 F1000
G1 X194.837 Y-92.191 Z-0.400 F1000
G1 X194.973 Y-92.319 Z-0.400 F1000
G1 X195.082 Y-92.470 Z-0.400 F1000
G1 X195.160 Y-92.639 Z-0.400 F1000
G1 X195.205 Y-92.820 Z-0.400 F1000
G1 X195.215 Y-93.006 Z-0.400 F1000
G1 X195.190 Y-93.190 Z-0.400 F1000
G1 X195.130 Y-93.367 Z-0.400 F1000
G1 X195.037 Y-93.529 Z-0.400 F1000
G1 X194.916 Y-93.670 Z-0.400 F1000
G1 X194.770 Y-93.786 Z-0.400 F1000
G1 X194.605 Y-93.872 Z-0.400 F1000
G1 X194.426 Y-93.925 Z-0.400 F1000
G1 X194.241 Y-93.944 Z-0.400 F1000
G1 X193.930 Y-93.914 Z-0.400 F1000
G1 X193.625 Y-93.849 Z-0.400 F1000
G1 X193.328 Y-93.750 Z-0.400 F1000
G1 X193.045 Y-93.619 Z-0.400 F1000
G1 X192.778 Y-93.456 Z-0.400 F1000
G1 X192.778 Y-93.456 Z5.000 F1000
G1 X191.316 Y-93.944 Z5.000 F1000
G1 X191.316 Y-93.944 Z-0.400 F333.3
G1 X189.366 Y-93.944 Z-0.400 F1000
G1 X189.366 Y-89.556 Z-0.400 F1000
G1 X191.316 Y-89.556 Z-0.400 F1000
G1 X191.316 Y-89.556 Z5.000 F1000
G1 X190.828 Y-91.506 Z5.000 F1000
G1 X190.828 Y-91.506 Z-0.400 F333.3
G1 X189.366 Y-91.506 Z-0.400 F1000
G1 X189.366 Y-91.506 Z5.000 F1000
G1 X186.928 Y-91.994 Z5.000 F1000
G1 X186.928 Y-91.994 Z-0.400 F333.3
G1 X187.903 Y-93.944 Z-0.400 F1000
G1 X187.903 Y-93.944 Z5.000 F1000
G1 X185.466 Y-93.944 Z5.000 F1000
G1 X185.466 Y-93.944 Z-0.400 F333.3
G1 X185.466 Y-89.556 Z-0.400 F1000
G1 X186.685 Y-89.556 Z-0.400 F1000
G1 X186.896 Y-89.575 Z-0.400 F1000
G1 X187.101 Y-89.630 Z-0.400 F1000
G1 X187.294 Y-89.720 Z-0.400 F1000
G1 X187.468 Y-89.841 Z-0.400 F1000
G1 X187.618 Y-89.992 Z-0.400 F1000
G1 X187.740 Y-90.166 Z-0.400 F1000
G1 X187.830 Y-90.358 Z-0.400 F1000
G1 X187.885 Y-90.563 Z-0.400 F1000
G1 X187.903 Y-90.775 Z-0.400 F1000
G1 X187.885 Y-90.987 Z-0.400 F1000
G1 X187.830 Y-91.192 Z-0.400 F1000
G1 X187.740 Y-91.384 Z-0.400 F1000
G1 X187.618 Y-91.559 Z-0.400 F1000
G1 X187.468 Y-91.709 Z-0.400 F1000
G1 X187.294 Y-91.831 Z-0.400 F1000
G1 X187.101 Y-91.920 Z-0.400 F1000
G1 X186.896 Y-91.975 Z-0.400 F1000
G1 X186.685 Y-91.994 Z-0.400 F1000
G1 X185.466 Y-91.994 Z-0.400 F1000
G1 X185.466 Y-91.994 Z5.000 F1000
G1 X180.793 Y-63.693 Z5.000 F1000
G1 X180.793 Y-63.693 Z-0.400 F333.3
G1 X180.004 Y-63.823 Z-0.400 F1000
G1 X179.211 Y-63.935 Z-0.400 F1000
G1 X178.415 Y-64.031 Z-0.400 F1000
G1 X177.614 Y-64.110 Z-0.400 F1000
G1 X176.810 Y-64.173 Z-0.400 F1000
G1 X176.001 Y-64.220 Z-0.400 F1000
G1 X176.168 Y-64.143 Z-0.400 F1000
G1 X176.336 Y-64.075 Z-0.400 F1000
G1 X177.318 Y-63.743 Z-0.400 F1000
G1 X178.285 Y-63.380 Z-0.400 F1000
G1 X179.237 Y-62.986 Z-0.400 F1000
G1 X180.175 Y-62.560 Z-0.400 F1000
G1 X181.097 Y-62.103 Z-0.400 F1000
G1 X182.004 Y-61.613 Z-0.400 F1000
G1 X182.895 Y-61.090 Z-0.400 F1000
G1 X183.771 Y-60.535 Z-0.400 F1000
G1 X183.907 Y-60.456 Z-0.400 F1000
G1 X184.059 Y-60.392 Z-0.400 F1000
G1 X184.212 Y-60.355 Z-0.400 F1000
G1 X184.285 Y-60.352 Z-0.400 F1000
G1 X184.353 Y-60.361 Z-0.400 F1000
G1 X186.407 Y-60.866 Z-0.400 F1000
G1 X188.456 Y-61.389 Z-0.400 F1000
G1 X187.708 Y-61.707 Z-0.400 F1000
G1 X186.956 Y-62.004 Z-0.400 F1000
G1 X186.200 Y-62.281 Z-0.400 F1000
G1 X185.440 Y-62.539 Z-0.400 F1000
G1 X184.675 Y-62.778 Z-0.400 F1000
G1 X183.907 Y-62.998 Z-0.400 F1000
G1 X183.134 Y-63.199 Z-0.400 F1000
G1 X182.358 Y-63.381 Z-0.400 F1000
G1 X181.577 Y-63.546 Z-0.400 F1000
G1 X180.793 Y-63.693 Z-0.400 F1000
G1 X180.793 Y-63.693 Z5.000 F1000
G1 X175.908 Y-63.664 Z5.000 F1000
G1 X175.908 Y-63.664 Z-0.400 F333.3
G1 X175.243 Y-63.851 Z-0.400 F1000
G1 X174.573 Y-64.022 Z-0.400 F1000
G1 X173.896 Y-64.178 Z-0.400 F1000
G1 X173.212 Y-64.319 Z-0.400 F1000
G1 X173.701 Y-64.089 Z-0.400 F1000
G1 X174.180 Y-63.846 Z-0.400 F1000
G1 X174.651 Y-63.591 Z-0.400 F1000
G1 X175.113 Y-63.325 Z-0.400 F1000
G1 X175.565 Y-63.047 Z-0.400 F1000
G1 X176.010 Y-62.757 Z-0.400 F1000
G1 X176.445 Y-62.456 Z-0.400 F1000
G1 X176.873 Y-62.143 Z-0.400 F1000
G1 X177.292 Y-61.820 Z-0.400 F1000
G1 X177.703 Y-61.485 Z-0.400 F1000
G1 X178.106 Y-61.139 Z-0.400 F1000
G1 X178.501 Y-60.783 Z-0.400 F1000
G1 X178.888 Y-60.416 Z-0.400 F1000
G1 X179.267 Y-60.038 Z-0.400 F1000
G1 X179.639 Y-59.650 Z-0.400 F1000
G1 X180.004 Y-59.252 Z-0.400 F1000
G1 X182.569 Y-59.903 Z-0.400 F1000
G1 X183.018 Y-60.017 Z-0.400 F1000
G1 X183.477 Y-60.133 Z-0.400 F1000
G1 X182.871 Y-60.521 Z-0.400 F1000
G1 X182.261 Y-60.892 Z-0.400 F1000
G1 X181.647 Y-61.245 Z-0.400 F1000
G1 X181.029 Y-61.581 Z-0.400 F1000
G1 X180.406 Y-61.899 Z-0.400 F1000
G1 X179.779 Y-62.201 Z-0.400 F1000
G1 X179.147 Y-62.486 Z-0.400 F1000
G1 X178.510 Y-62.754 Z-0.400 F1000
G1 X177.868 Y-63.006 Z-0.400 F1000
G1 X177.220 Y-63.241 Z-0.400 F1000
G1 X176.567 Y-63.460 Z-0.400 F1000
G1 X175.908 Y-63.664 Z-0.400 F1000
G1 X175.908 Y-63.664 Z5.000 F1000
G1 X179.413 Y-59.101 Z5.000 F1000
G1 X179.413 Y-59.101 Z-0.400 F333.3
G1 X179.301 Y-59.248 Z-0.400 F1000
G1 X179.207 Y-59.375 Z-0.400 F1000
G1 X179.122 Y-59.484 Z-0.400 F1000
G1 X179.037 Y-59.581 Z-0.400 F1000
G1 X178.707 Y-59.912 Z-0.400 F1000
G1 X178.372 Y-60.235 Z-0.400 F1000
G1 X178.030 Y-60.548 Z-0.400 F1000
G1 X177.682 Y-60.853 Z-0.400 F1000
G1 X177.328 Y-61.148 Z-0.400 F1000
G1 X176.967 Y-61.435 Z-0.400 F1000
G1 X176.601 Y-61.713 Z-0.400 F1000
G1 X176.228 Y-61.982 Z-0.400 F1000
G1 X175.848 Y-62.243 Z-0.400 F1000
G1 X175.463 Y-62.495 Z-0.400 F1000
G1 X175.071 Y-62.738 Z-0.400 F1000
G1 X174.672 Y-62.973 Z-0.400 F1000
G1 X174.268 Y-63.199 Z-0.400 F1000
G1 X173.857 Y-63.417 Z-0.400 F1000
G1 X173.439 Y-63.627 Z-0.400 F1000
G1 X173.015 Y-63.829 Z-0.400 F1000
G1 X172.785 Y-63.927 Z-0.400 F1000
G1 X172.556 Y-64.011 Z-0.400 F1000
G1 X172.327 Y-64.081 Z-0.400 F1000
G1 X172.098 Y-64.138 Z-0.400 F1000
G1 X171.869 Y-64.183 Z-0.400 F1000
G1 X171.640 Y-64.217 Z-0.400 F1000
G1 X171.182 Y-64.257 Z-0.400 F1000
G1 X170.723 Y-64.264 Z-0.400 F1000
G1 X170.262 Y-64.246 Z-0.400 F1000
G1 X169.800 Y-64.210 Z-0.400 F1000
G1 X169.334 Y-64.165 Z-0.400 F1000
G1 X168.501 Y-64.072 Z-0.400 F1000
G1 X167.671 Y-63.964 Z-0.400 F1000
G1 X166.846 Y-63.840 Z-0.400 F1000
G1 X166.025 Y-63.700 Z-0.400 F1000
G1 X165.209 Y-63.543 Z-0.400 F1000
G1 X164.397 Y-63.370 Z-0.400 F1000
G1 X163.589 Y-63.180 Z-0.400 F1000
G1 X162.787 Y-62.972 Z-0.400 F1000
G1 X161.990 Y-62.747 Z-0.400 F1000
G1 X161.197 Y-62.504 Z-0.400 F1000
G1 X160.410 Y-62.242 Z-0.400 F1000
G1 X159.628 Y-61.961 Z-0.400 F1000
G1 X158.851 Y-61.662 Z-0.400 F1000
G1 X158.080 Y-61.343 Z-0.400 F1000
G1 X157.315 Y-61.005 Z-0.400 F1000
G1 X156.555 Y-60.647 Z-0.400 F1000
G1 X155.651 Y-60.192 Z-0.400 F1000
G1 X154.765 Y-59.716 Z-0.400 F1000
G1 X153.899 Y-59.217 Z-0.400 F1000
G1 X153.053 Y-58.695 Z-0.400 F1000
G1 X152.228 Y-58.149 Z-0.400 F1000
G1 X151.425 Y-57.578 Z-0.400 F1000
G1 X150.646 Y-56.980 Z-0.400 F1000
G1 X149.890 Y-56.356 Z-0.400 F1000
G1 X149.159 Y-55.704 Z-0.400 F1000
G1 X148.454 Y-55.022 Z-0.400 F1000
G1 X148.111 Y-54.670 Z-0.400 F1000
G1 X147.775 Y-54.311 Z-0.400 F1000
G1 X147.446 Y-53.944 Z-0.400 F1000
G1 X147.124 Y-53.569 Z-0.400 F1000
G1 X146.809 Y-53.186 Z-0.400 F1000
G1 X146.501 Y-52.795 Z-0.400 F1000
G1 X146.201 Y-52.396 Z-0.400 F1000
G1 X145.908 Y-51.989 Z-0.400 F1000
G1 X145.623 Y-51.573 Z-0.400 F1000
G1 X145.345 Y-51.149 Z-0.400 F1000
G1 X145.075 Y-50.716 Z-0.400 F1000
G1 X144.813 Y-50.274 Z-0.400 F1000
G1 X144.394 Y-49.514 Z-0.400 F1000
G1 X144.013 Y-48.746 Z-0.400 F1000
G1 X143.669 Y-47.972 Z-0.400 F1000
G1 X143.364 Y-47.192 Z-0.400 F1000
G1 X143.097 Y-46.405 Z-0.400 F1000
G1 X142.868 Y-45.612 Z-0.400 F1000
G1 X142.678 Y-44.812 Z-0.400 F1000
G1 X142.526 Y-44.006 Z-0.400 F1000
G1 X142.413 Y-43.194 Z-0.400 F1000
G1 X142.339 Y-42.375 Z-0.400 F1000
G1 X142.304 Y-41.549 Z-0.400 F1000
G1 X142.309 Y-40.718 Z-0.400 F1000
G1 X142.352 Y-39.880 Z-0.400 F1000
G1 X142.435 Y-39.036 Z-0.400 F1000
G1 X142.491 Y-38.612 Z-0.400 F1000
G1 X142.557 Y-38.186 Z-0.400 F1000
G1 X142.634 Y-37.758 Z-0.400 F1000
G1 X142.720 Y-37.330 Z-0.400 F1000
G1 X142.813 Y-36.969 Z-0.400 F1000
G1 X142.921 Y-36.597 Z-0.400 F1000
G1 X148.196 Y-36.597 Z-0.400 F1000
G1 X148.440 Y-37.184 Z-0.400 F1000
G1 X148.695 Y-37.769 Z-0.400 F1000
G1 X148.913 Y-38.227 Z-0.400 F1000
G1 X149.142 Y-38.677 Z-0.400 F1000
G1 X149.381 Y-39.122 Z-0.400 F1000
G1 X149.629 Y-39.560 Z-0.400 F1000
G1 X150.151 Y-40.420 Z-0.400 F1000
G1 X150.701 Y-41.261 Z-0.400 F1000
G1 X151.276 Y-42.087 Z-0.400 F1000
G1 X151.869 Y-42.900 Z-0.400 F1000
G1 X153.088 Y-44.505 Z-0.400 F1000
G1 X155.271 Y-47.300 Z-0.400 F1000
G1 X157.465 Y-50.086 Z-0.400 F1000
G1 X157.683 Y-50.371 Z-0.400 F1000
G1 X157.806 Y-50.534 Z-0.400 F1000
G1 X157.947 Y-50.720 Z-0.400 F1000
G1 X146.792 Y-50.720 Z-0.400 F1000
G1 X146.776 Y-50.848 Z-0.400 F1000
G1 X163.063 Y-54.967 Z-0.400 F1000
G1 X171.226 Y-57.031 Z-0.400 F1000
G1 X179.413 Y-59.101 Z-0.400 F1000
G1 X179.413 Y-59.101 Z5.000 F1000
G1 X144.335 Y-36.025 Z5.000 F1000
G1 X144.335 Y-36.025 Z-0.400 F333.3
G1 X143.100 Y-36.025 Z-0.400 F1000
G1 X143.173 Y-35.710 Z-0.400 F1000
G1 X143.249 Y-35.434 Z-0.400 F1000
G1 X143.478 Y-34.798 Z-0.400 F1000
G1 X143.728 Y-34.174 Z-0.400 F1000
G1 X143.996 Y-33.563 Z-0.400 F1000
G1 X144.284 Y-32.964 Z-0.400 F1000
G1 X144.590 Y-32.378 Z-0.400 F1000
G1 X144.914 Y-31.804 Z-0.400 F1000
G1 X145.256 Y-31.242 Z-0.400 F1000
G1 X145.616 Y-30.691 Z-0.400 F1000
G1 X145.993 Y-30.152 Z-0.400 F1000
G1 X146.386 Y-29.624 Z-0.400 F1000
G1 X146.796 Y-29.107 Z-0.400 F1000
G1 X147.223 Y-28.601 Z-0.400 F1000
G1 X147.664 Y-28.105 Z-0.400 F1000
G1 X148.121 Y-27.620 Z-0.400 F1000
G1 X148.594 Y-27.144 Z-0.400 F1000
G1 X149.080 Y-26.679 Z-0.400 F1000
G1 X149.156 Y-26.615 Z-0.400 F1000
G1 X149.241 Y-26.556 Z-0.400 F1000
G1 X149.429 Y-26.455 Z-0.400 F1000
G1 X149.630 Y-26.387 Z-0.400 F1000
G1 X149.729 Y-26.368 Z-0.400 F1000
G1 X149.826 Y-26.362 Z-0.400 F1000
G1 X156.943 Y-26.348 Z-0.400 F1000
G1 X164.061 Y-26.350 Z-0.400 F1000
G1 X164.101 Y-26.353 Z-0.400 F1000
G1 X164.143 Y-26.366 Z-0.400 F1000
G1 X164.189 Y-26.395 Z-0.400 F1000
G1 X164.242 Y-26.445 Z-0.400 F1000
G1 X163.737 Y-26.573 Z-0.400 F1000
G1 X160.977 Y-27.208 Z-0.400 F1000
G1 X159.601 Y-27.542 Z-0.400 F1000
G1 X158.230 Y-27.892 Z-0.400 F1000
G1 X156.866 Y-28.268 Z-0.400 F1000
G1 X155.510 Y-28.673 Z-0.400 F1000
G1 X154.837 Y-28.889 Z-0.400 F1000
G1 X154.165 Y-29.115 Z-0.400 F1000
G1 X153.497 Y-29.352 Z-0.400 F1000
G1 X152.832 Y-29.600 Z-0.400 F1000
G1 X152.062 Y-29.910 Z-0.400 F1000
G1 X151.301 Y-30.249 Z-0.400 F1000
G1 X150.556 Y-30.621 Z-0.400 F1000
G1 X150.192 Y-30.820 Z-0.400 F1000
G1 X149.833 Y-31.028 Z-0.400 F1000
G1 X149.528 Y-31.217 Z-0.400 F1000
G1 X149.251 Y-31.405 Z-0.400 F1000
G1 X149.000 Y-31.595 Z-0.400 F1000
G1 X148.776 Y-31.788 Z-0.400 F1000
G1 X148.578 Y-31.987 Z-0.400 F1000
G1 X148.405 Y-32.196 Z-0.400 F1000
G1 X148.256 Y-32.416 Z-0.400 F1000
G1 X148.131 Y-32.650 Z-0.400 F1000
G1 X148.030 Y-32.901 Z-0.400 F1000
G1 X147.951 Y-33.170 Z-0.400 F1000
G1 X147.894 Y-33.461 Z-0.400 F1000
G1 X147.859 Y-33.777 Z-0.400 F1000
G1 X147.844 Y-34.119 Z-0.400 F1000
G1 X147.849 Y-34.490 Z-0.400 F1000
G1 X147.874 Y-34.893 Z-0.400 F1000
G1 X147.893 Y-35.107 Z-0.400 F1000
G1 X147.917 Y-35.331 Z-0.400 F1000
G1 X147.963 Y-35.653 Z-0.400 F1000
G1 X147.991 Y-35.830 Z-0.400 F1000
G1 X148.021 Y-36.025 Z-0.400 F1000
G1 X144.335 Y-36.025 Z-0.400 F1000
G1 X144.335 Y-36.025 Z5.000 F1000
G1 X150.246 Y-25.799 Z5.000 F1000
G1 X150.246 Y-25.799 Z-0.400 F333.3
G1 X150.171 Y-25.629 Z-0.400 F1000
G1 X151.689 Y-24.531 Z-0.400 F1000
G1 X152.453 Y-23.990 Z-0.400 F1000
G1 X153.232 Y-23.472 Z-0.400 F1000
G1 X154.075 Y-22.953 Z-0.400 F1000
G1 X154.929 Y-22.462 Z-0.400 F1000
G1 X155.792 Y-21.999 Z-0.400 F1000
G1 X156.665 Y-21.562 Z-0.400 F1000
G1 X157.548 Y-21.153 Z-0.400 F1000
G1 X158.440 Y-20.769 Z-0.400 F1000
G1 X159.342 Y-20.412 Z-0.400 F1000
G1 X160.252 Y-20.080 Z-0.400 F1000
G1 X161.172 Y-19.773 Z-0.400 F1000
G1 X162.100 Y-19.490 Z-0.400 F1000
G1 X163.037 Y-19.232 Z-0.400 F1000
G1 X163.982 Y-18.998 Z-0.400 F1000
G1 X164.935 Y-18.787 Z-0.400 F1000
G1 X165.897 Y-18.599 Z-0.400 F1000
G1 X166.866 Y-18.434 Z-0.400 F1000
G1 X167.844 Y-18.291 Z-0.400 F1000
G1 X168.656 Y-18.192 Z-0.400 F1000
G1 X169.470 Y-18.109 Z-0.400 F1000
G1 X170.286 Y-18.040 Z-0.400 F1000
G1 X171.102 Y-17.983 Z-0.400 F1000
G1 X171.378 Y-17.983 Z-0.400 F1000
G1 X171.658 Y-18.014 Z-0.400 F1000
G1 X171.934 Y-18.073 Z-0.400 F1000
G1 X172.200 Y-18.154 Z-0.400 F1000
G1 X172.695 Y-18.340 Z-0.400 F1000
G1 X173.181 Y-18.541 Z-0.400 F1000
G1 X173.657 Y-18.756 Z-0.400 F1000
G1 X174.124 Y-18.985 Z-0.400 F1000
G1 X174.582 Y-19.227 Z-0.400 F1000
G1 X175.031 Y-19.483 Z-0.400 F1000
G1 X175.471 Y-19.753 Z-0.400 F1000
G1 X175.902 Y-20.035 Z-0.400 F1000
G1 X176.326 Y-20.330 Z-0.400 F1000
G1 X176.741 Y-20.637 Z-0.400 F1000
G1 X177.148 Y-20.956 Z-0.400 F1000
G1 X177.548 Y-21.287 Z-0.400 F1000
G1 X177.939 Y-21.629 Z-0.400 F1000
G1 X178.324 Y-21.982 Z-0.400 F1000
G1 X178.701 Y-22.346 Z-0.400 F1000
G1 X179.071 Y-22.721 Z-0.400 F1000
G1 X179.176 Y-22.837 Z-0.400 F1000
G1 X179.283 Y-22.965 Z-0.400 F1000
G1 X179.401 Y-23.110 Z-0.400 F1000
G1 X179.540 Y-23.279 Z-0.400 F1000
G1 X178.671 Y-23.462 Z-0.400 F1000
G1 X177.832 Y-23.640 Z-0.400 F1000
G1 X177.012 Y-23.812 Z-0.400 F1000
G1 X176.201 Y-23.980 Z-0.400 F1000
G1 X167.519 Y-25.747 Z-0.400 F1000
G1 X167.176 Y-25.803 Z-0.400 F1000
G1 X167.003 Y-25.820 Z-0.400 F1000
G1 X166.830 Y-25.826 Z-0.400 F1000
G1 X150.710 Y-25.828 Z-0.400 F1000
G1 X150.246 Y-25.799 Z-0.400 F1000
G1 X150.246 Y-25.799 Z5.000 F1000
G1 X173.112 Y-17.976 Z5.000 F1000
G1 X173.112 Y-17.976 Z-0.400 F333.3
G1 X173.311 Y-17.977 Z-0.400 F1000
G1 X173.535 Y-17.993 Z-0.400 F1000
G1 X173.781 Y-18.023 Z-0.400 F1000
G1 X174.049 Y-18.068 Z-0.400 F1000
G1 X174.337 Y-18.126 Z-0.400 F1000
G1 X174.643 Y-18.197 Z-0.400 F1000
G1 X174.966 Y-18.281 Z-0.400 F1000
G1 X175.303 Y-18.375 Z-0.400 F1000
G1 X175.654 Y-18.481 Z-0.400 F1000
G1 X176.017 Y-18.596 Z-0.400 F1000
G1 X176.390 Y-18.722 Z-0.400 F1000
G1 X176.771 Y-18.855 Z-0.400 F1000
G1 X177.554 Y-19.147 Z-0.400 F1000
G1 X178.351 Y-19.466 Z-0.400 F1000
G1 X179.151 Y-19.808 Z-0.400 F1000
G1 X179.940 Y-20.165 Z-0.400 F1000
G1 X180.706 Y-20.535 Z-0.400 F1000
G1 X181.076 Y-20.722 Z-0.400 F1000
G1 X181.436 Y-20.910 Z-0.400 F1000
G1 X181.783 Y-21.098 Z-0.400 F1000
G1 X182.116 Y-21.286 Z-0.400 F1000
G1 X182.434 Y-21.473 Z-0.400 F1000
G1 X182.735 Y-21.657 Z-0.400 F1000
G1 X183.017 Y-21.840 Z-0.400 F1000
G1 X183.279 Y-22.019 Z-0.400 F1000
G1 X183.519 Y-22.195 Z-0.400 F1000
G1 X183.736 Y-22.366 Z-0.400 F1000
G1 X181.912 Y-22.767 Z-0.400 F1000
G1 X180.128 Y-23.159 Z-0.400 F1000
G1 X179.758 Y-22.749 Z-0.400 F1000
G1 X179.380 Y-22.350 Z-0.400 F1000
G1 X178.995 Y-21.961 Z-0.400 F1000
G1 X178.601 Y-21.583 Z-0.400 F1000
G1 X178.198 Y-21.216 Z-0.400 F1000
G1 X177.787 Y-20.861 Z-0.400 F1000
G1 X177.367 Y-20.517 Z-0.400 F1000
G1 X176.937 Y-20.185 Z-0.400 F1000
G1 X176.497 Y-19.865 Z-0.400 F1000
G1 X176.047 Y-19.557 Z-0.400 F1000
G1 X175.586 Y-19.261 Z-0.400 F1000
G1 X175.114 Y-18.978 Z-0.400 F1000
G1 X174.631 Y-18.708 Z-0.400 F1000
G1 X174.137 Y-18.451 Z-0.400 F1000
G1 X173.631 Y-18.207 Z-0.400 F1000
G1 X173.112 Y-17.976 Z-0.400 F1000
G1 X173.112 Y-17.976 Z5.000 F1000
G1 X176.005 Y-18.065 Z5.000 F1000
G1 X176.005 Y-18.065 Z-0.400 F333.3
G1 X176.842 Y-18.110 Z-0.400 F1000
G1 X177.674 Y-18.174 Z-0.400 F1000
G1 X178.503 Y-18.255 Z-0.400 F1000
G1 X179.328 Y-18.354 Z-0.400 F1000
G1 X180.148 Y-18.471 Z-0.400 F1000
G1 X180.965 Y-18.608 Z-0.400 F1000
G1 X181.778 Y-18.763 Z-0.400 F1000
G1 X182.587 Y-18.937 Z-0.400 F1000
G1 X183.392 Y-19.131 Z-0.400 F1000
G1 X184.192 Y-19.346 Z-0.400 F1000
G1 X184.989 Y-19.580 Z-0.400 F1000
G1 X185.781 Y-19.835 Z-0.400 F1000
G1 X186.570 Y-20.111 Z-0.400 F1000
G1 X187.354 Y-20.408 Z-0.400 F1000
G1 X188.134 Y-20.727 Z-0.400 F1000
G1 X188.910 Y-21.068 Z-0.400 F1000
G1 X187.190 Y-21.525 Z-0.400 F1000
G1 X186.019 Y-21.822 Z-0.400 F1000
G1 X185.432 Y-21.963 Z-0.400 F1000
G1 X184.842 Y-22.091 Z-0.400 F1000
G1 X184.666 Y-22.110 Z-0.400 F1000
G1 X184.480 Y-22.099 Z-0.400 F1000
G1 X184.300 Y-22.057 Z-0.400 F1000
G1 X184.219 Y-22.024 Z-0.400 F1000
G1 X184.147 Y-21.983 Z-0.400 F1000
G1 X183.683 Y-21.674 Z-0.400 F1000
G1 X183.215 Y-21.375 Z-0.400 F1000
G1 X182.742 Y-21.085 Z-0.400 F1000
G1 X182.264 Y-20.804 Z-0.400 F1000
G1 X181.783 Y-20.533 Z-0.400 F1000
G1 X181.297 Y-20.270 Z-0.400 F1000
G1 X180.806 Y-20.017 Z-0.400 F1000
G1 X180.311 Y-19.773 Z-0.400 F1000
G1 X179.812 Y-19.538 Z-0.400 F1000
G1 X179.308 Y-19.313 Z-0.400 F1000
G1 X178.800 Y-19.097 Z-0.400 F1000
G1 X178.287 Y-18.890 Z-0.400 F1000
G1 X177.770 Y-18.692 Z-0.400 F1000
G1 X177.249 Y-18.503 Z-0.400 F1000
G1 X176.723 Y-18.324 Z-0.400 F1000
G1 X176.192 Y-18.154 Z-0.400 F1000
G1 X176.005 Y-18.065 Z-0.400 F1000
G1 X176.005 Y-18.065 Z5.000 F1000
G1 X187.799 Y-22.294 Z5.000 F1000
G1 X187.799 Y-22.294 Z-0.400 F333.3
G1 X188.184 Y-22.021 Z-0.400 F1000
G1 X188.579 Y-21.740 Z-0.400 F1000
G1 X189.392 Y-21.163 Z-0.400 F1000
G1 X190.393 Y-21.626 Z-0.400 F1000
G1 X191.373 Y-22.117 Z-0.400 F1000
G1 X192.331 Y-22.639 Z-0.400 F1000
G1 X193.270 Y-23.194 Z-0.400 F1000
G1 X194.191 Y-23.783 Z-0.400 F1000
G1 X194.645 Y-24.091 Z-0.400 F1000
G1 X195.095 Y-24.409 Z-0.400 F1000
G1 X195.541 Y-24.736 Z-0.400 F1000
G1 X195.984 Y-25.073 Z-0.400 F1000
G1 X196.422 Y-25.421 Z-0.400 F1000
G1 X196.857 Y-25.779 Z-0.400 F1000
G1 X196.684 Y-25.796 Z-0.400 F1000
G1 X196.542 Y-25.812 Z-0.400 F1000
G1 X196.420 Y-25.823 Z-0.400 F1000
G1 X196.308 Y-25.828 Z-0.400 F1000
G1 X189.114 Y-25.837 Z-0.400 F1000
G1 X188.979 Y-25.833 Z-0.400 F1000
G1 X188.852 Y-25.819 Z-0.400 F1000
G1 X188.732 Y-25.795 Z-0.400 F1000
G1 X188.618 Y-25.757 Z-0.400 F1000
G1 X188.511 Y-25.707 Z-0.400 F1000
G1 X188.410 Y-25.641 Z-0.400 F1000
G1 X188.315 Y-25.559 Z-0.400 F1000
G1 X188.225 Y-25.460 Z-0.400 F1000
G1 X187.337 Y-24.373 Z-0.400 F1000
G1 X186.885 Y-23.825 Z-0.400 F1000
G1 X186.427 Y-23.268 Z-0.400 F1000
G1 X187.075 Y-22.808 Z-0.400 F1000
G1 X187.799 Y-22.294 Z-0.400 F1000
G1 X187.799 Y-22.294 Z5.000 F1000
G1 X197.003 Y-26.363 Z5.000 F1000
G1 X197.003 Y-26.363 Z-0.400 F333.3
G1 X197.119 Y-26.371 Z-0.400 F1000
G1 X197.239 Y-26.391 Z-0.400 F1000
G1 X197.360 Y-26.422 Z-0.400 F1000
G1 X197.479 Y-26.464 Z-0.400 F1000
G1 X197.595 Y-26.515 Z-0.400 F1000
G1 X197.705 Y-26.575 Z-0.400 F1000
G1 X197.805 Y-26.643 Z-0.400 F1000
G1 X197.895 Y-26.717 Z-0.400 F1000
G1 X198.376 Y-27.178 Z-0.400 F1000
G1 X198.843 Y-27.648 Z-0.400 F1000
G1 X199.295 Y-28.128 Z-0.400 F1000
G1 X199.732 Y-28.619 Z-0.400 F1000
G1 X200.154 Y-29.120 Z-0.400 F1000
G1 X200.560 Y-29.632 Z-0.400 F1000
G1 X200.949 Y-30.154 Z-0.400 F1000
G1 X201.322 Y-30.688 Z-0.400 F1000
G1 X201.678 Y-31.233 Z-0.400 F1000
G1 X202.017 Y-31.789 Z-0.400 F1000
G1 X202.338 Y-32.357 Z-0.400 F1000
G1 X202.641 Y-32.937 Z-0.400 F1000
G1 X202.926 Y-33.530 Z-0.400 F1000
G1 X203.192 Y-34.134 Z-0.400 F1000
G1 X203.439 Y-34.752 Z-0.400 F1000
G1 X203.667 Y-35.382 Z-0.400 F1000
G1 X203.754 Y-35.669 Z-0.400 F1000
G1 X203.799 Y-35.833 Z-0.400 F1000
G1 X203.851 Y-36.018 Z-0.400 F1000
G1 X194.182 Y-36.018 Z-0.400 F1000
G1 X194.002 Y-35.348 Z-0.400 F1000
G1 X193.802 Y-34.689 Z-0.400 F1000
G1 X193.584 Y-34.039 Z-0.400 F1000
G1 X193.348 Y-33.399 Z-0.400 F1000
G1 X193.094 Y-32.768 Z-0.400 F1000
G1 X192.821 Y-32.146 Z-0.400 F1000
G1 X192.530 Y-31.534 Z-0.400 F1000
G1 X192.220 Y-30.930 Z-0.400 F1000
G1 X191.893 Y-30.334 Z-0.400 F1000
G1 X191.548 Y-29.747 Z-0.400 F1000
G1 X191.185 Y-29.169 Z-0.400 F1000
G1 X190.803 Y-28.598 Z-0.400 F1000
G1 X190.404 Y-28.035 Z-0.400 F1000
G1 X189.988 Y-27.480 Z-0.400 F1000
G1 X189.553 Y-26.933 Z-0.400 F1000
G1 X189.101 Y-26.392 Z-0.400 F1000
G1 X189.268 Y-26.377 Z-0.400 F1000
G1 X189.408 Y-26.363 Z-0.400 F1000
G1 X189.531 Y-26.353 Z-0.400 F1000
G1 X189.645 Y-26.349 Z-0.400 F1000
G1 X193.324 Y-26.344 Z-0.400 F1000
G1 X195.164 Y-26.349 Z-0.400 F1000
G1 X197.003 Y-26.363 Z-0.400 F1000
G1 X197.003 Y-26.363 Z5.000 F1000
G1 X204.076 Y-36.618 Z5.000 F1000
G1 X204.076 Y-36.618 Z-0.400 F333.3
G1 X204.203 Y-37.324 Z-0.400 F1000
G1 X204.466 Y-38.781 Z-0.400 F1000
G1 X204.602 Y-39.538 Z-0.400 F1000
G1 X194.781 Y-39.538 Z-0.400 F1000
G1 X194.563 Y-38.089 Z-0.400 F1000
G1 X194.453 Y-37.360 Z-0.400 F1000
G1 X194.342 Y-36.618 Z-0.400 F1000
G1 X204.076 Y-36.618 Z-0.400 F1000
G1 X204.076 Y-36.618 Z5.000 F1000
G1 X193.828 Y-36.604 Z5.000 F1000
G1 X193.828 Y-36.604 Z-0.400 F333.3
G1 X194.047 Y-38.051 Z-0.400 F1000
G1 X194.158 Y-38.781 Z-0.400 F1000
G1 X194.271 Y-39.525 Z-0.400 F1000
G1 X186.407 Y-39.525 Z-0.400 F1000
G1 X186.258 Y-38.084 Z-0.400 F1000
G1 X186.183 Y-37.350 Z-0.400 F1000
G1 X186.106 Y-36.604 Z-0.400 F1000
G1 X193.828 Y-36.604 Z-0.400 F1000
G1 X193.828 Y-36.604 Z5.000 F1000
G1 X185.609 Y-36.621 Z5.000 F1000
G1 X185.609 Y-36.621 Z-0.400 F333.3
G1 X185.815 Y-38.805 Z-0.400 F1000
G1 X185.885 Y-39.558 Z-0.400 F1000
G1 X167.174 Y-39.558 Z-0.400 F1000
G1 X168.245 Y-40.981 Z-0.400 F1000
G1 X169.309 Y-42.395 Z-0.400 F1000
G1 X171.421 Y-45.201 Z-0.400 F1000
G1 X173.524 Y-47.996 Z-0.400 F1000
G1 X175.634 Y-50.799 Z-0.400 F1000
G1 X175.484 Y-50.822 Z-0.400 F1000
G1 X175.360 Y-50.842 Z-0.400 F1000
G1 X175.253 Y-50.856 Z-0.400 F1000
G1 X175.154 Y-50.862 Z-0.400 F1000
G1 X164.677 Y-50.843 Z-0.400 F1000
G1 X164.528 Y-50.837 Z-0.400 F1000
G1 X164.390 Y-50.819 Z-0.400 F1000
G1 X164.260 Y-50.788 Z-0.400 F1000
G1 X164.138 Y-50.744 Z-0.400 F1000
G1 X164.022 Y-50.685 Z-0.400 F1000
G1 X163.910 Y-50.611 Z-0.400 F1000
G1 X163.803 Y-50.522 Z-0.400 F1000
G1 X163.698 Y-50.416 Z-0.400 F1000
G1 X163.387 Y-50.055 Z-0.400 F1000
G1 X163.108 Y-49.688 Z-0.400 F1000
G1 X162.860 Y-49.315 Z-0.400 F1000
G1 X162.645 Y-48.936 Z-0.400 F1000
G1 X162.461 Y-48.551 Z-0.400 F1000
G1 X162.308 Y-48.160 Z-0.400 F1000
G1 X162.187 Y-47.764 Z-0.400 F1000
G1 X162.097 Y-47.362 Z-0.400 F1000
G1 X162.037 Y-46.954 Z-0.400 F1000
G1 X162.008 Y-46.540 Z-0.400 F1000
G1 X162.010 Y-46.121 Z-0.400 F1000
G1 X162.041 Y-45.696 Z-0.400 F1000
G1 X162.103 Y-45.265 Z-0.400 F1000
G1 X162.195 Y-44.829 Z-0.400 F1000
G1 X162.316 Y-44.388 Z-0.400 F1000
G1 X162.468 Y-43.940 Z-0.400 F1000
G1 X162.592 Y-43.620 Z-0.400 F1000
G1 X162.725 Y-43.306 Z-0.400 F1000
G1 X162.867 Y-42.997 Z-0.400 F1000
G1 X163.018 Y-42.693 Z-0.400 F1000
G1 X163.345 Y-42.101 Z-0.400 F1000
G1 X163.701 Y-41.528 Z-0.400 F1000
G1 X164.084 Y-40.972 Z-0.400 F1000
G1 X164.491 Y-40.432 Z-0.400 F1000
G1 X164.919 Y-39.905 Z-0.400 F1000
G1 X165.365 Y-39.391 Z-0.400 F1000
G1 X165.965 Y-38.740 Z-0.400 F1000
G1 X166.582 Y-38.105 Z-0.400 F1000
G1 X167.841 Y-36.859 Z-0.400 F1000
G1 X167.979 Y-36.750 Z-0.400 F1000
G1 X168.144 Y-36.662 Z-0.400 F1000
G1 X168.320 Y-36.603 Z-0.400 F1000
G1 X168.408 Y-36.587 Z-0.400 F1000
G1 X168.492 Y-36.581 Z-0.400 F1000
G1 X176.821 Y-36.569 Z-0.400 F1000
G1 X185.149 Y-36.571 Z-0.400 F1000
G1 X185.242 Y-36.575 Z-0.400 F1000
G1 X185.344 Y-36.587 Z-0.400 F1000
G1 X185.463 Y-36.603 Z-0.400 F1000
G1 X185.609 Y-36.621 Z-0.400 F1000
G1 X185.609 Y-36.621 Z5.000 F1000
G1 X179.828 Y-42.964 Z5.000 F1000
G1 X179.828 Y-42.964 Z-0.400 F333.3
G1 X179.592 Y-42.881 Z-0.400 F1000
G1 X179.350 Y-42.820 Z-0.400 F1000
G1 X179.102 Y-42.783 Z-0.400 F1000
G1 X178.853 Y-42.769 Z-0.400 F1000
G1 X178.680 Y-42.788 Z-0.400 F1000
G1 X178.516 Y-42.846 Z-0.400 F1000
G1 X178.369 Y-42.938 Z-0.400 F1000
G1 X178.246 Y-43.061 Z-0.400 F1000
G1 X178.152 Y-43.207 Z-0.400 F1000
G1 X178.094 Y-43.371 Z-0.400 F1000
G1 X178.073 Y-43.544 Z-0.400 F1000
G1 X178.090 Y-43.716 Z-0.400 F1000
G1 X178.145 Y-43.881 Z-0.400 F1000
G1 X178.235 Y-44.030 Z-0.400 F1000
G1 X178.356 Y-44.155 Z-0.400 F1000
G1 X178.501 Y-44.250 Z-0.400 F1000
G1 X179.593 Y-44.797 Z-0.400 F1000
G1 X179.739 Y-44.892 Z-0.400 F1000
G1 X179.859 Y-45.017 Z-0.400 F1000
G1 X179.949 Y-45.166 Z-0.400 F1000
G1 X180.005 Y-45.331 Z-0.400 F1000
G1 X180.022 Y-45.504 Z-0.400 F1000
G1 X180.001 Y-45.676 Z-0.400 F1000
G1 X179.942 Y-45.840 Z-0.400 F1000
G1 X179.849 Y-45.986 Z-0.400 F1000
G1 X179.726 Y-46.109 Z-0.400 F1000
G1 X179.579 Y-46.201 Z-0.400 F1000
G1 X179.415 Y-46.259 Z-0.400 F1000
G1 X179.242 Y-46.279 Z-0.400 F1000
G1 X178.993 Y-46.255 Z-0.400 F1000
G1 X178.749 Y-46.202 Z-0.400 F1000
G1 X178.512 Y-46.124 Z-0.400 F1000
G1 X178.285 Y-46.018 Z-0.400 F1000
G1 X178.072 Y-45.888 Z-0.400 F1000
G1 X178.072 Y-45.888 Z5.000 F1000
G1 X181.192 Y-46.279 Z5.000 F1000
G1 X181.192 Y-46.279 Z-0.400 F333.3
G1 X181.193 Y-42.769 Z-0.400 F1000
G1 X182.168 Y-42.769 Z-0.400 F1000
G1 X182.358 Y-42.788 Z-0.400 F1000
G1 X182.541 Y-42.844 Z-0.400 F1000
G1 X182.710 Y-42.934 Z-0.400 F1000
G1 X182.857 Y-43.055 Z-0.400 F1000
G1 X182.978 Y-43.203 Z-0.400 F1000
G1 X183.068 Y-43.372 Z-0.400 F1000
G1 X183.124 Y-43.555 Z-0.400 F1000
G1 X183.143 Y-43.745 Z-0.400 F1000
G1 X183.124 Y-43.935 Z-0.400 F1000
G1 X183.068 Y-44.118 Z-0.400 F1000
G1 X182.978 Y-44.286 Z-0.400 F1000
G1 X182.857 Y-44.434 Z-0.400 F1000
G1 X182.709 Y-44.555 Z-0.400 F1000
G1 X182.540 Y-44.645 Z-0.400 F1000
G1 X182.358 Y-44.701 Z-0.400 F1000
G1 X182.167 Y-44.719 Z-0.400 F1000
G1 X181.192 Y-44.719 Z-0.400 F1000
G1 X181.192 Y-44.719 Z5.000 F1000
G1 X184.331 Y-45.495 Z5.000 F1000
G1 X184.331 Y-45.495 Z-0.400 F333.3
G1 X184.312 Y-45.305 Z-0.400 F1000
G1 X184.313 Y-43.745 Z-0.400 F1000
G1 X184.331 Y-43.555 Z-0.400 F1000
G1 X184.387 Y-43.372 Z-0.400 F1000
G1 X184.477 Y-43.203 Z-0.400 F1000
G1 X184.598 Y-43.056 Z-0.400 F1000
G1 X184.746 Y-42.935 Z-0.400 F1000
G1 X184.915 Y-42.845 Z-0.400 F1000
G1 X185.098 Y-42.789 Z-0.400 F1000
G1 X185.288 Y-42.770 Z-0.400 F1000
G1 X185.478 Y-42.789 Z-0.400 F1000
G1 X185.661 Y-42.845 Z-0.400 F1000
G1 X185.830 Y-42.935 Z-0.400 F1000
G1 X185.977 Y-43.056 Z-0.400 F1000
G1 X186.098 Y-43.204 Z-0.400 F1000
G1 X186.188 Y-43.373 Z-0.400 F1000
G1 X186.244 Y-43.555 Z-0.400 F1000
G1 X186.263 Y-43.746 Z-0.400 F1000
G1 X186.262 Y-45.306 Z-0.400 F1000
G1 X186.243 Y-45.496 Z-0.400 F1000
G1 X186.188 Y-45.679 Z-0.400 F1000
G1 X186.098 Y-45.847 Z-0.400 F1000
G1 X185.976 Y-45.995 Z-0.400 F1000
G1 X185.829 Y-46.116 Z-0.400 F1000
G1 X185.660 Y-46.206 Z-0.400 F1000
G1 X185.477 Y-46.262 Z-0.400 F1000
G1 X185.287 Y-46.280 Z-0.400 F1000
G1 X185.097 Y-46.262 Z-0.400 F1000
G1 X184.914 Y-46.206 Z-0.400 F1000
G1 X184.745 Y-46.116 Z-0.400 F1000
G1 X184.598 Y-45.995 Z-0.400 F1000
G1 X184.476 Y-45.847 Z-0.400 F1000
G1 X184.386 Y-45.678 Z-0.400 F1000
G1 X184.331 Y-45.495 Z-0.400 F1000
G1 X184.331 Y-45.495 Z5.000 F1000
G1 X187.432 Y-46.281 Z5.000 F1000
G1 X187.432 Y-46.281 Z-0.400 F333.3
G1 X187.822 Y-46.281 Z-0.400 F1000
G1 X187.995 Y-46.262 Z-0.400 F1000
G1 X188.160 Y-46.204 Z-0.400 F1000
G1 X188.308 Y-46.111 Z-0.400 F1000
G1 X188.432 Y-45.988 Z-0.400 F1000
G1 X188.525 Y-45.840 Z-0.400 F1000
G1 X188.582 Y-45.675 Z-0.400 F1000
G1 X188.602 Y-45.501 Z-0.400 F1000
G1 X188.603 Y-42.771 Z-0.400 F1000
G1 X188.603 Y-42.771 Z5.000 F1000
G1 X189.772 Y-44.332 Z5.000 F1000
G1 X189.772 Y-44.332 Z-0.400 F333.3
G1 X190.942 Y-44.332 Z-0.400 F1000
G1 X190.942 Y-44.332 Z5.000 F1000
G1 X191.333 Y-42.772 Z5.000 F1000
G1 X191.333 Y-42.772 Z-0.400 F333.3
G1 X189.773 Y-42.772 Z-0.400 F1000
G1 X189.772 Y-46.282 Z-0.400 F1000
G1 X191.332 Y-46.282 Z-0.400 F1000
G1 X191.332 Y-46.282 Z5.000 F1000
G1 X194.062 Y-46.283 Z5.000 F1000
G1 X194.062 Y-46.283 Z-0.400 F333.3
G1 X194.063 Y-42.773 Z-0.400 F1000
G1 X194.063 Y-42.773 Z5.000 F1000
G1 X194.062 Y-44.333 Z5.000 F1000
G1 X194.062 Y-44.333 Z-0.400 F333.3
G1 X196.012 Y-44.333 Z-0.400 F1000
G1 X196.012 Y-44.333 Z5.000 F1000
G1 X196.013 Y-42.773 Z5.000 F1000
G1 X196.013 Y-42.773 Z-0.400 F333.3
G1 X196.012 Y-46.284 Z-0.400 F1000
G1 X196.012 Y-46.284 Z5.000 F1000
G1 X197.797 Y-49.503 Z5.000 F1000
G1 X197.797 Y-49.503 Z-0.400 F333.3
G1 X202.562 Y-49.503 Z-0.400 F1000
G1 X202.275 Y-50.019 Z-0.400 F1000
G1 X201.978 Y-50.524 Z-0.400 F1000
G1 X201.672 Y-51.017 Z-0.400 F1000
G1 X201.356 Y-51.499 Z-0.400 F1000
G1 X201.031 Y-51.969 Z-0.400 F1000
G1 X200.697 Y-52.429 Z-0.400 F1000
G1 X200.354 Y-52.878 Z-0.400 F1000
G1 X200.002 Y-53.317 Z-0.400 F1000
G1 X199.641 Y-53.745 Z-0.400 F1000
G1 X199.272 Y-54.163 Z-0.400 F1000
G1 X198.894 Y-54.571 Z-0.400 F1000
G1 X198.508 Y-54.969 Z-0.400 F1000
G1 X198.114 Y-55.358 Z-0.400 F1000
G1 X197.711 Y-55.737 Z-0.400 F1000
G1 X197.301 Y-56.108 Z-0.400 F1000
G1 X196.883 Y-56.469 Z-0.400 F1000
G1 X196.457 Y-56.822 Z-0.400 F1000
G1 X196.024 Y-57.166 Z-0.400 F1000
G1 X195.583 Y-57.501 Z-0.400 F1000
G1 X195.135 Y-57.829 Z-0.400 F1000
G1 X194.680 Y-58.148 Z-0.400 F1000
G1 X194.218 Y-58.460 Z-0.400 F1000
G1 X193.749 Y-58.764 Z-0.400 F1000
G1 X193.274 Y-59.061 Z-0.400 F1000
G1 X192.303 Y-59.633 Z-0.400 F1000
G1 X191.306 Y-60.178 Z-0.400 F1000
G1 X190.286 Y-60.697 Z-0.400 F1000
G1 X189.242 Y-61.192 Z-0.400 F1000
G1 X188.648 Y-60.405 Z-0.400 F1000
G1 X186.906 Y-58.097 Z-0.400 F1000
G1 X187.402 Y-57.635 Z-0.400 F1000
G1 X187.884 Y-57.164 Z-0.400 F1000
G1 X188.352 Y-56.683 Z-0.400 F1000
G1 X188.806 Y-56.193 Z-0.400 F1000
G1 X189.245 Y-55.693 Z-0.400 F1000
G1 X189.671 Y-55.184 Z-0.400 F1000
G1 X190.081 Y-54.664 Z-0.400 F1000
G1 X190.478 Y-54.134 Z-0.400 F1000
G1 X190.859 Y-53.594 Z-0.400 F1000
G1 X191.225 Y-53.043 Z-0.400 F1000
G1 X191.576 Y-52.481 Z-0.400 F1000
G1 X191.912 Y-51.908 Z-0.400 F1000
G1 X192.233 Y-51.324 Z-0.400 F1000
G1 X192.538 Y-50.729 Z-0.400 F1000
G1 X192.827 Y-50.122 Z-0.400 F1000
G1 X193.101 Y-49.503 Z-0.400 F1000
G1 X197.797 Y-49.503 Z-0.400 F1000
G1 X197.797 Y-49.503 Z5.000 F1000
G1 X186.613 Y-57.708 Z5.000 F1000
G1 X186.613 Y-57.708 Z-0.400 F333.3
G1 X185.123 Y-55.741 Z-0.400 F1000
G1 X183.663 Y-53.814 Z-0.400 F1000
G1 X184.487 Y-51.653 Z-0.400 F1000
G1 X185.309 Y-49.496 Z-0.400 F1000
G1 X192.565 Y-49.496 Z-0.400 F1000
G1 X192.297 Y-50.091 Z-0.400 F1000
G1 X192.014 Y-50.673 Z-0.400 F1000
G1 X191.718 Y-51.242 Z-0.400 F1000
G1 X191.408 Y-51.800 Z-0.400 F1000
G1 X191.085 Y-52.347 Z-0.400 F1000
G1 X190.747 Y-52.882 Z-0.400 F1000
G1 X190.396 Y-53.406 Z-0.400 F1000
G1 X190.031 Y-53.921 Z-0.400 F1000
G1 X189.653 Y-54.425 Z-0.400 F1000
G1 X189.260 Y-54.919 Z-0.400 F1000
G1 X188.853 Y-55.405 Z-0.400 F1000
G1 X188.433 Y-55.882 Z-0.400 F1000
G1 X187.999 Y-56.350 Z-0.400 F1000
G1 X187.551 Y-56.811 Z-0.400 F1000
G1 X187.089 Y-57.263 Z-0.400 F1000
G1 X186.613 Y-57.708 Z-0.400 F1000
G1 X186.613 Y-57.708 Z5.000 F1000
G1 X183.382 Y-53.204 Z5.000 F1000
G1 X183.382 Y-53.204 Z-0.400 F333.3
G1 X183.195 Y-53.190 Z-0.400 F1000
G1 X181.833 Y-51.386 Z-0.400 F1000
G1 X181.136 Y-50.464 Z-0.400 F1000
G1 X180.423 Y-49.519 Z-0.400 F1000
G1 X184.770 Y-49.519 Z-0.400 F1000
G1 X183.382 Y-53.204 Z-0.400 F1000
G1 X183.382 Y-53.204 Z5.000 F1000
G1 X185.473 Y-36.008 Z5.000 F1000
G1 X185.473 Y-36.008 Z-0.400 F333.3
G1 X168.750 Y-36.008 Z-0.400 F1000
G1 X169.529 Y-35.335 Z-0.400 F1000
G1 X170.315 Y-34.674 Z-0.400 F1000
G1 X171.108 Y-34.027 Z-0.400 F1000
G1 X171.908 Y-33.392 Z-0.400 F1000
G1 X172.713 Y-32.768 Z-0.400 F1000
G1 X173.523 Y-32.153 Z-0.400 F1000
G1 X175.160 Y-30.949 Z-0.400 F1000
G1 X176.815 Y-29.774 Z-0.400 F1000
G1 X178.485 Y-28.617 Z-0.400 F1000
G1 X181.856 Y-26.331 Z-0.400 F1000
G1 X182.198 Y-26.902 Z-0.400 F1000
G1 X182.523 Y-27.476 Z-0.400 F1000
G1 X182.832 Y-28.053 Z-0.400 F1000
G1 X183.125 Y-28.635 Z-0.400 F1000
G1 X183.402 Y-29.222 Z-0.400 F1000
G1 X183.664 Y-29.813 Z-0.400 F1000
G1 X183.910 Y-30.408 Z-0.400 F1000
G1 X184.142 Y-31.008 Z-0.400 F1000
G1 X184.358 Y-31.614 Z-0.400 F1000
G1 X184.560 Y-32.224 Z-0.400 F1000
G1 X184.747 Y-32.840 Z-0.400 F1000
G1 X184.920 Y-33.462 Z-0.400 F1000
G1 X185.079 Y-34.089 Z-0.400 F1000
G1 X185.224 Y-34.723 Z-0.400 F1000
G1 X185.355 Y-35.362 Z-0.400 F1000
G1 X185.473 Y-36.008 Z-0.400 F1000
G1 X185.473 Y-36.008 Z5.000 F1000
G1 X185.996 Y-36.017 Z5.000 F1000
G1 X185.996 Y-36.017 Z-0.400 F333.3
G1 X185.875 Y-35.382 Z-0.400 F1000
G1 X185.743 Y-34.753 Z-0.400 F1000
G1 X185.598 Y-34.128 Z-0.400 F1000
G1 X185.441 Y-33.507 Z-0.400 F1000
G1 X185.272 Y-32.892 Z-0.400 F1000
G1 X185.089 Y-32.281 Z-0.400 F1000
G1 X184.893 Y-31.674 Z-0.400 F1000
G1 X184.683 Y-31.073 Z-0.400 F1000
G1 X184.459 Y-30.475 Z-0.400 F1000
G1 X184.221 Y-29.882 Z-0.400 F1000
G1 X183.969 Y-29.294 Z-0.400 F1000
G1 X183.702 Y-28.710 Z-0.400 F1000
G1 X183.420 Y-28.131 Z-0.400 F1000
G1 X183.123 Y-27.555 Z-0.400 F1000
G1 X182.811 Y-26.985 Z-0.400 F1000
G1 X182.482 Y-26.418 Z-0.400 F1000
G1 X182.624 Y-26.394 Z-0.400 F1000
G1 X182.745 Y-26.372 Z-0.400 F1000
G1 X182.851 Y-26.357 Z-0.400 F1000
G1 X182.950 Y-26.350 Z-0.400 F1000
G1 X185.476 Y-26.345 Z-0.400 F1000
G1 X188.002 Y-26.362 Z-0.400 F1000
G1 X188.091 Y-26.369 Z-0.400 F1000
G1 X188.183 Y-26.388 Z-0.400 F1000
G1 X188.370 Y-26.455 Z-0.400 F1000
G1 X188.541 Y-26.554 Z-0.400 F1000
G1 X188.616 Y-26.613 Z-0.400 F1000
G1 X188.680 Y-26.676 Z-0.400 F1000
G1 X189.094 Y-27.157 Z-0.400 F1000
G1 X189.495 Y-27.647 Z-0.400 F1000
G1 X189.880 Y-28.144 Z-0.400 F1000
G1 X190.251 Y-28.650 Z-0.400 F1000
G1 X190.606 Y-29.165 Z-0.400 F1000
G1 X190.947 Y-29.688 Z-0.400 F1000
G1 X191.272 Y-30.219 Z-0.400 F1000
G1 X191.582 Y-30.759 Z-0.400 F1000
G1 X191.877 Y-31.307 Z-0.400 F1000
G1 X192.156 Y-31.864 Z-0.400 F1000
G1 X192.419 Y-32.430 Z-0.400 F1000
G1 X192.666 Y-33.004 Z-0.400 F1000
G1 X192.897 Y-33.587 Z-0.400 F1000
G1 X193.113 Y-34.179 Z-0.400 F1000
G1 X193.312 Y-34.780 Z-0.400 F1000
G1 X193.494 Y-35.390 Z-0.400 F1000
G1 X193.595 Y-35.807 Z-0.400 F1000
G1 X193.596 Y-35.891 Z-0.400 F1000
G1 X193.591 Y-35.947 Z-0.400 F1000
G1 X193.585 Y-36.017 Z-0.400 F1000
G1 X185.996 Y-36.017 Z-0.400 F1000
G1 X185.996 Y-36.017 Z5.000 F1000
G1 X197.183 Y-42.774 Z5.000 F1000
G1 X197.183 Y-42.774 Z-0.400 F333.3
G1 X198.352 Y-46.284 Z-0.400 F1000
G1 X199.523 Y-42.775 Z-0.400 F1000
G1 X199.523 Y-42.775 Z5.000 F1000
G1 X200.767 Y-43.377 Z5.000 F1000
G1 X200.767 Y-43.377 Z-0.400 F333.3
G1 X200.857 Y-43.208 Z-0.400 F1000
G1 X200.978 Y-43.061 Z-0.400 F1000
G1 X201.126 Y-42.939 Z-0.400 F1000
G1 X201.295 Y-42.849 Z-0.400 F1000
G1 X201.478 Y-42.794 Z-0.400 F1000
G1 X201.668 Y-42.775 Z-0.400 F1000
G1 X201.858 Y-42.794 Z-0.400 F1000
G1 X202.041 Y-42.849 Z-0.400 F1000
G1 X202.210 Y-42.940 Z-0.400 F1000
G1 X202.357 Y-43.061 Z-0.400 F1000
G1 X202.478 Y-43.209 Z-0.400 F1000
G1 X202.568 Y-43.377 Z-0.400 F1000
G1 X202.624 Y-43.560 Z-0.400 F1000
G1 X202.643 Y-43.750 Z-0.400 F1000
G1 X202.642 Y-45.310 Z-0.400 F1000
G1 X202.623 Y-45.501 Z-0.400 F1000
G1 X202.568 Y-45.683 Z-0.400 F1000
G1 X202.478 Y-45.852 Z-0.400 F1000
G1 X202.356 Y-46.000 Z-0.400 F1000
G1 X202.209 Y-46.121 Z-0.400 F1000
G1 X202.040 Y-46.211 Z-0.400 F1000
G1 X201.857 Y-46.266 Z-0.400 F1000
G1 X201.667 Y-46.285 Z-0.400 F1000
G1 X201.477 Y-46.266 Z-0.400 F1000
G1 X201.294 Y-46.211 Z-0.400 F1000
G1 X201.125 Y-46.121 Z-0.400 F1000
G1 X200.978 Y-45.999 Z-0.400 F1000
G1 X200.856 Y-45.852 Z-0.400 F1000
G1 X200.766 Y-45.683 Z-0.400 F1000
G1 X200.711 Y-45.500 Z-0.400 F1000
G1 X200.692 Y-45.310 Z-0.400 F1000
G1 X200.693 Y-43.750 Z-0.400 F1000
G1 X200.711 Y-43.560 Z-0.400 F1000
G1 X200.767 Y-43.377 Z-0.400 F1000
G1 X200.767 Y-43.377 Z5.000 F1000
G1 X203.813 Y-42.776 Z5.000 F1000
G1 X203.813 Y-42.776 Z-0.400 F333.3
G1 X205.763 Y-42.776 Z-0.400 F1000
G1 X203.812 Y-46.286 Z-0.400 F1000
G1 X205.762 Y-46.286 Z-0.400 F1000
G1 X205.762 Y-46.286 Z5.000 F1000
G1 X206.932 Y-46.287 Z5.000 F1000
G1 X206.932 Y-46.287 Z-0.400 F333.3
G1 X206.933 Y-42.777 Z-0.400 F1000
G1 X207.810 Y-42.777 Z-0.400 F1000
G1 X207.997 Y-42.793 Z-0.400 F1000
G1 X208.177 Y-42.842 Z-0.400 F1000
G1 X208.347 Y-42.921 Z-0.400 F1000
G1 X208.500 Y-43.028 Z-0.400 F1000
G1 X208.632 Y-43.160 Z-0.400 F1000
G1 X208.739 Y-43.313 Z-0.400 F1000
G1 X208.818 Y-43.483 Z-0.400 F1000
G1 X208.866 Y-43.664 Z-0.400 F1000
G1 X208.883 Y-43.850 Z-0.400 F1000
G1 X208.882 Y-45.215 Z-0.400 F1000
G1 X208.866 Y-45.401 Z-0.400 F1000
G1 X208.817 Y-45.582 Z-0.400 F1000
G1 X208.738 Y-45.751 Z-0.400 F1000
G1 X208.631 Y-45.904 Z-0.400 F1000
G1 X208.499 Y-46.036 Z-0.400 F1000
G1 X208.346 Y-46.143 Z-0.400 F1000
G1 X208.176 Y-46.222 Z-0.400 F1000
G1 X207.996 Y-46.271 Z-0.400 F1000
G1 X207.809 Y-46.287 Z-0.400 F1000
G1 X206.932 Y-46.287 Z-0.400 F1000
G1 X206.932 Y-46.287 Z5.000 F1000
G1 X210.053 Y-42.778 Z5.000 F1000
G1 X210.053 Y-42.778 Z-0.400 F333.3
G1 X211.222 Y-44.533 Z-0.400 F1000
G1 X212.393 Y-42.778 Z-0.400 F1000
G1 X212.393 Y-42.778 Z5.000 F1000
G1 X211.222 Y-44.533 Z5.000 F1000
G1 X211.222 Y-44.533 Z-0.400 F333.3
G1 X211.222 Y-46.288 Z-0.400 F1000
G1 X211.222 Y-46.288 Z5.000 F1000
G1 X151.492 Y-92.739 Z5.000 F1000
G1 X151.492 Y-92.739 Z-0.400 F333.3
G1 X149.421 Y-92.739 Z-0.400 F1000
G1 X149.421 Y-92.739 Z5.000 F1000
G1 X148.994 Y-93.958 Z5.000 F1000
G1 X148.994 Y-93.958 Z-0.400 F333.3
G1 X150.457 Y-89.571 Z-0.400 F1000
G1 X151.919 Y-93.958 Z-0.400 F1000
G1 X151.919 Y-93.958 Z5.000 F1000
G1 X121.000 Y-80.391 Z5.000 F1000
G1 X121.000 Y-80.391 Z-0.400 F333.3
G1 X120.981 Y-80.055 Z-0.400 F1000
G1 X120.925 Y-79.723 Z-0.400 F1000
G1 X120.832 Y-79.400 Z-0.400 F1000
G1 X120.703 Y-79.089 Z-0.400 F1000
G1 X120.540 Y-78.795 Z-0.400 F1000
G1 X120.345 Y-78.521 Z-0.400 F1000
G1 X120.121 Y-78.270 Z-0.400 F1000
G1 X119.870 Y-78.046 Z-0.400 F1000
G1 X119.596 Y-77.851 Z-0.400 F1000
G1 X119.302 Y-77.688 Z-0.400 F1000
G1 X118.991 Y-77.559 Z-0.400 F1000
G1 X118.668 Y-77.466 Z-0.400 F1000
G1 X118.336 Y-77.410 Z-0.400 F1000
G1 X118.000 Y-77.391 Z-0.400 F1000
G1 X18.000 Y-77.391 Z-0.400 F1000
G1 X17.664 Y-77.410 Z-0.400 F1000
G1 X17.332 Y-77.466 Z-0.400 F1000
G1 X17.009 Y-77.559 Z-0.400 F1000
G1 X16.698 Y-77.688 Z-0.400 F1000
G1 X16.404 Y-77.851 Z-0.400 F1000
G1 X16.129 Y-78.046 Z-0.400 F1000
G1 X15.879 Y-78.270 Z-0.400 F1000
G1 X15.655 Y-78.521 Z-0.400 F1000
G1 X15.460 Y-78.795 Z-0.400 F1000
G1 X15.297 Y-79.089 Z-0.400 F1000
G1 X15.168 Y-79.400 Z-0.400 F1000
G1 X15.075 Y-79.723 Z-0.400 F1000
G1 X15.019 Y-80.055 Z-0.400 F1000
G1 X15.000 Y-80.391 Z-0.400 F1000
G1 X15.000 Y-136.000 Z-0.400 F1000
G1 X15.019 Y-136.336 Z-0.400 F1000
G1 X15.075 Y-136.668 Z-0.400 F1000
G1 X15.168 Y-136.991 Z-0.400 F1000
G1 X15.297 Y-137.302 Z-0.400 F1000
G1 X15.460 Y-137.596 Z-0.400 F1000
G1 X15.655 Y-137.870 Z-0.400 F1000
G1 X15.879 Y-138.121 Z-0.400 F1000
G1 X16.129 Y-138.345 Z-0.400 F1000
G1 X16.404 Y-138.540 Z-0.400 F1000
G1 X16.698 Y-138.703 Z-0.400 F1000
G1 X17.009 Y-138.832 Z-0.400 F1000
G1 X17.332 Y-138.925 Z-0.400 F1000
G1 X17.664 Y-138.981 Z-0.400 F1000
G1 X18.000 Y-139.000 Z-0.400 F1000
G1 X118.000 Y-139.000 Z-0.400 F1000
G1 X118.336 Y-138.981 Z-0.400 F1000
G1 X118.668 Y-138.925 Z-0.400 F1000
G1 X118.991 Y-138.832 Z-0.400 F1000
G1 X119.302 Y-138.703 Z-0.400 F1000
G1 X119.596 Y-138.540 Z-0.400 F1000
G1 X119.870 Y-138.345 Z-0.400 F1000
G1 X120.121 Y-138.121 Z-0.400 F1000
G1 X120.345 Y-137.870 Z-0.400 F1000
G1 X120.540 Y-137.596 Z-0.400 F1000
G1 X120.703 Y-137.302 Z-0.400 F1000
G1 X120.832 Y-136.991 Z-0.400 F1000
G1 X120.925 Y-136.668 Z-0.400 F1000
G1 X120.981 Y-136.336 Z-0.400 F1000
G1 X121.000 Y-136.000 Z-0.400 F1000
G1 X121.000 Y-80.391 Z-0.400 F1000
G1 X121.000 Y-80.391 Z5.000 F1000
G1 X17.332 Y-67.316 Z5.000 F1000
G1 X17.332 Y-67.316 Z-0.400 F333.3
G1 X17.664 Y-67.372 Z-0.400 F1000
G1 X18.000 Y-67.391 Z-0.400 F1000
G1 X118.000 Y-67.391 Z-0.400 F1000
G1 X118.336 Y-67.372 Z-0.400 F1000
G1 X118.668 Y-67.316 Z-0.400 F1000
G1 X118.991 Y-67.223 Z-0.400 F1000
G1 X119.302 Y-67.094 Z-0.400 F1000
G1 X119.596 Y-66.931 Z-0.400 F1000
G1 X119.870 Y-66.736 Z-0.400 F1000
G1 X120.121 Y-66.512 Z-0.400 F1000
G1 X120.345 Y-66.261 Z-0.400 F1000
G1 X120.540 Y-65.987 Z-0.400 F1000
G1 X120.703 Y-65.693 Z-0.400 F1000
G1 X120.832 Y-65.382 Z-0.400 F1000
G1 X120.925 Y-65.059 Z-0.400 F1000
G1 X120.981 Y-64.727 Z-0.400 F1000
G1 X121.000 Y-64.391 Z-0.400 F1000
G1 X121.000 Y-18.000 Z-0.400 F1000
G1 X120.981 Y-17.664 Z-0.400 F1000
G1 X120.925 Y-17.332 Z-0.400 F1000
G1 X120.832 Y-17.009 Z-0.400 F1000
G1 X120.703 Y-16.698 Z-0.400 F1000
G1 X120.540 Y-16.404 Z-0.400 F1000
G1 X120.345 Y-16.129 Z-0.400 F1000
G1 X120.121 Y-15.879 Z-0.400 F1000
G1 X119.870 Y-15.655 Z-0.400 F1000
G1 X119.596 Y-15.460 Z-0.400 F1000
G1 X119.302 Y-15.297 Z-0.400 F1000
G1 X118.991 Y-15.168 Z-0.400 F1000
G1 X118.668 Y-15.075 Z-0.400 F1000
G1 X118.336 Y-15.019 Z-0.400 F1000
G1 X118.000 Y-15.000 Z-0.400 F1000
G1 X18.000 Y-15.000 Z-0.400 F1000
G1 X17.664 Y-15.019 Z-0.400 F1000
G1 X17.332 Y-15.075 Z-0.400 F1000
G1 X17.009 Y-15.168 Z-0.400 F1000
G1 X16.698 Y-15.297 Z-0.400 F1000
G1 X16.404 Y-15.460 Z-0.400 F1000
G1 X16.129 Y-15.655 Z-0.400 F1000
G1 X15.879 Y-15.879 Z-0.400 F1000
G1 X15.655 Y-16.129 Z-0.400 F1000
G1 X15.460 Y-16.404 Z-0.400 F1000
G1 X15.297 Y-16.698 Z-0.400 F1000
G1 X15.168 Y-17.009 Z-0.400 F1000
G1 X15.075 Y-17.332 Z-0.400 F1000
G1 X15.019 Y-17.664 Z-0.400 F1000
G1 X15.000 Y-18.000 Z-0.400 F1000
G1 X15.000 Y-64.391 Z-0.400 F1000
G1 X15.019 Y-64.727 Z-0.400 F1000
G1 X15.075 Y-65.059 Z-0.400 F1000
G1 X15.168 Y-65.382 Z-0.400 F1000
G1 X15.297 Y-65.693 Z-0.400 F1000
G1 X15.460 Y-65.987 Z-0.400 F1000
G1 X15.655 Y-66.261 Z-0.400 F1000
G1 X15.879 Y-66.512 Z-0.400 F1000
G1 X16.129 Y-66.736 Z-0.400 F1000
G1 X16.404 Y-66.931 Z-0.400 F1000
G1 X16.698 Y-67.094 Z-0.400 F1000
G1 X17.009 Y-67.223 Z-0.400 F1000
G1 X17.332 Y-67.316 Z-0.400 F1000
G1 X17.332 Y-67.316 Z5.000 F1000
G1 X102.660 Y-102.253 Z5.000 F1000
G1 X102.660 Y-102.253 Z-0.400 F333.3
G1 X104.122 Y-106.641 Z-0.400 F1000
G1 X105.585 Y-102.253 Z-0.400 F1000
G1 X105.585 Y-102.253 Z5.000 F1000
G1 X100.953 Y-102.253 Z5.000 F1000
G1 X100.953 Y-102.253 Z-0.400 F333.3
G1 X99.247 Y-102.253 Z-0.400 F1000
G1 X99.247 Y-104.203 Z-0.400 F1000
G1 X100.222 Y-104.203 Z-0.400 F1000
G1 X100.412 Y-104.222 Z-0.400 F1000
G1 X100.595 Y-104.277 Z-0.400 F1000
G1 X100.764 Y-104.368 Z-0.400 F1000
G1 X100.912 Y-104.489 Z-0.400 F1000
G1 X101.033 Y-104.637 Z-0.400 F1000
G1 X101.123 Y-104.805 Z-0.400 F1000
G1 X101.178 Y-104.988 Z-0.400 F1000
G1 X101.197 Y-105.178 Z-0.400 F1000
G1 X101.197 Y-105.666 Z-0.400 F1000
G1 X101.178 Y-105.856 Z-0.400 F1000
G1 X101.123 Y-106.039 Z-0.400 F1000
G1 X101.033 Y-106.207 Z-0.400 F1000
G1 X100.912 Y-106.355 Z-0.400 F1000
G1 X100.764 Y-106.476 Z-0.400 F1000
G1 X100.595 Y-106.566 Z-0.400 F1000
G1 X100.412 Y-106.622 Z-0.400 F1000
G1 X100.222 Y-106.641 Z-0.400 F1000
G1 X99.247 Y-106.641 Z-0.400 F1000
G1 X99.247 Y-106.641 Z5.000 F1000
G1 X99.491 Y-108.753 Z5.000 F1000
G1 X99.491 Y-108.753 Z-0.400 F333.3
G1 X100.588 Y-108.753 Z-0.400 F1000
G1 X100.797 Y-108.770 Z-0.400 F1000
G1 X101.002 Y-108.819 Z-0.400 F1000
G1 X101.196 Y-108.899 Z-0.400 F1000
G1 X101.376 Y-109.009 Z-0.400 F1000
G1 X101.536 Y-109.146 Z-0.400 F1000
G1 X101.672 Y-109.306 Z-0.400 F1000
G1 X101.782 Y-109.485 Z-0.400 F1000
G1 X101.863 Y-109.680 Z-0.400 F1000
G1 X101.912 Y-109.884 Z-0.400 F1000
G1 X101.928 Y-110.094 Z-0.400 F1000
G1 X101.928 Y-111.800 Z-0.400 F1000
G1 X101.912 Y-112.010 Z-0.400 F1000
G1 X101.863 Y-112.214 Z-0.400 F1000
G1 X101.782 Y-112.409 Z-0.400 F1000
G1 X101.672 Y-112.588 Z-0.400 F1000
G1 X101.536 Y-112.748 Z-0.400 F1000
G1 X101.376 Y-112.885 Z-0.400 F1000
G1 X101.196 Y-112.995 Z-0.400 F1000
G1 X101.002 Y-113.075 Z-0.400 F1000
G1 X100.797 Y-113.124 Z-0.400 F1000
G1 X100.588 Y-113.141 Z-0.400 F1000
G1 X99.491 Y-113.141 Z-0.400 F1000
G1 X99.491 Y-108.753 Z-0.400 F1000
G1 X99.491 Y-108.753 Z5.000 F1000
G1 X105.341 Y-108.753 Z5.000 F1000
G1 X105.341 Y-108.753 Z-0.400 F333.3
G1 X104.488 Y-108.753 Z-0.400 F1000
G1 X104.297 Y-108.770 Z-0.400 F1000
G1 X104.113 Y-108.819 Z-0.400 F1000
G1 X103.939 Y-108.900 Z-0.400 F1000
G1 X103.783 Y-109.010 Z-0.400 F1000
G1 X103.647 Y-109.145 Z-0.400 F1000
G1 X103.538 Y-109.302 Z-0.400 F1000
G1 X103.457 Y-109.475 Z-0.400 F1000
G1 X103.408 Y-109.660 Z-0.400 F1000
G1 X103.391 Y-109.850 Z-0.400 F1000
G1 X103.391 Y-112.044 Z-0.400 F1000
G1 X103.408 Y-112.234 Z-0.400 F1000
G1 X103.457 Y-112.419 Z-0.400 F1000
G1 X103.538 Y-112.592 Z-0.400 F1000
G1 X103.647 Y-112.749 Z-0.400 F1000
G1 X103.783 Y-112.884 Z-0.400 F1000
G1 X103.939 Y-112.994 Z-0.400 F1000
G1 X104.113 Y-113.075 Z-0.400 F1000
G1 X104.297 Y-113.124 Z-0.400 F1000
G1 X104.488 Y-113.141 Z-0.400 F1000
G1 X105.341 Y-113.141 Z-0.400 F1000
G1 X105.341 Y-113.141 Z5.000 F1000
G1 X82.841 Y-113.263 Z5.000 F1000
G1 X82.841 Y-113.263 Z-0.400 F333.3
G1 X81.988 Y-113.263 Z-0.400 F1000
G1 X81.797 Y-113.246 Z-0.400 F1000
G1 X81.613 Y-113.197 Z-0.400 F1000
G1 X81.439 Y-113.116 Z-0.400 F1000
G1 X81.283 Y-113.006 Z-0.400 F1000
G1 X81.147 Y-112.871 Z-0.400 F1000
G1 X81.038 Y-112.715 Z-0.400 F1000
G1 X80.957 Y-112.541 Z-0.400 F1000
G1 X80.908 Y-112.357 Z-0.400 F1000
G1 X80.891 Y-112.166 Z-0.400 F1000
G1 X80.891 Y-109.972 Z-0.400 F1000
G1 X80.908 Y-109.782 Z-0.400 F1000
G1 X80.957 Y-109.597 Z-0.400 F1000
G1 X81.038 Y-109.424 Z-0.400 F1000
G1 X81.147 Y-109.267 Z-0.400 F1000
G1 X81.283 Y-109.132 Z-0.400 F1000
G1 X81.439 Y-109.022 Z-0.400 F1000
G1 X81.613 Y-108.942 Z-0.400 F1000
G1 X81.797 Y-108.892 Z-0.400 F1000
G1 X81.988 Y-108.876 Z-0.400 F1000
G1 X82.841 Y-108.876 Z-0.400 F1000
G1 X82.841 Y-108.876 Z5.000 F1000
G1 X79.363 Y-109.802 Z5.000 F1000
G1 X79.363 Y-109.802 Z-0.400 F333.3
G1 X79.412 Y-110.006 Z-0.400 F1000
G1 X79.428 Y-110.216 Z-0.400 F1000
G1 X79.428 Y-111.922 Z-0.400 F1000
G1 X79.412 Y-112.132 Z-0.400 F1000
G1 X79.363 Y-112.337 Z-0.400 F1000
G1 X79.282 Y-112.531 Z-0.400 F1000
G1 X79.172 Y-112.710 Z-0.400 F1000
G1 X79.036 Y-112.870 Z-0.400 F1000
G1 X78.876 Y-113.007 Z-0.400 F1000
G1 X78.696 Y-113.117 Z-0.400 F1000
G1 X78.502 Y-113.197 Z-0.400 F1000
G1 X78.297 Y-113.247 Z-0.400 F1000
G1 X78.088 Y-113.263 Z-0.400 F1000
G1 X76.991 Y-113.263 Z-0.400 F1000
G1 X76.991 Y-108.876 Z-0.400 F1000
G1 X78.088 Y-108.876 Z-0.400 F1000
G1 X78.297 Y-108.892 Z-0.400 F1000
G1 X78.502 Y-108.941 Z-0.400 F1000
G1 X78.696 Y-109.022 Z-0.400 F1000
G1 X78.876 Y-109.132 Z-0.400 F1000
G1 X79.036 Y-109.268 Z-0.400 F1000
G1 X79.172 Y-109.428 Z-0.400 F1000
G1 X79.282 Y-109.608 Z-0.400 F1000
G1 X79.363 Y-109.802 Z-0.400 F1000
G1 X79.363 Y-109.802 Z5.000 F1000
G1 X76.747 Y-106.763 Z5.000 F1000
G1 X76.747 Y-106.763 Z-0.400 F333.3
G1 X74.797 Y-106.763 Z-0.400 F1000
G1 X76.601 Y-103.862 Z-0.400 F1000
G1 X76.685 Y-103.694 Z-0.400 F1000
G1 X76.734 Y-103.512 Z-0.400 F1000
G1 X76.748 Y-103.325 Z-0.400 F1000
G1 X76.726 Y-103.138 Z-0.400 F1000
G1 X76.667 Y-102.959 Z-0.400 F1000
G1 X76.576 Y-102.794 Z-0.400 F1000
G1 X76.454 Y-102.651 Z-0.400 F1000
G1 X76.307 Y-102.533 Z-0.400 F1000
G1 X76.140 Y-102.446 Z-0.400 F1000
G1 X75.960 Y-102.393 Z-0.400 F1000
G1 X75.772 Y-102.376 Z-0.400 F1000
G1 X75.586 Y-102.391 Z-0.400 F1000
G1 X75.406 Y-102.441 Z-0.400 F1000
G1 X75.238 Y-102.524 Z-0.400 F1000
G1 X75.089 Y-102.636 Z-0.400 F1000
G1 X74.963 Y-102.774 Z-0.400 F1000
G1 X74.864 Y-102.932 Z-0.400 F1000
G1 X74.797 Y-103.107 Z-0.400 F1000
G1 X74.797 Y-103.107 Z5.000 F1000
G1 X79.185 Y-102.376 Z5.000 F1000
G1 X79.185 Y-102.376 Z-0.400 F333.3
G1 X78.210 Y-105.788 Z-0.400 F1000
G1 X80.647 Y-105.788 Z-0.400 F1000
G1 X80.647 Y-105.788 Z5.000 F1000
G1 X79.916 Y-104.813 Z5.000 F1000
G1 X79.916 Y-104.813 Z-0.400 F333.3
G1 X79.916 Y-106.763 Z-0.400 F1000
G1 X79.916 Y-106.763 Z5.000 F1000
G1 X82.110 Y-102.376 Z5.000 F1000
G1 X82.110 Y-102.376 Z-0.400 F333.3
G1 X83.572 Y-106.763 Z-0.400 F1000
G1 X85.035 Y-102.376 Z-0.400 F1000
G1 X85.035 Y-102.376 Z5.000 F1000
G1 X62.291 Y-102.363 Z5.000 F1000
G1 X62.291 Y-102.363 Z-0.400 F333.3
G1 X60.828 Y-106.750 Z-0.400 F1000
G1 X59.366 Y-102.363 Z-0.400 F1000
G1 X59.366 Y-102.363 Z5.000 F1000
G1 X56.928 Y-104.313 Z5.000 F1000
G1 X56.928 Y-104.313 Z-0.400 F333.3
G1 X57.119 Y-104.331 Z-0.400 F1000
G1 X57.301 Y-104.387 Z-0.400 F1000
G1 X57.470 Y-104.477 Z-0.400 F1000
G1 X57.618 Y-104.598 Z-0.400 F1000
G1 X57.739 Y-104.746 Z-0.400 F1000
G1 X57.829 Y-104.914 Z-0.400 F1000
G1 X57.885 Y-105.097 Z-0.400 F1000
G1 X57.903 Y-105.288 Z-0.400 F1000
G1 X57.903 Y-105.775 Z-0.400 F1000
G1 X57.885 Y-105.965 Z-0.400 F1000
G1 X57.829 Y-106.148 Z-0.400 F1000
G1 X57.739 Y-106.317 Z-0.400 F1000
G1 X57.618 Y-106.465 Z-0.400 F1000
G1 X57.470 Y-106.586 Z-0.400 F1000
G1 X57.301 Y-106.676 Z-0.400 F1000
G1 X57.119 Y-106.731 Z-0.400 F1000
G1 X56.928 Y-106.750 Z-0.400 F1000
G1 X55.953 Y-106.750 Z-0.400 F1000
G1 X55.953 Y-106.750 Z5.000 F1000
G1 X54.417 Y-106.148 Z5.000 F1000
G1 X54.417 Y-106.148 Z-0.400 F333.3
G1 X54.326 Y-106.317 Z-0.400 F1000
G1 X54.205 Y-106.465 Z-0.400 F1000
G1 X54.057 Y-106.586 Z-0.400 F1000
G1 X53.889 Y-106.676 Z-0.400 F1000
G1 X53.706 Y-106.731 Z-0.400 F1000
G1 X53.516 Y-106.750 Z-0.400 F1000
G1 X53.326 Y-106.731 Z-0.400 F1000
G1 X53.143 Y-106.676 Z-0.400 F1000
G1 X52.974 Y-106.586 Z-0.400 F1000
G1 X52.826 Y-106.465 Z-0.400 F1000
G1 X52.705 Y-106.317 Z-0.400 F1000
G1 X52.615 Y-106.148 Z-0.400 F1000
G1 X52.560 Y-105.965 Z-0.400 F1000
G1 X52.541 Y-105.775 Z-0.400 F1000
G1 X52.541 Y-104.313 Z-0.400 F1000
G1 X53.516 Y-104.313 Z-0.400 F1000
G1 X53.693 Y-104.307 Z-0.400 F1000
G1 X53.867 Y-104.337 Z-0.400 F1000
G1 X54.032 Y-104.402 Z-0.400 F1000
G1 X54.179 Y-104.499 Z-0.400 F1000
G1 X54.305 Y-104.624 Z-0.400 F1000
G1 X54.402 Y-104.772 Z-0.400 F1000
G1 X54.467 Y-104.936 Z-0.400 F1000
G1 X54.497 Y-105.111 Z-0.400 F1000
G1 X54.491 Y-105.288 Z-0.400 F1000
G1 X54.491 Y-105.775 Z-0.400 F1000
G1 X54.472 Y-105.965 Z-0.400 F1000
G1 X54.417 Y-106.148 Z-0.400 F1000
G1 X54.417 Y-106.148 Z5.000 F1000
G1 X52.541 Y-104.313 Z5.000 F1000
G1 X52.541 Y-104.313 Z-0.400 F333.3
G1 X52.577 Y-104.028 Z-0.400 F1000
G1 X52.650 Y-103.751 Z-0.400 F1000
G1 X52.757 Y-103.486 Z-0.400 F1000
G1 X52.898 Y-103.236 Z-0.400 F1000
G1 X53.070 Y-103.007 Z-0.400 F1000
G1 X53.270 Y-102.802 Z-0.400 F1000
G1 X53.495 Y-102.624 Z-0.400 F1000
G1 X53.741 Y-102.477 Z-0.400 F1000
G1 X54.003 Y-102.363 Z-0.400 F1000
G1 X54.003 Y-102.363 Z5.000 F1000
G1 X55.953 Y-102.363 Z5.000 F1000
G1 X55.953 Y-102.363 Z-0.400 F333.3
G1 X56.928 Y-102.363 Z-0.400 F1000
G1 X57.119 Y-102.381 Z-0.400 F1000
G1 X57.301 Y-102.437 Z-0.400 F1000
G1 X57.470 Y-102.527 Z-0.400 F1000
G1 X57.618 Y-102.648 Z-0.400 F1000
G1 X57.739 Y-102.796 Z-0.400 F1000
G1 X57.829 Y-102.964 Z-0.400 F1000
G1 X57.885 Y-103.147 Z-0.400 F1000
G1 X57.903 Y-103.338 Z-0.400 F1000
G1 X57.885 Y-103.528 Z-0.400 F1000
G1 X57.829 Y-103.711 Z-0.400 F1000
G1 X57.739 Y-103.879 Z-0.400 F1000
G1 X57.618 Y-104.027 Z-0.400 F1000
G1 X57.470 Y-104.148 Z-0.400 F1000
G1 X57.301 Y-104.238 Z-0.400 F1000
G1 X57.119 Y-104.294 Z-0.400 F1000
G1 X56.928 Y-104.313 Z-0.400 F1000
G1 X56.441 Y-104.313 Z-0.400 F1000
G1 X56.441 Y-104.313 Z5.000 F1000
G1 X60.585 Y-108.863 Z5.000 F1000
G1 X60.585 Y-108.863 Z-0.400 F333.3
G1 X59.731 Y-108.863 Z-0.400 F1000
G1 X59.541 Y-108.879 Z-0.400 F1000
G1 X59.356 Y-108.929 Z-0.400 F1000
G1 X59.183 Y-109.010 Z-0.400 F1000
G1 X59.026 Y-109.119 Z-0.400 F1000
G1 X58.891 Y-109.254 Z-0.400 F1000
G1 X58.782 Y-109.411 Z-0.400 F1000
G1 X58.701 Y-109.584 Z-0.400 F1000
G1 X58.651 Y-109.769 Z-0.400 F1000
G1 X58.635 Y-109.959 Z-0.400 F1000
G1 X58.635 Y-112.153 Z-0.400 F1000
G1 X58.651 Y-112.344 Z-0.400 F1000
G1 X58.701 Y-112.528 Z-0.400 F1000
G1 X58.782 Y-112.702 Z-0.400 F1000
G1 X58.891 Y-112.858 Z-0.400 F1000
G1 X59.026 Y-112.993 Z-0.400 F1000
G1 X59.183 Y-113.103 Z-0.400 F1000
G1 X59.356 Y-113.184 Z-0.400 F1000
G1 X59.541 Y-113.233 Z-0.400 F1000
G1 X59.731 Y-113.250 Z-0.400 F1000
G1 X60.585 Y-113.250 Z-0.400 F1000
G1 X60.585 Y-113.250 Z5.000 F1000
G1 X57.172 Y-113.250 Z5.000 F1000
G1 X57.172 Y-113.250 Z-0.400 F333.3
G1 X55.710 Y-108.863 Z-0.400 F1000
G1 X54.247 Y-113.250 Z-0.400 F1000
G1 X54.247 Y-113.250 Z5.000 F1000
G1 X54.674 Y-112.031 Z5.000 F1000
G1 X54.674 Y-112.031 Z-0.400 F333.3
G1 X56.745 Y-112.031 Z-0.400 F1000
G1 X56.745 Y-112.031 Z5.000 F1000
G1 X38.997 Y-102.376 Z5.000 F1000
G1 X38.997 Y-102.376 Z-0.400 F333.3
G1 X37.535 Y-106.763 Z-0.400 F1000
G1 X36.072 Y-102.376 Z-0.400 F1000
G1 X36.072 Y-102.376 Z5.000 F1000
G1 X34.282 Y-102.952 Z5.000 F1000
G1 X34.282 Y-102.952 Z-0.400 F333.3
G1 X34.412 Y-103.298 Z-0.400 F1000
G1 X34.510 Y-103.654 Z-0.400 F1000
G1 X34.576 Y-104.017 Z-0.400 F1000
G1 X34.609 Y-104.385 Z-0.400 F1000
G1 X34.609 Y-104.754 Z-0.400 F1000
G1 X34.576 Y-105.122 Z-0.400 F1000
G1 X34.510 Y-105.485 Z-0.400 F1000
G1 X34.412 Y-105.841 Z-0.400 F1000
G1 X34.282 Y-106.187 Z-0.400 F1000
G1 X34.122 Y-106.519 Z-0.400 F1000
G1 X34.025 Y-106.622 Z-0.400 F1000
G1 X33.908 Y-106.700 Z-0.400 F1000
G1 X33.775 Y-106.749 Z-0.400 F1000
G1 X33.635 Y-106.765 Z-0.400 F1000
G1 X33.494 Y-106.749 Z-0.400 F1000
G1 X33.362 Y-106.700 Z-0.400 F1000
G1 X33.244 Y-106.622 Z-0.400 F1000
G1 X33.147 Y-106.519 Z-0.400 F1000
G1 X32.987 Y-106.187 Z-0.400 F1000
G1 X32.857 Y-105.841 Z-0.400 F1000
G1 X32.759 Y-105.485 Z-0.400 F1000
G1 X32.693 Y-105.122 Z-0.400 F1000
G1 X32.660 Y-104.754 Z-0.400 F1000
G1 X32.660 Y-104.385 Z-0.400 F1000
G1 X32.693 Y-104.017 Z-0.400 F1000
G1 X32.759 Y-103.654 Z-0.400 F1000
G1 X32.857 Y-103.298 Z-0.400 F1000
G1 X32.987 Y-102.952 Z-0.400 F1000
G1 X33.147 Y-102.619 Z-0.400 F1000
G1 X33.244 Y-102.516 Z-0.400 F1000
G1 X33.362 Y-102.439 Z-0.400 F1000
G1 X33.494 Y-102.390 Z-0.400 F1000
G1 X33.635 Y-102.374 Z-0.400 F1000
G1 X33.775 Y-102.390 Z-0.400 F1000
G1 X33.908 Y-102.439 Z-0.400 F1000
G1 X34.025 Y-102.516 Z-0.400 F1000
G1 X34.122 Y-102.619 Z-0.400 F1000
G1 X34.282 Y-102.952 Z-0.400 F1000
G1 X34.282 Y-102.952 Z5.000 F1000
G1 X35.585 Y-108.876 Z5.000 F1000
G1 X35.585 Y-108.876 Z-0.400 F333.3
G1 X34.731 Y-108.876 Z-0.400 F1000
G1 X34.541 Y-108.892 Z-0.400 F1000
G1 X34.356 Y-108.942 Z-0.400 F1000
G1 X34.183 Y-109.022 Z-0.400 F1000
G1 X34.026 Y-109.132 Z-0.400 F1000
G1 X33.891 Y-109.267 Z-0.400 F1000
G1 X33.782 Y-109.424 Z-0.400 F1000
G1 X33.701 Y-109.597 Z-0.400 F1000
G1 X33.651 Y-109.782 Z-0.400 F1000
G1 X33.635 Y-109.972 Z-0.400 F1000
G1 X33.635 Y-112.166 Z-0.400 F1000
G1 X33.651 Y-112.357 Z-0.400 F1000
G1 X33.701 Y-112.541 Z-0.400 F1000
G1 X33.782 Y-112.715 Z-0.400 F1000
G1 X33.891 Y-112.871 Z-0.400 F1000
G1 X34.026 Y-113.006 Z-0.400 F1000
G1 X34.183 Y-113.116 Z-0.400 F1000
G1 X34.356 Y-113.197 Z-0.400 F1000
G1 X34.541 Y-113.246 Z-0.400 F1000
G1 X34.731 Y-113.263 Z-0.400 F1000
G1 X35.585 Y-113.263 Z-0.400 F1000
G1 X35.585 Y-113.263 Z5.000 F1000
G1 X32.172 Y-113.263 Z5.000 F1000
G1 X32.172 Y-113.263 Z-0.400 F333.3
G1 X30.710 Y-108.876 Z-0.400 F1000
G1 X29.247 Y-113.263 Z-0.400 F1000
G1 X29.247 Y-113.263 Z5.000 F1000
G1 X29.674 Y-112.044 Z5.000 F1000
G1 X29.674 Y-112.044 Z-0.400 F333.3
G1 X31.746 Y-112.044 Z-0.400 F1000
G1 X31.746 Y-112.044 Z5.000 F1000
G1 X29.247 Y-106.763 Z5.000 F1000
G1 X29.247 Y-106.763 Z-0.400 F333.3
G1 X30.222 Y-106.763 Z-0.400 F1000
G1 X30.412 Y-106.744 Z-0.400 F1000
G1 X30.595 Y-106.689 Z-0.400 F1000
G1 X30.764 Y-106.599 Z-0.400 F1000
G1 X30.912 Y-106.477 Z-0.400 F1000
G1 X31.033 Y-106.330 Z-0.400 F1000
G1 X31.123 Y-106.161 Z-0.400 F1000
G1 X31.178 Y-105.978 Z-0.400 F1000
G1 X31.197 Y-105.788 Z-0.400 F1000
G1 X31.197 Y-105.301 Z-0.400 F1000
G1 X31.178 Y-105.110 Z-0.400 F1000
G1 X31.123 Y-104.927 Z-0.400 F1000
G1 X31.033 Y-104.759 Z-0.400 F1000
G1 X30.912 Y-104.611 Z-0.400 F1000
G1 X30.764 Y-104.490 Z-0.400 F1000
G1 X30.595 Y-104.400 Z-0.400 F1000
G1 X30.412 Y-104.344 Z-0.400 F1000
G1 X30.222 Y-104.326 Z-0.400 F1000
G1 X30.222 Y-104.326 Z5.000 F1000
G1 X29.735 Y-104.326 Z5.000 F1000
G1 X29.735 Y-104.326 Z-0.400 F333.3
G1 X30.222 Y-104.326 Z-0.400 F1000
G1 X30.412 Y-104.307 Z-0.400 F1000
G1 X30.595 Y-104.251 Z-0.400 F1000
G1 X30.764 Y-104.161 Z-0.400 F1000
G1 X30.912 Y-104.040 Z-0.400 F1000
G1 X31.033 Y-103.892 Z-0.400 F1000
G1 X31.123 Y-103.724 Z-0.400 F1000
G1 X31.178 Y-103.541 Z-0.400 F1000
G1 X31.197 Y-103.351 Z-0.400 F1000
G1 X31.178 Y-103.160 Z-0.400 F1000
G1 X31.123 Y-102.977 Z-0.400 F1000
G1 X31.033 Y-102.809 Z-0.400 F1000
G1 X30.912 Y-102.661 Z-0.400 F1000
G1 X30.764 Y-102.540 Z-0.400 F1000
G1 X30.595 Y-102.450 Z-0.400 F1000
G1 X30.412 Y-102.394 Z-0.400 F1000
G1 X30.222 Y-102.376 Z-0.400 F1000
G1 X29.247 Y-102.376 Z-0.400 F1000
G1 X29.247 Y-102.376 Z5.000 F1000
G1 X25.835 Y-103.107 Z5.000 F1000
G1 X25.835 Y-103.107 Z-0.400 F333.3
G1 X25.902 Y-102.932 Z-0.400 F1000
G1 X26.000 Y-102.774 Z-0.400 F1000
G1 X26.126 Y-102.636 Z-0.400 F1000
G1 X26.276 Y-102.524 Z-0.400 F1000
G1 X26.443 Y-102.441 Z-0.400 F1000
G1 X26.623 Y-102.391 Z-0.400 F1000
G1 X26.810 Y-102.376 Z-0.400 F1000
G1 X26.997 Y-102.393 Z-0.400 F1000
G1 X27.178 Y-102.446 Z-0.400 F1000
G1 X27.344 Y-102.533 Z-0.400 F1000
G1 X27.492 Y-102.651 Z-0.400 F1000
G1 X27.613 Y-102.794 Z-0.400 F1000
G1 X27.705 Y-102.959 Z-0.400 F1000
G1 X27.763 Y-103.138 Z-0.400 F1000
G1 X27.786 Y-103.325 Z-0.400 F1000
G1 X27.772 Y-103.512 Z-0.400 F1000
G1 X27.722 Y-103.694 Z-0.400 F1000
G1 X27.638 Y-103.862 Z-0.400 F1000
G1 X25.835 Y-106.763 Z-0.400 F1000
G1 X27.785 Y-106.763 Z-0.400 F1000
G1 X27.785 Y-106.763 Z5.000 F1000
G1 X37.728 Y-57.434 Z5.000 F1000
G1 X37.728 Y-57.434 Z-0.400 F333.3
G1 X37.545 Y-57.379 Z-0.400 F1000
G1 X37.376 Y-57.289 Z-0.400 F1000
G1 X37.229 Y-57.167 Z-0.400 F1000
G1 X37.107 Y-57.020 Z-0.400 F1000
G1 X37.017 Y-56.851 Z-0.400 F1000
G1 X36.962 Y-56.668 Z-0.400 F1000
G1 X36.943 Y-56.478 Z-0.400 F1000
G1 X36.943 Y-54.918 Z-0.400 F1000
G1 X36.962 Y-54.728 Z-0.400 F1000
G1 X37.017 Y-54.545 Z-0.400 F1000
G1 X37.107 Y-54.376 Z-0.400 F1000
G1 X37.229 Y-54.229 Z-0.400 F1000
G1 X37.376 Y-54.107 Z-0.400 F1000
G1 X37.545 Y-54.017 Z-0.400 F1000
G1 X37.728 Y-53.962 Z-0.400 F1000
G1 X37.918 Y-53.943 Z-0.400 F1000
G1 X38.108 Y-53.962 Z-0.400 F1000
G1 X38.291 Y-54.017 Z-0.400 F1000
G1 X38.460 Y-54.107 Z-0.400 F1000
G1 X38.607 Y-54.229 Z-0.400 F1000
G1 X38.729 Y-54.376 Z-0.400 F1000
G1 X38.819 Y-54.545 Z-0.400 F1000
G1 X38.874 Y-54.728 Z-0.400 F1000
G1 X38.893 Y-54.918 Z-0.400 F1000
G1 X38.893 Y-56.478 Z-0.400 F1000
G1 X38.874 Y-56.668 Z-0.400 F1000
G1 X38.819 Y-56.851 Z-0.400 F1000
G1 X38.729 Y-57.020 Z-0.400 F1000
G1 X38.607 Y-57.167 Z-0.400 F1000
G1 X38.460 Y-57.289 Z-0.400 F1000
G1 X38.291 Y-57.379 Z-0.400 F1000
G1 X38.108 Y-57.434 Z-0.400 F1000
G1 X37.918 Y-57.453 Z-0.400 F1000
G1 X37.728 Y-57.434 Z-0.400 F1000
G1 X37.728 Y-57.434 Z5.000 F1000
G1 X40.063 Y-57.453 Z5.000 F1000
G1 X40.063 Y-57.453 Z-0.400 F333.3
G1 X40.063 Y-53.943 Z-0.400 F1000
G1 X41.038 Y-53.943 Z-0.400 F1000
G1 X41.228 Y-53.962 Z-0.400 F1000
G1 X41.411 Y-54.017 Z-0.400 F1000
G1 X41.580 Y-54.107 Z-0.400 F1000
G1 X41.727 Y-54.229 Z-0.400 F1000
G1 X41.849 Y-54.376 Z-0.400 F1000
G1 X41.939 Y-54.545 Z-0.400 F1000
G1 X41.994 Y-54.728 Z-0.400 F1000
G1 X42.013 Y-54.918 Z-0.400 F1000
G1 X41.994 Y-55.108 Z-0.400 F1000
G1 X41.939 Y-55.291 Z-0.400 F1000
G1 X41.849 Y-55.460 Z-0.400 F1000
G1 X41.727 Y-55.607 Z-0.400 F1000
G1 X41.580 Y-55.729 Z-0.400 F1000
G1 X41.411 Y-55.819 Z-0.400 F1000
G1 X41.228 Y-55.874 Z-0.400 F1000
G1 X41.038 Y-55.893 Z-0.400 F1000
G1 X40.063 Y-55.893 Z-0.400 F1000
G1 X40.063 Y-55.893 Z5.000 F1000
G1 X41.233 Y-55.893 Z5.000 F1000
G1 X41.233 Y-55.893 Z-0.400 F333.3
G1 X42.013 Y-57.453 Z-0.400 F1000
G1 X42.013 Y-57.453 Z5.000 F1000
G1 X44.743 Y-57.453 Z5.000 F1000
G1 X44.743 Y-57.453 Z-0.400 F333.3
G1 X43.183 Y-57.453 Z-0.400 F1000
G1 X43.183 Y-53.943 Z-0.400 F1000
G1 X43.183 Y-53.943 Z5.000 F1000
G1 X46.303 Y-53.943 Z5.000 F1000
G1 X46.303 Y-53.943 Z-0.400 F333.3
G1 X46.303 Y-57.453 Z-0.400 F1000
G1 X46.303 Y-57.453 Z5.000 F1000
G1 X45.913 Y-52.968 Z5.000 F1000
G1 X45.913 Y-52.968 Z-0.400 F333.3
G1 X46.693 Y-52.383 Z-0.400 F1000
G1 X46.693 Y-52.383 Z5.000 F1000
G1 X47.297 Y-52.253 Z5.000 F1000
G1 X47.297 Y-52.253 Z-0.400 F333.3
G1 X46.127 Y-48.743 Z-0.400 F1000
G1 X44.957 Y-52.253 Z-0.400 F1000
G1 X44.957 Y-52.253 Z5.000 F1000
G1 X45.299 Y-51.278 Z5.000 F1000
G1 X45.299 Y-51.278 Z-0.400 F333.3
G1 X46.956 Y-51.278 Z-0.400 F1000
G1 X46.956 Y-51.278 Z5.000 F1000
G1 X47.863 Y-53.943 Z5.000 F1000
G1 X47.863 Y-53.943 Z-0.400 F333.3
G1 X47.863 Y-57.453 Z-0.400 F1000
G1 X47.863 Y-57.453 Z5.000 F1000
G1 X47.863 Y-56.088 Z5.000 F1000
G1 X47.863 Y-56.088 Z-0.400 F333.3
G1 X49.813 Y-53.943 Z-0.400 F1000
G1 X49.813 Y-53.943 Z5.000 F1000
G1 X48.614 Y-55.259 Z5.000 F1000
G1 X48.614 Y-55.259 Z-0.400 F333.3
G1 X49.832 Y-57.453 Z-0.400 F1000
G1 X49.832 Y-57.453 Z5.000 F1000
G1 X50.027 Y-50.303 Z5.000 F1000
G1 X50.027 Y-50.303 Z-0.400 F333.3
G1 X51.002 Y-50.303 Z-0.400 F1000
G1 X51.193 Y-50.322 Z-0.400 F1000
G1 X51.375 Y-50.377 Z-0.400 F1000
G1 X51.544 Y-50.467 Z-0.400 F1000
G1 X51.692 Y-50.589 Z-0.400 F1000
G1 X51.813 Y-50.736 Z-0.400 F1000
G1 X51.903 Y-50.905 Z-0.400 F1000
G1 X51.959 Y-51.088 Z-0.400 F1000
G1 X51.977 Y-51.278 Z-0.400 F1000
G1 X51.959 Y-51.468 Z-0.400 F1000
G1 X51.903 Y-51.651 Z-0.400 F1000
G1 X51.813 Y-51.820 Z-0.400 F1000
G1 X51.692 Y-51.967 Z-0.400 F1000
G1 X51.544 Y-52.089 Z-0.400 F1000
G1 X51.375 Y-52.179 Z-0.400 F1000
G1 X51.193 Y-52.234 Z-0.400 F1000
G1 X51.002 Y-52.253 Z-0.400 F1000
G1 X50.027 Y-52.253 Z-0.400 F1000
G1 X50.027 Y-48.743 Z-0.400 F1000
G1 X51.002 Y-48.743 Z-0.400 F1000
G1 X51.176 Y-48.763 Z-0.400 F1000
G1 X51.341 Y-48.820 Z-0.400 F1000
G1 X51.489 Y-48.913 Z-0.400 F1000
G1 X51.612 Y-49.037 Z-0.400 F1000
G1 X51.705 Y-49.185 Z-0.400 F1000
G1 X51.763 Y-49.349 Z-0.400 F1000
G1 X51.782 Y-49.523 Z-0.400 F1000
G1 X51.763 Y-49.696 Z-0.400 F1000
G1 X51.705 Y-49.861 Z-0.400 F1000
G1 X51.612 Y-50.009 Z-0.400 F1000
G1 X51.489 Y-50.133 Z-0.400 F1000
G1 X51.341 Y-50.226 Z-0.400 F1000
G1 X51.176 Y-50.283 Z-0.400 F1000
G1 X51.002 Y-50.303 Z-0.400 F1000
G1 X51.002 Y-50.303 Z5.000 F1000
G1 X43.768 Y-48.743 Z5.000 F1000
G1 X43.768 Y-48.743 Z-0.400 F333.3
G1 X41.818 Y-50.888 Z-0.400 F1000
G1 X41.818 Y-50.888 Z5.000 F1000
G1 X42.569 Y-50.059 Z5.000 F1000
G1 X42.569 Y-50.059 Z-0.400 F333.3
G1 X43.787 Y-52.253 Z-0.400 F1000
G1 X43.787 Y-52.253 Z5.000 F1000
G1 X41.818 Y-52.253 Z5.000 F1000
G1 X41.818 Y-52.253 Z-0.400 F333.3
G1 X41.818 Y-48.743 Z-0.400 F1000
G1 X41.818 Y-48.743 Z5.000 F1000
G1 X40.648 Y-48.743 Z5.000 F1000
G1 X40.648 Y-48.743 Z-0.400 F333.3
G1 X40.648 Y-52.253 Z-0.400 F1000
G1 X38.698 Y-48.743 Z-0.400 F1000
G1 X38.698 Y-52.253 Z-0.400 F1000
G1 X38.698 Y-52.253 Z5.000 F1000
G1 X37.528 Y-52.253 Z5.000 F1000
G1 X37.528 Y-52.253 Z-0.400 F333.3
G1 X37.528 Y-48.743 Z-0.400 F1000
G1 X37.528 Y-48.743 Z5.000 F1000
G1 X34.798 Y-48.743 Z5.000 F1000
G1 X34.798 Y-48.743 Z-0.400 F333.3
G1 X34.798 Y-52.253 Z-0.400 F1000
G1 X36.358 Y-52.253 Z-0.400 F1000
G1 X36.358 Y-52.253 Z5.000 F1000
G1 X37.325 Y-33.453 Z5.000 F1000
G1 X37.325 Y-33.453 Z-0.400 F333.3
G1 X35.765 Y-33.453 Z-0.400 F1000
G1 X35.765 Y-29.943 Z-0.400 F1000
G1 X35.765 Y-29.943 Z5.000 F1000
G1 X34.595 Y-29.943 Z5.000 F1000
G1 X34.595 Y-29.943 Z-0.400 F333.3
G1 X34.595 Y-33.453 Z-0.400 F1000
G1 X34.595 Y-33.453 Z5.000 F1000
G1 X32.645 Y-33.453 Z5.000 F1000
G1 X32.645 Y-33.453 Z-0.400 F333.3
G1 X32.645 Y-29.943 Z-0.400 F1000
G1 X32.645 Y-29.943 Z5.000 F1000
G1 X32.645 Y-31.503 Z5.000 F1000
G1 X32.645 Y-31.503 Z-0.400 F333.3
G1 X34.595 Y-31.503 Z-0.400 F1000
G1 X34.595 Y-31.503 Z5.000 F1000
G1 X35.765 Y-28.253 Z5.000 F1000
G1 X35.765 Y-28.253 Z-0.400 F333.3
G1 X34.205 Y-28.253 Z-0.400 F1000
G1 X34.205 Y-24.743 Z-0.400 F1000
G1 X34.205 Y-24.743 Z5.000 F1000
G1 X36.935 Y-24.743 Z5.000 F1000
G1 X36.935 Y-24.743 Z-0.400 F333.3
G1 X36.935 Y-28.253 Z-0.400 F1000
G1 X36.935 Y-28.253 Z5.000 F1000
G1 X38.105 Y-28.253 Z5.000 F1000
G1 X38.105 Y-28.253 Z-0.400 F333.3
G1 X38.105 Y-24.743 Z-0.400 F1000
G1 X40.055 Y-28.253 Z-0.400 F1000
G1 X40.055 Y-24.743 Z-0.400 F1000
G1 X40.055 Y-24.743 Z5.000 F1000
G1 X41.225 Y-24.743 Z5.000 F1000
G1 X41.225 Y-24.743 Z-0.400 F333.3
G1 X41.225 Y-28.253 Z-0.400 F1000
G1 X41.225 Y-28.253 Z5.000 F1000
G1 X41.225 Y-26.888 Z5.000 F1000
G1 X41.225 Y-26.888 Z-0.400 F333.3
G1 X43.175 Y-24.743 Z-0.400 F1000
G1 X43.175 Y-24.743 Z5.000 F1000
G1 X41.976 Y-26.059 Z5.000 F1000
G1 X41.976 Y-26.059 Z-0.400 F333.3
G1 X43.194 Y-28.253 Z-0.400 F1000
G1 X43.194 Y-28.253 Z5.000 F1000
G1 X44.364 Y-28.253 Z5.000 F1000
G1 X44.364 Y-28.253 Z-0.400 F333.3
G1 X45.535 Y-24.743 Z-0.400 F1000
G1 X46.704 Y-28.253 Z-0.400 F1000
G1 X46.704 Y-28.253 Z5.000 F1000
G1 X46.363 Y-27.278 Z5.000 F1000
G1 X46.363 Y-27.278 Z-0.400 F333.3
G1 X44.706 Y-27.278 Z-0.400 F1000
G1 X44.706 Y-27.278 Z5.000 F1000
G1 X45.520 Y-29.962 Z5.000 F1000
G1 X45.520 Y-29.962 Z-0.400 F333.3
G1 X45.710 Y-29.943 Z-0.400 F1000
G1 X45.900 Y-29.962 Z-0.400 F1000
G1 X46.083 Y-30.017 Z-0.400 F1000
G1 X46.252 Y-30.107 Z-0.400 F1000
G1 X46.400 Y-30.229 Z-0.400 F1000
G1 X46.521 Y-30.376 Z-0.400 F1000
G1 X46.611 Y-30.545 Z-0.400 F1000
G1 X46.666 Y-30.728 Z-0.400 F1000
G1 X46.685 Y-30.918 Z-0.400 F1000
G1 X46.685 Y-32.478 Z-0.400 F1000
G1 X46.666 Y-32.668 Z-0.400 F1000
G1 X46.611 Y-32.851 Z-0.400 F1000
G1 X46.521 Y-33.020 Z-0.400 F1000
G1 X46.400 Y-33.167 Z-0.400 F1000
G1 X46.252 Y-33.289 Z-0.400 F1000
G1 X46.083 Y-33.379 Z-0.400 F1000
G1 X45.900 Y-33.434 Z-0.400 F1000
G1 X45.710 Y-33.453 Z-0.400 F1000
G1 X45.520 Y-33.434 Z-0.400 F1000
G1 X45.337 Y-33.379 Z-0.400 F1000
G1 X45.168 Y-33.289 Z-0.400 F1000
G1 X45.021 Y-33.167 Z-0.400 F1000
G1 X44.899 Y-33.020 Z-0.400 F1000
G1 X44.809 Y-32.851 Z-0.400 F1000
G1 X44.754 Y-32.668 Z-0.400 F1000
G1 X44.735 Y-32.478 Z-0.400 F1000
G1 X44.735 Y-30.918 Z-0.400 F1000
G1 X44.754 Y-30.728 Z-0.400 F1000
G1 X44.809 Y-30.545 Z-0.400 F1000
G1 X44.899 Y-30.376 Z-0.400 F1000
G1 X45.021 Y-30.229 Z-0.400 F1000
G1 X45.168 Y-30.107 Z-0.400 F1000
G1 X45.337 Y-30.017 Z-0.400 F1000
G1 X45.520 Y-29.962 Z-0.400 F1000
G1 X45.520 Y-29.962 Z5.000 F1000
G1 X42.590 Y-31.503 Z5.000 F1000
G1 X42.590 Y-31.503 Z-0.400 F333.3
G1 X42.764 Y-31.483 Z-0.400 F1000
G1 X42.929 Y-31.426 Z-0.400 F1000
G1 X43.076 Y-31.333 Z-0.400 F1000
G1 X43.200 Y-31.209 Z-0.400 F1000
G1 X43.293 Y-31.061 Z-0.400 F1000
G1 X43.350 Y-30.896 Z-0.400 F1000
G1 X43.370 Y-30.723 Z-0.400 F1000
G1 X43.350 Y-30.549 Z-0.400 F1000
G1 X43.293 Y-30.385 Z-0.400 F1000
G1 X43.200 Y-30.237 Z-0.400 F1000
G1 X43.076 Y-30.113 Z-0.400 F1000
G1 X42.929 Y-30.020 Z-0.400 F1000
G1 X42.764 Y-29.962 Z-0.400 F1000
G1 X42.590 Y-29.943 Z-0.400 F1000
G1 X41.615 Y-29.943 Z-0.400 F1000
G1 X41.615 Y-33.453 Z-0.400 F1000
G1 X42.590 Y-33.453 Z-0.400 F1000
G1 X42.780 Y-33.434 Z-0.400 F1000
G1 X42.963 Y-33.379 Z-0.400 F1000
G1 X43.132 Y-33.289 Z-0.400 F1000
G1 X43.279 Y-33.167 Z-0.400 F1000
G1 X43.401 Y-33.020 Z-0.400 F1000
G1 X43.491 Y-32.851 Z-0.400 F1000
G1 X43.546 Y-32.668 Z-0.400 F1000
G1 X43.565 Y-32.478 Z-0.400 F1000
G1 X43.546 Y-32.288 Z-0.400 F1000
G1 X43.491 Y-32.105 Z-0.400 F1000
G1 X43.401 Y-31.936 Z-0.400 F1000
G1 X43.279 Y-31.788 Z-0.400 F1000
G1 X43.132 Y-31.667 Z-0.400 F1000
G1 X42.963 Y-31.577 Z-0.400 F1000
G1 X42.780 Y-31.522 Z-0.400 F1000
G1 X42.590 Y-31.503 Z-0.400 F1000
G1 X41.615 Y-31.503 Z-0.400 F1000
G1 X41.615 Y-31.503 Z5.000 F1000
G1 X40.445 Y-29.943 Z5.000 F1000
G1 X40.445 Y-29.943 Z-0.400 F333.3
G1 X40.445 Y-32.478 Z-0.400 F1000
G1 X40.426 Y-32.668 Z-0.400 F1000
G1 X40.371 Y-32.851 Z-0.400 F1000
G1 X40.281 Y-33.020 Z-0.400 F1000
G1 X40.160 Y-33.167 Z-0.400 F1000
G1 X40.012 Y-33.289 Z-0.400 F1000
G1 X39.843 Y-33.379 Z-0.400 F1000
G1 X39.660 Y-33.434 Z-0.400 F1000
G1 X39.470 Y-33.453 Z-0.400 F1000
G1 X39.280 Y-33.434 Z-0.400 F1000
G1 X39.097 Y-33.379 Z-0.400 F1000
G1 X38.928 Y-33.289 Z-0.400 F1000
G1 X38.781 Y-33.167 Z-0.400 F1000
G1 X38.659 Y-33.020 Z-0.400 F1000
G1 X38.569 Y-32.851 Z-0.400 F1000
G1 X38.514 Y-32.668 Z-0.400 F1000
G1 X38.495 Y-32.478 Z-0.400 F1000
G1 X38.495 Y-29.943 Z-0.400 F1000
G1 X38.495 Y-29.943 Z5.000 F1000
G1 X47.855 Y-29.943 Z5.000 F1000
G1 X47.855 Y-29.943 Z-0.400 F333.3
G1 X47.855 Y-33.453 Z-0.400 F1000
G1 X47.855 Y-33.453 Z5.000 F1000
G1 X47.855 Y-32.088 Z5.000 F1000
G1 X47.855 Y-32.088 Z-0.400 F333.3
G1 X49.805 Y-29.943 Z-0.400 F1000
G1 X49.805 Y-29.943 Z5.000 F1000
G1 X49.435 Y-28.253 Z5.000 F1000
G1 X49.435 Y-28.253 Z-0.400 F333.3
G1 X50.604 Y-24.743 Z-0.400 F1000
G1 X51.775 Y-28.253 Z-0.400 F1000
G1 X51.775 Y-28.253 Z5.000 F1000
G1 X51.775 Y-28.968 Z5.000 F1000
G1 X51.775 Y-28.968 Z-0.400 F333.3
G1 X52.555 Y-28.383 Z-0.400 F1000
G1 X52.555 Y-28.383 Z5.000 F1000
G1 X51.433 Y-27.278 Z5.000 F1000
G1 X51.433 Y-27.278 Z-0.400 F333.3
G1 X49.776 Y-27.278 Z-0.400 F1000
G1 X49.776 Y-27.278 Z5.000 F1000
G1 X48.606 Y-31.259 Z5.000 F1000
G1 X48.606 Y-31.259 Z-0.400 F333.3
G1 X49.825 Y-33.453 Z-0.400 F1000
G1 X49.825 Y-33.453 Z5.000 F1000
G1 X50.994 Y-33.453 Z5.000 F1000
G1 X50.994 Y-33.453 Z-0.400 F333.3
G1 X52.165 Y-29.943 Z-0.400 F1000
G1 X53.334 Y-33.453 Z-0.400 F1000
G1 X53.334 Y-33.453 Z5.000 F1000
G1 X52.993 Y-32.478 Z5.000 F1000
G1 X52.993 Y-32.478 Z-0.400 F333.3
G1 X51.336 Y-32.478 Z-0.400 F1000
G1 X51.336 Y-32.478 Z5.000 F1000
G1 X51.336 Y-32.478 Z15.000 F1000
